Rmj009/robot_ord/stockdata.csv
joint1,joint2,joint3,joint4,joint5,joint6,Date
0.133741883,5.81803744,10.31564836,20.23148808,30.36407386,-0.197974034,2018/9/23
0.159818272,5.393475411,10.97653771,20.57211973,30.33365806,-0.421559869,2018/9/23
0.721893043,5.411786001,10.94306598,20.85726932,30.23264925,-0.478424487,2018/9/23
0.436975457,5.090296384,10.88402321,20.52028352,30.64074401,-0.546496016,2018/9/23
0.163266371,5.851809729,10.35627465,20.60207742,30.57816161,-0.043354293,2018/9/23
0.863766782,5.359409287,10.47334448,20.57267374,30.47927224,-0.144080102,2018/9/23
0.273598742,5.486098604,10.1418487,20.23854035,30.2260947,-0.57833186,2018/9/23
0.743326232,5.180555034,10.20027695,20.0195385,30.14114902,-0.581115355,2018/9/23
0.925431235,5.39592676,10.88520298,20.32606393,30.72581262,-0.706201569,2018/9/23
0.271656974,5.136214086,10.76609215,20.18957705,30.84837895,-0.775244641,2018/9/23
0.143729037,5.457339537,10.91332131,20.87978843,30.59345899,-0.632320687,2018/9/23
0.394251212,5.759240966,10.75373513,20.33046303,30.60098698,-0.795247229,2018/9/23
0.889367451,5.191380216,10.51269054,20.57378003,30.91551336,-0.060814455,2018/9/23
0.38793668,5.328911646,10.06043074,20.75062574,30.68480034,-0.210975125,2018/9/23
0.663836906,5.131072425,10.9811839,20.82611713,30.28937529,-0.794381578,2018/9/23
0.861222101,5.212943331,10.65364547,20.14591988,30.50784561,-0.499649681,2018/9/23
0.186716526,5.905774309,10.36425352,20.35008163,30.16103558,-0.48234681,2018/9/23
0.397779695,5.375374257,10.37456135,20.84936917,30.39237298,-0.223947672,2018/9/23
0.299519303,5.955779442,10.46623044,20.44709199,30.47478665,-0.707725514,2018/9/23
0.857723543,5.598319492,10.34225332,20.36025626,30.87249728,-0.50651673,2018/9/23
0.595846315,5.920699502,10.11425793,20.67576115,30.16842416,-0.122126034,2018/9/23
0.97330152,5.259541535,10.29029303,20.69407861,30.51633715,-0.577827354,2018/9/23
0.990790036,5.784246961,10.61903452,20.47245558,30.06560988,-0.578695047,2018/9/23
0.865108662,5.054746753,10.82007604,20.88487472,30.55680762,-0.118674915,2018/9/23
0.941404862,5.733292338,10.77801424,20.7004312,30.21962657,-0.889522701,2018/9/23
0.873434096,5.260140342,10.92145887,20.89616786,30.83754032,-0.878252672,2018/9/23
0.00524814,5.128492399,10.30140873,20.63235869,30.548592,-0.21869573,2018/9/23
0.141570993,5.724555123,10.51728037,20.8424607,30.33332111,-0.517737512,2018/9/23
0.70781639,5.180172887,10.4684663,20.05100371,30.20284035,-0.413471204,2018/9/23
0.963560493,5.949910805,10.6159191,20.07354113,30.72455022,-0.166633571,2018/9/23
0.315723927,5.87142489,10.85895412,20.59940969,30.12596727,-0.60758448,2018/9/23
0.958680725,5.563548863,10.14407967,20.71717429,30.59622083,-0.924550567,2018/9/23
0.177901544,5.248482222,10.38894221,20.90256559,30.64419518,-0.808607163,2018/9/23
0.712822641,5.349318905,10.90704702,20.02962562,30.91830458,-0.370673975,2018/9/23
0.190539129,5.541518375,10.16411317,20.09945786,30.29749071,-0.6639456,2018/9/23
0.486999023,5.206243114,10.35713371,20.83921268,30.18754402,-0.412806952,2018/9/23
0.418563687,5.911778268,10.8121369,20.42523834,30.13698405,-0.161638443,2018/9/23
0.905643048,5.466178696,10.49779715,20.22610314,30.36896891,-0.504855928,2018/9/23
0.923780758,5.710433949,10.98655926,20.99492381,30.16531487,-0.868862422,2018/9/23
0.811464664,5.719503423,10.76891178,20.39719331,30.20926397,-0.677148918,2018/9/23
0.532411974,5.570214659,10.27984393,20.91346779,30.22518746,-0.592164115,2018/9/23
0.14031241,5.441431432,10.27329042,20.8176886,30.62750899,-0.635657173,2018/9/23
0.186387466,5.986019712,10.46125633,20.53287577,30.00764096,-0.167760088,2018/9/23
0.49038841,5.05067798,10.78827169,20.18593522,30.85526975,-0.559021083,2018/9/23
0.193294778,5.436645838,10.34318194,20.70656637,30.86279121,-0.536626787,2018/9/23
0.670246375,5.577516772,10.10234513,20.19155026,30.31256419,-0.360001256,2018/9/23
0.230872301,5.138197257,10.43425719,20.46779361,30.5814607,-0.011621983,2018/9/23
0.310394409,5.804588372,10.77870156,20.95839232,30.10533233,-0.626072304,2018/9/23
0.536482974,5.459465183,10.27334085,20.41919659,30.34700795,-0.745296017,2018/9/23
0.743770203,5.504788881,10.76052129,20.48329483,30.72263365,-0.462044499,2018/9/23
0.308127934,5.144670379,10.07818275,20.07132094,30.65407384,-0.938451704,2018/9/23
0.530637536,5.421416663,10.30867921,20.42864677,30.3793628,-0.162815155,2018/9/23
0.295803544,5.833893404,10.30125206,20.8394485,30.5054927,-0.8664565,2018/9/23
0.095514759,5.389234839,10.4727903,20.74866032,30.90051944,-0.396797031,2018/9/23
0.825139692,5.336726855,10.81649717,20.66816888,30.47923525,-0.008200693,2018/9/23
0.961060444,5.877407399,10.35940886,20.52497838,30.70831976,-0.602048148,2018/9/23
0.857328095,5.311082139,10.6018349,20.69740819,30.51646433,-0.414831725,2018/9/23
0.321996198,5.350478193,10.13021776,20.47806679,30.69959278,-0.709822648,2018/9/23
0.09655557,5.79564333,10.12664697,20.04160412,30.2998934,-0.373983552,2018/9/23
0.22133522,5.939235395,10.65146305,20.68574159,30.37162466,-0.625055935,2018/9/23
0.973103113,5.739138586,10.59089653,20.25754702,30.85725785,-0.811506355,2018/9/23
0.07562678,5.512129912,10.56206366,20.52731342,30.95251167,-0.93214776,2018/9/23
0.141648963,5.086482157,10.7645102,20.56644713,30.55433175,-0.28539032,2018/9/23
0.812086244,5.123984244,10.80504282,20.50492867,30.54967956,-0.682919013,2018/9/23
0.852292235,5.542053679,10.38120415,20.70815194,30.31490971,-0.333646452,2018/9/23
0.481576213,5.64554175,10.18215071,20.51705937,30.44144434,-0.72603669,2018/9/23
0.160042515,5.510266424,10.668332,20.5331877,30.42992078,-0.367389035,2018/9/23
0.144783292,5.499384051,10.14208786,20.11720655,30.27925614,-0.014130445,2018/9/23
0.825409244,5.095137961,10.295347,20.34374786,30.03498441,-0.578858411,2018/9/23
0.076195235,5.559268768,10.00388879,20.43534884,30.32749338,-0.772812973,2018/9/23
0.889185004,5.742505823,10.11481912,20.26516463,30.91449697,-0.336945941,2018/9/23
0.835613467,5.498821005,10.73429428,20.959133,30.31708166,-0.408254757,2018/9/23
0.699028894,5.758451553,10.23589351,20.85284236,30.33721825,-0.335226147,2018/9/23
0.843495879,5.876818574,10.37168386,20.34079161,30.49198318,-0.271756179,2018/9/23
0.689326445,5.020218146,10.12855849,20.66377234,30.79666629,-0.52790188,2018/9/23
0.85281718,5.122336712,10.54525997,20.91135656,30.09531965,-0.890352079,2018/9/23
0.986972669,5.533800615,10.22406829,20.18147466,30.05505091,-0.749619827,2018/9/23
0.923786168,5.84046579,10.40533641,20.59698627,30.71019632,-0.375308352,2018/9/23
0.330490177,5.09066536,10.58484849,20.13192837,30.48999609,-0.490098689,2018/9/23
0.354322501,5.094319919,10.58925557,20.59544102,30.40883074,-0.036565687,2018/9/23
0.819328871,5.395718747,10.22111097,20.45190172,30.82474273,-0.283929114,2018/9/23
0.279807093,5.91595883,10.07988697,20.15252671,30.34285976,-0.56862092,2018/9/23
0.321270688,5.514397286,10.5919969,20.91040751,30.66360829,-0.887033686,2018/9/23
0.484425103,5.094394737,10.53245142,20.12585422,30.91120131,-0.565009842,2018/9/23
0.171998003,5.922362866,10.16939316,20.21995166,30.40670513,-0.358414161,2018/9/23
0.620357486,5.945423849,10.06931307,20.477044,30.98958056,-0.874541876,2018/9/23
0.478912713,5.58546278,10.81236242,20.37136643,30.17075208,-0.709347882,2018/9/23
0.275867992,5.07849669,10.87012627,20.670324,30.70378302,-0.738000891,2018/9/23
0.937425934,5.474134677,10.48873902,20.74371373,30.9352461,-0.9296879,2018/9/23
0.727574814,5.87789634,10.57979339,20.6028086,30.48539372,-0.723517902,2018/9/23
0.579787242,5.351547384,10.63059593,20.69204104,30.03985961,-0.217345869,2018/9/23
0.641653977,5.478392587,10.90047539,20.31086141,30.3730066,-0.632605532,2018/9/23
0.298679564,5.733920539,10.62072674,20.7786559,30.74945381,-0.198181752,2018/9/23
0.295758256,5.348362542,10.02542918,20.28624551,30.68777389,-0.738485397,2018/9/23
0.595473777,5.306919663,10.53549789,20.95702797,30.32545176,-0.672922202,2018/9/23
0.590725433,5.251938973,10.75197234,20.79974242,30.53110559,-0.703620801,2018/9/23
0.112482606,5.492227375,10.37844395,20.72098831,30.00897897,-0.320682184,2018/9/23
0.080186381,5.792016399,10.83223146,20.079436,30.88734224,-0.271463693,2018/9/23
0.925852093,5.971238773,10.14863812,20.79100275,30.79443689,-0.294360367,2018/9/23
0.448144729,5.28918368,10.26963848,20.62242283,30.68629644,-0.08384615,2018/9/23
0.559133657,5.83111665,10.78987471,20.66874913,30.2928231,-0.025201689,2018/9/23
0.24870984,5.880743609,10.44331713,20.24482343,30.28523785,-0.38726276,2018/9/23
0.079661091,5.619048208,10.84607429,20.49531546,30.04589413,-0.131836396,2018/9/23
0.243666264,5.920184262,10.03758735,20.15730493,30.31775311,-0.007771535,2018/9/23
0.5079244,5.776865251,10.84618858,20.83405033,30.77367366,-0.582609273,2018/9/23
0.052762866,5.038250517,10.2194391,20.03191868,30.93667616,-0.017775844,2018/9/23
0.616926096,5.422433374,10.31064903,20.38163446,30.22316885,-0.261924165,2018/9/23
0.391247498,5.417177407,10.18987253,20.56343908,30.37379229,-0.649251373,2018/9/23
0.360257289,5.387996156,10.17011667,20.3152618,30.48374993,-0.037894059,2018/9/23
0.396230729,5.181510978,10.05012393,20.79200194,30.61955199,-0.080551643,2018/9/23
0.279803879,5.315577903,10.87279482,20.46426184,30.83482225,-0.272477768,2018/9/23
0.053044049,5.200594961,10.29953867,20.77949862,30.38507697,-0.734962828,2018/9/23
0.215452502,5.318220602,10.3668417,20.68742866,30.36875812,-0.625526513,2018/9/23
0.63145029,5.38256842,10.52916721,20.48570414,30.60520389,-0.542029007,2018/9/23
0.299023942,5.508914843,10.11631515,20.17734896,30.08427559,-0.209116835,2018/9/23
0.29791823,5.673681494,10.45098625,20.98318833,30.6474926,-0.756315558,2018/9/23
0.058396622,5.344707373,10.5701939,20.38923315,30.69829662,-0.328217851,2018/9/23
0.582673774,5.946334095,10.2793894,20.28113062,30.47134832,-0.734440256,2018/9/23
0.970328602,5.98511338,10.74606486,20.66247037,30.66119316,-0.66571298,2018/9/23
0.077419682,5.958724447,10.38392809,20.85343617,30.87498671,-0.424903624,2018/9/23
0.683104011,5.97019945,10.17840867,20.26615782,30.82552688,-0.852855426,2018/9/23
0.48395848,5.445744719,10.3505819,20.21780786,30.63610583,-0.282242355,2018/9/23
0.271372379,5.731452851,10.74979205,20.20909765,30.2197218,-0.748819532,2018/9/23
0.078051631,5.876227285,10.53598015,20.30472241,30.49113041,-0.313254706,2018/9/23
0.470881405,5.672254452,10.05448681,20.03859822,30.13075431,-0.863541322,2018/9/23
0.410557705,5.651082115,10.60860248,20.27828888,30.91042896,-0.882355644,2018/9/23
0.472290168,5.934889795,10.60240196,20.08071044,30.23200363,-0.907334542,2018/9/23
0.346120363,5.98536518,10.59541326,20.35768811,30.9363803,-0.054129318,2018/9/23
0.279461563,5.714881209,10.64797643,20.85742088,30.9746857,-0.165144506,2018/9/23
0.663133447,5.743540263,10.3519861,20.39337379,30.62742924,-0.414225991,2018/9/23
0.789478352,5.810962898,10.60999757,20.93483071,30.74270524,-0.817469496,2018/9/23
0.377920868,5.012868007,10.46595849,20.99682893,30.77085912,-0.740729256,2018/9/23
0.279530732,5.365658342,10.64300358,20.19259388,30.42171082,-0.638276728,2018/9/23
0.472609748,5.305668213,10.42624339,20.89296508,30.70363038,-0.808413396,2018/9/23
0.763918352,5.133648297,10.79924495,20.083617,30.6421909,-0.217197335,2018/9/23
0.030497576,5.507464635,10.21135862,20.88951743,30.49436948,-0.022207983,2018/9/23
0.417782778,5.586854439,10.41262455,20.92133018,30.46894237,-0.451606395,2018/9/23
0.845896972,5.753770584,10.23943015,20.5684154,30.41973433,-0.543262281,2018/9/23
0.326587149,5.796172953,10.28651028,20.53783656,30.94997825,-0.169445824,2018/9/23
0.203327271,5.936285842,10.45741253,20.02079571,30.38626957,-0.405622318,2018/9/23
0.38407844,5.961274064,10.80300001,20.10168056,30.13469552,-0.991549426,2018/9/23
0.19907939,5.600733127,10.87270654,20.03615975,30.25435764,-0.690407378,2018/9/23
0.493115012,5.542784158,10.34084619,20.81713129,30.58209059,-0.658186461,2018/9/23
0.153554268,5.815921321,10.22509656,20.44293783,30.82467384,-0.270205163,2018/9/23
0.039284783,5.225068621,10.38615041,20.57533639,30.47165577,-0.598792689,2018/9/23
0.04312879,5.380307232,10.87630868,20.5993601,30.4503488,-0.584158338,2018/9/23
0.130049299,5.951869181,10.74326017,20.77471785,30.67755841,-0.25871035,2018/9/23
0.113966885,5.865749585,10.82229607,20.57692999,30.56019096,-0.906826903,2018/9/23
0.64702728,5.459488824,10.19006103,20.509006,30.80247129,-0.166236797,2018/9/23
0.495220593,5.797756339,10.76242239,20.11429203,30.73251227,-0.862611028,2018/9/23
0.002265988,5.451216076,10.114501,20.10815977,30.92268857,-0.099390248,2018/9/23
0.284470629,5.247800598,10.83598928,20.90519019,30.42772638,-0.609414611,2018/9/23
0.538570754,5.18020535,10.65779331,20.85530995,30.89717651,-0.540874117,2018/9/23
0.772763038,5.239955242,10.86080402,20.08898144,30.57157536,-0.058920507,2018/9/23
0.423152414,5.578997192,10.10992284,20.35173036,30.39034768,-0.171579836,2018/9/23
0.304639751,5.866500056,10.19644641,20.25786507,30.0598196,-0.448605896,2018/9/23
0.851435368,5.020215361,10.6389366,20.44160332,30.04445823,-0.197866701,2018/9/23
0.911798183,5.358782411,10.77239216,20.61995299,30.60764126,-0.691714183,2018/9/23
0.0466901,5.381134201,10.58194366,20.04550694,30.00098822,-0.489709674,2018/9/23
0.623168258,5.493363714,10.57140721,20.40498262,30.55562887,-0.913507722,2018/9/23
0.972749926,5.256414002,10.49988347,20.61291364,30.03008495,-0.497430828,2018/9/23
0.028902739,5.086354545,10.33533836,20.85991807,30.43700791,-0.72919159,2018/9/23
0.569309821,5.526390985,10.15476787,20.18165293,30.14528224,-0.309519477,2018/9/23
0.373026361,5.414600947,10.41184924,20.73213807,30.60698613,-0.940123802,2018/9/23
0.529767093,5.759546298,10.41632858,20.72156255,30.66258345,-0.908703388,2018/9/23
0.190210837,5.002986261,10.54085139,20.5876784,30.36265719,-0.201695113,2018/9/23
0.193901842,5.293359424,10.44368561,20.74755713,30.87996862,-0.33560579,2018/9/23
0.258112711,5.829571938,10.91721399,20.58984398,30.25312986,-0.670674103,2018/9/23
0.716515414,5.66629622,10.80684916,20.84110937,30.07338793,-0.88958362,2018/9/23
0.233463473,5.020281827,10.47822754,20.9834377,30.17389917,-0.370030024,2018/9/23
0.215631566,5.123065098,10.85767469,20.61158939,30.832713,-0.374410907,2018/9/23
0.41871796,5.179924334,10.67447682,20.1134194,30.15043585,-0.911383823,2018/9/23
0.803903282,5.411260262,10.60360401,20.61403133,30.89816311,-0.876648387,2018/9/23
0.776673752,5.102920195,10.62382346,20.8994672,30.20364062,-0.339798896,2018/9/23
0.041430271,5.700587273,10.66366086,20.11333909,30.39442518,-0.906257537,2018/9/23
0.582341747,5.823020149,10.77862276,20.05958834,30.58998317,-0.902318312,2018/9/23
0.649859191,5.00728846,10.10815269,20.69440183,30.02820805,-0.475167932,2018/9/23
0.438099623,5.016627339,10.90775234,20.98598677,30.90789052,-0.663394267,2018/9/23
0.177984926,5.898543074,10.30635665,20.88737537,30.67863501,-0.77038038,2018/9/23
0.479658805,5.422526443,10.94194264,20.18994664,30.74359161,-0.138501972,2018/9/23
0.57205225,5.763454952,10.91232108,20.39459151,30.77652979,-0.134540621,2018/9/23
0.588167443,5.894464141,10.12955094,20.16403212,30.27153224,-0.35651134,2018/9/23
0.158371373,5.861129907,10.80389943,20.48093823,30.1641548,-0.000657686,2018/9/23
0.477878759,5.949511373,10.01163354,20.06602616,30.3897892,-0.907904293,2018/9/23
0.248457091,5.72316179,10.30564032,20.61682027,30.6650943,-0.932091756,2018/9/23
0.784294717,5.055710005,10.67127076,20.0558008,30.59982449,-0.798263303,2018/9/23
0.07364436,5.537174011,10.61060577,20.33672829,30.56633601,-0.857699088,2018/9/23
0.109753367,5.922216692,10.40949215,20.81858241,30.91724784,-0.54923048,2018/9/23
0.202699759,5.019784743,10.54525636,20.88122417,30.13385252,-0.517149019,2018/9/23
0.551852125,5.967857947,10.26921734,20.67198087,30.22632115,-0.846861457,2018/9/23
0.076768709,5.434762609,10.57030473,20.53625655,30.62859842,-0.830868887,2018/9/23
0.446552679,5.046174709,10.16471039,20.84266014,30.90012098,-0.510330788,2018/9/23
0.087392367,5.488432108,10.38680548,20.03944744,30.29270477,-0.971796115,2018/9/23
0.117111156,5.051284727,10.51426233,20.87469602,30.19944703,-0.119777132,2018/9/23
0.28531892,5.817598542,10.20793515,20.80350668,30.65410423,-0.708153565,2018/9/23
0.617434669,5.083349883,10.37666425,20.83148879,30.68061742,-0.348164229,2018/9/23
0.048827558,5.897294963,10.21612439,20.21903024,30.70275899,-0.90540586,2018/9/23
0.721852812,5.060981787,10.62655221,20.75342897,30.67152273,-0.959730218,2018/9/23
0.858598376,5.872166744,10.92988159,20.73928883,30.23495495,-0.439846038,2018/9/23
0.670761021,5.018654326,10.5815474,20.04579553,30.15948149,-0.580175382,2018/9/24
0.030718607,5.823456289,10.51303898,20.91786795,30.09168191,-0.290782203,2018/9/24
0.728114526,5.980629882,10.13358414,20.37510633,30.22158175,-0.490237727,2018/9/24
0.131727473,5.286386357,10.62364116,20.22890949,30.15341811,-0.386353497,2018/9/24
0.420071505,5.521223763,10.59683695,20.17085633,30.38995377,-0.685266952,2018/9/24
0.108180938,5.748762298,10.72203261,20.10064196,30.69242203,-0.458367655,2018/9/24
0.644129835,5.697167242,10.49744452,20.4944993,30.62640933,-0.779462939,2018/9/24
0.211353092,5.498196135,10.04132412,20.96146729,30.74189336,-0.346035629,2018/9/24
0.017875652,5.991693514,10.19677264,20.67015611,30.94359464,-0.560940622,2018/9/24
0.394823702,5.184736739,10.310935,20.51834068,30.04600268,-0.091838814,2018/9/24
0.779781034,5.042309158,10.08330044,20.2586864,30.87187705,-0.018984708,2018/9/24
0.859244383,5.830002044,10.9214174,20.31973118,30.44657201,-0.535679045,2018/9/24
0.451862953,5.964816336,10.40373286,20.3970175,30.75443741,-0.717545706,2018/9/24
0.78534763,5.5800219,10.56373456,20.82253225,30.71262293,-0.642350219,2018/9/24
0.116899603,5.752341191,10.7735596,20.66262364,30.50047866,-0.988860444,2018/9/24
0.844579046,5.398262854,10.72785371,20.89030319,30.25944734,-0.272319325,2018/9/24
0.012594882,5.55337581,10.60961944,20.89802016,30.48821802,-0.935780549,2018/9/24
0.030790019,5.66446903,10.40003651,20.91364805,30.55711573,-0.068870924,2018/9/24
0.54318232,5.82840251,10.9004879,20.32375693,30.06954874,-0.227594511,2018/9/24
0.235836893,5.011172491,10.59544862,20.83110818,30.5031803,-0.791933055,2018/9/24
0.425376235,5.687594435,10.99619297,20.84993267,30.36751554,-0.047878964,2018/9/24
0.220474836,5.711631,10.89155815,20.13129394,30.1137337,-0.394930908,2018/9/24
0.288948307,5.345170316,10.89649785,20.28757381,30.65526016,-0.736400253,2018/9/24
0.282762475,5.771641364,10.70882459,20.5206627,30.68346981,-0.794662747,2018/9/24
0.147249099,5.547988415,10.99005959,20.29589585,30.78317154,-0.84725587,2018/9/24
0.04386807,5.562486992,10.87433321,20.59669227,30.91676399,-0.929636714,2018/9/24
0.888254005,5.788713517,10.01499195,20.14406198,30.12443407,-0.388979244,2018/9/24
0.319658092,5.809013325,10.12120316,20.38654928,30.3154073,-0.945758801,2018/9/24
0.063912347,5.421788351,10.39020199,20.75742066,30.52454748,-0.846455428,2018/9/24
0.676434366,5.572057079,10.49627354,20.93183794,30.45133188,-0.239307178,2018/9/24
0.551716014,5.793702269,10.90461987,20.79678685,30.70236373,-0.681938888,2018/9/24
0.664601395,5.553956338,10.7819002,20.01229761,30.58115076,-0.655601294,2018/9/24
0.586320598,5.296161442,10.61525631,20.11285472,30.02527781,-0.169253202,2018/9/24
0.64451453,5.904213905,10.85259178,20.88166797,30.2057734,-0.551413968,2018/9/24
0.273665794,5.625818325,10.81537353,20.71195861,30.04752817,-0.159496855,2018/9/24
0.185730932,5.563616559,10.80490452,20.69826786,30.14097829,-0.636167502,2018/9/24
0.85114842,5.385368173,10.9384096,20.54504019,30.43117092,-0.792913018,2018/9/24
0.52966439,5.043343256,10.86421911,20.60746748,30.67908582,-0.716713293,2018/9/24
0.889593017,5.824769941,10.88630827,20.58336909,30.90747412,-0.514954685,2018/9/24
0.093399888,5.974655515,10.4456121,20.69719481,30.84969517,-0.571481509,2018/9/24
0.063895761,5.791784012,10.01379249,20.18078469,30.4743361,-0.84236549,2018/9/24
0.483884794,5.881938505,10.65259865,20.5803887,30.06175854,-0.720626797,2018/9/24
0.804924132,5.500612587,10.63462903,20.44743908,30.53969174,-0.594541061,2018/9/24
0.10217838,5.119723808,10.07238357,20.023261,30.39648934,-0.980672529,2018/9/24
0.899982117,5.443959077,10.28851097,20.47016417,30.20738436,-0.706395949,2018/9/24
0.583157148,5.922741069,10.82817187,20.18939994,30.43441167,-0.894081111,2018/9/24
0.979399306,5.89388754,10.69278158,20.89751201,30.11923848,-0.247419351,2018/9/24
0.321627647,5.193049674,10.86651644,20.72431256,30.6691786,-0.713908955,2018/9/24
0.351755324,5.534419452,10.3378224,20.43745222,30.79866074,-0.14063054,2018/9/24
0.254863978,5.044327856,10.32052201,20.52811463,30.18971021,-0.428942125,2018/9/24
0.571558027,5.762124446,10.1061424,20.32277443,30.19232186,-0.996821494,2018/9/24
0.648569342,5.911967729,10.29296438,20.70926025,30.78302718,-0.163263307,2018/9/24
0.663546859,5.286330268,10.04431131,20.19762534,30.95654051,-0.374912613,2018/9/24
0.185736285,5.55314202,10.94938345,20.17063566,30.51960782,-0.376101156,2018/9/24
0.58146328,5.622846697,10.17563195,20.41839395,30.33457567,-0.093619255,2018/9/24
0.603131175,5.251794252,10.99019136,20.83730604,30.92304652,-0.152835761,2018/9/24
0.666912403,5.014544932,10.13785691,20.33817892,30.62189703,-0.78675712,2018/9/24
0.873705409,5.625231637,10.8797629,20.40511633,30.05742841,-0.812446314,2018/9/24
0.605033725,5.91513557,10.40730519,20.31251649,30.51850508,-0.7732823,2018/9/24
0.805668953,5.122988909,10.48878844,20.47556395,30.99152746,-0.212688462,2018/9/24
0.56558921,5.764105087,10.83144556,20.26840322,30.25562791,-0.777108044,2018/9/24
0.035028365,5.447422119,10.84444373,20.07402177,30.94459972,-0.406225821,2018/9/24
0.257167336,5.324481251,10.0078435,20.75957507,30.14578398,-0.933989406,2018/9/24
0.693804585,5.580165939,10.34354172,20.18107319,30.79452505,-0.460779184,2018/9/24
0.404027133,5.697894316,10.26713628,20.47481185,30.87202806,-0.673288696,2018/9/24
0.00562424,5.857267777,10.29859344,20.75798158,30.80486915,-0.305950953,2018/9/24
0.089345917,5.316885135,10.07342344,20.61798514,30.86605564,-0.76818574,2018/9/24
0.981636785,5.992826178,10.03003237,20.21085929,30.08581153,-0.706034773,2018/9/24
0.007276533,5.374410121,10.07478756,20.12972069,30.96791306,-0.923258858,2018/9/24
0.419434564,5.838703035,10.62486008,20.84686264,30.42415216,-0.704394703,2018/9/24
0.309709051,5.135689992,10.29274976,20.22096693,30.93063951,-0.258604379,2018/9/24
0.148156763,5.201796224,10.66621799,20.99224296,30.1192599,-0.467601106,2018/9/24
0.631470947,5.375470968,10.74305727,20.3830029,30.94307454,-0.09781524,2018/9/24
0.525786308,5.09048061,10.85490302,20.48360727,30.74915329,-0.314594381,2018/9/24
0.327070368,5.185396112,10.57520825,20.95976273,30.37135143,-0.021664818,2018/9/24
0.459620862,5.189313297,10.25514916,20.36330349,30.03066396,-0.097508851,2018/9/24
0.45033625,5.394888089,10.16673344,20.30936752,30.43385884,-0.238875265,2018/9/24
0.916323208,5.406919176,10.20979307,20.37601504,30.91306487,-0.71520707,2018/9/24
0.025294766,5.974038213,10.91072037,20.83832235,30.53655717,-0.967697159,2018/9/24
0.001416295,5.93192336,10.66361826,20.13796904,30.81960322,-0.716601085,2018/9/24
0.620814575,5.304730222,10.84932075,20.47931268,30.71463118,-0.872610067,2018/9/24
0.025665284,5.979416631,10.85290211,20.69635256,30.68587128,-0.688764844,2018/9/24
0.679447031,5.446468027,10.38265666,20.90482893,30.61045688,-0.116658928,2018/9/24
0.456574948,5.738091414,10.02529834,20.94048658,30.95398538,-0.909554086,2018/9/24
0.219691138,5.725033859,10.49536195,20.25899911,30.17882404,-0.942986955,2018/9/24
0.817453421,5.039383298,10.17233863,20.06719624,30.94495117,-0.573261342,2018/9/24
0.487890793,5.164614806,10.46263009,20.47084162,30.68461477,-0.904329927,2018/9/24
0.03379506,5.638700681,10.60439688,20.16077405,30.83317004,-0.086420329,2018/9/24
0.617233291,5.013225356,10.42664303,20.01552198,30.49815109,-0.070187844,2018/9/24
0.091831095,5.22048444,10.94651033,20.70082052,30.83811043,-0.575194958,2018/9/24
0.07036883,5.658782185,10.56146348,20.8721189,30.00824275,-0.265820064,2018/9/24
0.616748982,5.984520263,10.67381551,20.18886787,30.82296921,-0.663478956,2018/9/24
0.342341539,5.882498785,10.20941562,20.76782486,30.99151483,-0.198157252,2018/9/24
0.179358017,5.697999162,10.42387881,20.38386304,30.80624337,-0.792056168,2018/9/24
0.452905124,5.749922117,10.89111091,20.88517483,30.93149134,-0.645131676,2018/9/24
0.699268805,5.883768852,10.33956197,20.31241131,30.24469328,-0.185162397,2018/9/24
0.748950703,5.030176761,10.50035156,20.24638522,30.67632574,-0.058852567,2018/9/24
0.756523917,5.0435813,10.81013929,20.20763319,30.16536538,-0.722435557,2018/9/24
0.123056741,5.752520524,10.02243787,20.5385633,30.79349511,-0.896098174,2018/9/24
0.740290253,5.487924292,10.3377226,20.22955341,30.3666971,-0.619517891,2018/9/24
0.797738657,5.119765576,10.36179757,20.28865007,30.10570823,-0.995078142,2018/9/24
0.962652958,5.914359563,10.70404678,20.62285652,30.92673521,-0.325248476,2018/9/24
0.220017457,5.500123229,10.91009504,20.88962314,30.3598017,-0.907276751,2018/9/24
0.244668258,5.385504183,10.44392938,20.09445921,30.09776964,-0.075420807,2018/9/24
0.455979626,5.650195061,10.83036744,20.33994036,30.08179341,-0.138516101,2018/9/24
0.382673729,5.281507083,10.16607044,20.22528571,30.65755621,-0.159186917,2018/9/24
0.773489353,5.747229611,10.14952435,20.42966946,30.04425028,-0.354642455,2018/9/24
0.236521086,5.782605982,10.28341599,20.62902883,30.57882551,-0.425525239,2018/9/24
0.250887065,5.758210652,10.4211597,20.14786068,30.9462386,-0.608066043,2018/9/24
0.280146202,5.675665712,10.94165431,20.58227832,30.47879878,-0.198855994,2018/9/24
0.621615107,5.83185053,10.91997851,20.26088917,30.52503144,-0.955236508,2018/9/24
0.318404057,5.585206273,10.21354277,20.44191835,30.48381112,-0.459548044,2018/9/24
0.724451794,5.319162563,10.55743769,20.31227221,30.2232486,-0.957248083,2018/9/24
0.686570712,5.534483565,10.76428873,20.41819033,30.72133869,-0.556951196,2018/9/24
0.533286075,5.476558381,10.65846452,20.60965492,30.43454559,-0.545806644,2018/9/24
0.639978539,5.222401711,10.44726281,20.63255416,30.14822164,-0.138723273,2018/9/24
0.674280085,5.158096434,10.55955064,20.4943491,30.34758774,-0.356795202,2018/9/24
0.092364815,5.012064138,10.82566241,20.2071853,30.38767723,-0.122644726,2018/9/24
0.3668858,5.346575735,10.55606691,20.21110202,30.76975414,-0.637575455,2018/9/24
0.628971622,5.374609169,10.28339311,20.69342614,30.35540895,-0.506520357,2018/9/24
0.469276051,5.906798595,10.93493854,20.94299638,30.39974231,-0.054044297,2018/9/24
0.127293158,5.808933985,10.27204727,20.04755048,30.29565028,-0.375888945,2018/9/24
0.354293608,5.71963728,10.6775521,20.70553558,30.33991697,-0.903789049,2018/9/24
0.396895469,5.08712396,10.47310407,20.38943756,30.79553188,-0.031462634,2018/9/24
0.852505061,5.061429465,10.61917013,20.07984577,30.70205096,-0.502043585,2018/9/24
0.181644496,5.12520837,10.37546449,20.0309923,30.3048186,-0.708927216,2018/9/24
0.141764343,5.969049535,10.857117,20.96745361,30.23660085,-0.587241903,2018/9/24
0.08443177,5.882562215,10.48017707,20.74421134,30.60897241,-0.108691653,2018/9/24
0.991152781,5.882123763,10.5448203,20.31148397,30.78672534,-0.185997342,2018/9/24
0.988885967,5.997304308,10.03674895,20.81727555,30.80397528,-0.547409797,2018/9/24
0.904453719,5.868926933,10.43508529,20.91770065,30.85616589,-0.043149502,2018/9/24
0.604710609,5.85981121,10.55598926,20.56997884,30.94617662,-0.606755575,2018/9/24
0.707209503,5.150671647,10.0667583,20.42555183,30.94697757,-0.01592154,2018/9/24
0.250119418,5.58516502,10.5463266,20.73965473,30.68427554,-0.36586785,2018/9/24
0.361886981,5.995432928,10.19000519,20.5088011,30.93227287,-0.074718401,2018/9/24
0.846387268,5.839243225,10.13607803,20.59916121,30.04558232,-0.218764661,2018/9/24
0.217150638,5.484780925,10.66134655,20.49435063,30.1763055,-0.956692419,2018/9/24
0.368761951,5.769523682,10.2281581,20.01840772,30.91137427,-0.400817009,2018/9/24
0.258310464,5.188494274,10.01061047,20.06533839,30.88200551,-0.963754223,2018/9/24
0.451430905,5.049931588,10.72554051,20.19519735,30.51840835,-0.665827583,2018/9/24
0.359985692,5.571859544,10.21834356,20.49126529,30.59980661,-0.788526849,2018/9/24
0.751344199,5.570332709,10.24812892,20.6055366,30.28566082,-0.88028017,2018/9/24
0.578311555,5.240827473,10.79246916,20.9884366,30.06737114,-0.906236241,2018/9/24
0.414060413,5.02585995,10.99027099,20.3920956,30.4309968,-0.248907525,2018/9/24
0.713890436,5.163456346,10.53986317,20.64048969,30.73267379,-0.55299817,2018/9/24
0.5276202,5.6501915,10.54598257,20.06423522,30.81440375,-0.443602235,2018/9/24
0.120937318,5.292858363,10.94887576,20.99166939,30.89373511,-0.68551216,2018/9/24
0.764038298,5.703446898,10.1357673,20.03415883,30.52511578,-0.960716622,2018/9/24
0.041272176,5.036695484,10.84139077,20.59075682,30.240266,-0.04039379,2018/9/24
0.539508591,5.478725363,10.65515305,20.11585168,30.76456609,-0.090648658,2018/9/24
0.477712258,5.766217127,10.59698959,20.65306301,30.29516354,-0.271394407,2018/9/24
0.852620184,5.730382098,10.76904471,20.51798814,30.30866029,-0.133132439,2018/9/24
0.743238677,5.134856313,10.84259981,20.44983621,30.14850363,-0.733413635,2018/9/24
0.600853538,5.812257096,10.20339089,20.40738476,30.75606436,-0.310553645,2018/9/24
0.360468664,5.594300385,10.92528446,20.39835938,30.7720613,-0.12812055,2018/9/24
0.404337919,5.277952258,10.16517573,20.84755421,30.85395048,-0.661490103,2018/9/24
0.439712658,5.03300301,10.72799461,20.11682379,30.63708729,-0.585670859,2018/9/24
0.75320966,5.944366086,10.0496367,20.72312533,30.4432336,-0.031132599,2018/9/24
0.286255535,5.929204142,10.43831601,20.08529009,30.40590749,-0.313903241,2018/9/24
0.112370667,5.511483861,10.87858114,20.70156583,30.56275037,-0.567931675,2018/9/24
0.892387165,5.654869398,10.41045629,20.41966374,30.71082014,-0.67202,2018/9/24
0.085807179,5.582639097,10.64896498,20.17129599,30.16754589,-0.895453595,2018/9/24
0.094059316,5.834941642,10.30187802,20.60976494,30.96516571,-0.78634909,2018/9/24
0.465372642,5.148594125,10.21182366,20.59178394,30.06221745,-0.14565907,2018/9/24
0.1171125,5.759913985,10.0838082,20.0486837,30.42813504,-0.409349465,2018/9/24
0.861337206,5.711397138,10.4948104,20.33469621,30.01316377,-0.312760203,2018/9/24
0.106663479,5.690229534,10.52038262,20.95736868,30.62534171,-0.530200551,2018/9/24
0.852137876,5.459705833,10.87811118,20.99390419,30.47412686,-0.473376432,2018/9/24
0.756194015,5.676106676,10.40877333,20.00358794,30.42849129,-0.495266949,2018/9/24
0.315897705,5.87695485,10.86757636,20.0570367,30.3808987,-0.177819402,2018/9/24
0.159124901,5.644454679,10.88912378,20.47117082,30.92060825,-0.303549595,2018/9/24
0.850057965,5.986372174,10.6353713,20.66695934,30.39154984,-0.450679654,2018/9/24
0.804416708,5.888002929,10.36347859,20.11620062,30.11892217,-0.166363278,2018/9/24
0.556579029,5.416710225,10.92482004,20.94999846,30.3720028,-0.635391111,2018/9/24
0.125126346,5.343294069,10.13367067,20.20004513,30.11905093,-0.010435209,2018/9/24
0.025694699,5.431508073,10.17624561,20.04949627,30.39994143,-0.809657402,2018/9/24
0.143273546,5.279916246,10.00680271,20.21234636,30.21930741,-0.089666862,2018/9/24
0.349992069,5.550365637,10.83311688,20.615984,30.45803818,-0.349593543,2018/9/24
0.286923249,5.49093166,10.05375535,20.0843178,30.51240998,-0.717309602,2018/9/24
0.336161511,5.395750772,10.09142347,20.4111194,30.89418364,-0.448986838,2018/9/24
0.951094882,5.339451029,10.83328268,20.060815,30.79593397,-0.100792129,2018/9/24
0.277803602,5.889201063,10.93593202,20.43062366,30.12040744,-0.146079655,2018/9/24
0.811222201,5.219781438,10.33045174,20.09767885,30.90322074,-0.713700203,2018/9/24
0.176066555,5.796475425,10.89911889,20.13076942,30.90438801,-0.480358062,2018/9/24
0.125092118,5.581593639,10.86203782,20.5225705,30.01899533,-0.323738347,2018/9/24
0.593144487,5.916139411,10.50454959,20.03973143,30.41947874,-0.012370255,2018/9/24
0.896414626,5.735533796,10.59869474,20.25332468,30.82453298,-0.913027213,2018/9/24
0.97161136,5.45576273,10.71479818,20.65157429,30.52674105,-0.92059877,2018/9/24
0.612117439,5.268033191,10.89352515,20.51283153,30.37747072,-0.781595303,2018/9/24
0.336678948,5.397678225,10.37687342,20.98505733,30.77380007,-0.338120855,2018/9/24
0.806648099,5.304379138,10.9697362,20.66227635,30.89527978,-0.455056367,2018/9/24
0.432382391,5.64963536,10.9540429,20.06811603,30.52889988,-0.526836511,2018/9/24
0.570392792,5.058059167,10.82975326,20.72884553,30.20619602,-0.720478012,2018/9/24
0.379424235,5.980505049,10.92037731,20.91778013,30.54239521,-0.357527185,2018/9/28
0.914864164,5.2404275,10.96202004,20.03838314,30.06273833,-0.225961103,2018/9/28
0.761089054,5.028033209,10.90331858,20.85432612,30.62075063,-0.675538816,2018/9/28
0.156457543,5.176031547,10.07802893,20.20702698,30.62805588,-0.297875815,2018/9/28
0.116264317,5.637814902,10.94468004,20.02117254,30.48584266,-0.224045215,2018/9/28
0.356411945,5.445835778,10.34887345,20.026594,30.63182975,-0.990240806,2018/9/28
0.350902524,5.657993283,10.60593299,20.93959837,30.39044753,-0.847234308,2018/9/28
0.937133118,5.486747284,10.2858388,20.61524593,30.8563566,-0.728911815,2018/9/28
0.318981063,5.550207714,10.12479313,20.79445156,30.06967231,-0.554452697,2018/9/28
0.233737273,5.54207023,10.59156992,20.27650875,30.70703267,-0.24825767,2018/9/28
0.098248963,5.231974401,10.98250127,20.07319064,30.55856302,-0.19511898,2018/9/28
0.683092737,5.294071095,10.23835593,20.717869,30.13450062,-0.797441941,2018/9/28
0.195364173,5.328121653,10.2824519,20.30836602,30.47011721,-0.558641797,2018/9/28
0.514114644,5.768247828,10.90688637,20.20248605,30.42778576,-0.665360968,2018/9/28
0.135837481,5.514232217,10.28833048,20.08254907,30.63469805,-0.877770455,2018/9/28
0.350044665,5.139671409,10.73385513,20.47771112,30.25308775,-0.894506679,2018/9/28
0.748090375,5.490693293,10.10974608,20.58664339,30.14314143,-0.791089977,2018/9/28
0.046595112,5.638462347,10.51585331,20.56949941,30.38701809,-0.387591719,2018/9/28
0.587418923,5.974457764,10.05543496,20.75930732,30.85479372,-0.061785698,2018/9/28
0.290756406,5.928183635,10.23973959,20.59885966,30.72777056,-0.680591356,2018/9/28
0.948580517,5.763262594,10.42274966,20.73406444,30.50539103,-0.835020168,2018/9/28
0.33663601,5.834453767,10.97732367,20.67464045,30.16179555,-0.569618763,2018/9/28
0.957131124,5.831472126,10.95173876,20.44087797,30.58265495,-0.580769658,2018/9/28
0.60722469,5.467113724,10.73690981,20.44058353,30.42884577,-0.484327035,2018/9/28
0.195488856,5.203453784,10.92931689,20.09137421,30.22355473,-0.355258569,2018/9/28
0.229472214,5.987028171,10.0991483,20.78375214,30.15072277,-0.303530783,2018/9/28
0.892596149,5.384928173,10.83038072,20.29358291,30.01404162,-0.345307683,2018/9/28
0.959137232,5.159848781,10.58846455,20.79390133,30.13318192,-0.593611021,2018/9/28
0.817631145,5.666389478,10.92059272,20.26171159,30.96764685,-0.396689641,2018/9/28
0.848938231,5.018201756,10.91042118,20.69821684,30.38518716,-0.362236666,2018/9/28
0.581655359,5.760989368,10.93698641,20.80738831,30.39779165,-0.883598707,2018/9/28
0.970770797,5.007879936,10.34147162,20.02045099,30.75948618,-0.525166434,2018/9/28
0.307983094,5.603312153,10.48029851,20.04547851,30.28194312,-0.790904733,2018/9/28
0.068806675,5.342868514,10.38645075,20.00938683,30.09111965,-0.404423891,2018/9/28
0.505604675,5.37064809,10.16191699,20.19954748,30.79985819,-0.90679607,2018/9/28
0.568697221,5.818960362,10.00289881,20.68135376,30.00588265,-0.858730758,2018/9/28
0.712203065,5.904896654,10.29057658,20.04267111,30.1418897,-0.544013393,2018/9/28
0.538785158,5.611910611,10.70338902,20.93966985,30.65786173,-0.701826935,2018/9/28
0.783436396,5.143935959,10.26767287,20.84481352,30.36731595,-0.752418104,2018/9/28
0.875066586,5.71504084,10.40308156,20.56377619,30.34818406,-0.271096107,2018/9/28
0.664814628,5.399662233,10.07324367,20.46998534,30.98537319,-0.442084584,2018/9/28
0.47716884,5.298506021,10.24292912,20.03170072,30.03063202,-0.446903734,2018/9/28
0.131360116,5.53450347,10.71922658,20.43380609,30.71918796,-0.770693615,2018/9/28
0.372581181,5.317183135,10.99644609,20.12502021,30.62221725,-0.25408913,2018/9/28
0.88024423,5.995630907,10.60208819,20.05396548,30.43938286,-0.559269138,2018/9/28
0.426661912,5.47910887,10.16096676,20.41447681,30.33604567,-0.759299993,2018/9/28
0.948834791,5.797058495,10.52711125,20.80128099,30.48353052,-0.225299152,2018/9/28
0.31451864,5.610479264,10.40458624,20.48039072,30.93795839,-0.864960606,2018/9/28
0.280705622,5.675037496,10.63759227,20.07009701,30.42210484,-0.855709478,2018/9/28
0.994120919,5.456339369,10.22968856,20.86546476,30.14311291,-0.040412936,2018/9/28
0.68437544,5.200392569,10.34018984,20.21236327,30.48751966,-0.632613663,2018/9/28
0.614036843,5.148292087,10.1533529,20.68155622,30.64666998,-0.7588797,2018/9/28
0.464158893,5.041277239,10.51260533,20.4674861,30.44909502,-0.168744233,2018/9/28
0.242797427,5.068557337,10.93826475,20.42185547,30.13828822,-0.980569691,2018/9/28
0.17290258,5.291566492,10.09989571,20.41310889,30.12468625,-0.137332291,2018/9/28
0.73195068,5.7822757,10.52159232,20.22071522,30.00008241,-0.842238059,2018/9/28
0.744817782,5.764713874,10.93461583,20.64980914,30.4609135,-0.503182651,2018/9/28
0.215848885,5.60971594,10.01667606,20.30385378,30.57830064,-0.055021862,2018/9/28
0.652148172,5.097502015,10.55871284,20.78184426,30.3654995,-0.890609741,2018/9/28
0.613235673,5.337410547,10.03298126,20.52384038,30.74427466,-0.288865984,2018/9/28
0.920374539,5.546946109,10.3620197,20.42023866,30.90507927,-0.417986327,2018/9/28
0.268155671,5.89403448,10.77072271,20.55584377,30.22642347,-0.108099958,2018/9/28
0.872251046,5.515122551,10.78400169,20.73335646,30.87214949,-0.686451618,2018/9/28
0.46490231,5.276207018,10.57274487,20.90732265,30.09284549,-0.48815409,2018/9/28
0.440631693,5.335728954,10.83491659,20.47643549,30.75465222,-0.709002495,2018/9/28
0.860845658,5.30371606,10.3726086,20.47453585,30.95394767,-0.776245412,2018/9/28
0.474025467,5.234276458,10.12721577,20.87461356,30.3951373,-0.235239846,2018/9/28
0.397329766,5.55724601,10.72358362,20.47057659,30.40827734,-0.665983008,2018/9/28
0.831027716,5.235126742,10.85054703,20.20201702,30.75166951,-0.837483658,2018/9/28
0.101045375,5.376240545,10.85882042,20.6573062,30.86468529,-0.761344843,2018/9/28
0.566571271,5.782181589,10.29039667,20.97981194,30.5354826,-0.900817694,2018/9/28
0.989613865,5.914124721,10.05662676,20.14264255,30.66974986,-0.73946346,2018/9/28
0.500388225,5.561043299,10.01904795,20.90357101,30.58007884,-0.212122313,2018/9/28
0.715775381,5.401920028,10.10408127,20.33137186,30.46031576,-0.889339809,2018/9/28
0.859954913,5.211775481,10.2254082,20.64305266,30.15732042,-0.529101005,2018/9/28
0.239378344,5.638931548,10.93514833,20.72142385,30.21834079,-0.935316209,2018/9/28
0.336696219,5.990237788,10.88150451,20.22478699,30.63444725,-0.721524396,2018/9/28
0.913741035,5.272825463,10.41864196,20.40781308,30.72312263,-0.704083494,2018/9/28
0.917623349,5.783449798,10.70787629,20.12533352,30.27720983,-0.237129155,2018/9/28
0.288441512,5.09920752,10.19556683,20.87847077,30.91101114,-0.079242325,2018/9/28
0.678390245,5.5781743,10.38471692,20.86985524,30.47327312,-0.164477445,2018/9/28
0.296411648,5.26172662,10.78539264,20.6308796,30.40386747,-0.841566128,2018/9/28
0.56885635,5.681478992,10.78704326,20.25488969,30.88035993,-0.568920548,2018/9/28
0.79123212,5.024394788,10.08080506,20.20148461,30.05109946,-0.39941059,2018/9/28
0.503824328,5.159791838,10.54855588,20.95715794,30.31714358,-0.952993042,2018/9/28
0.265891119,5.82088587,10.28546603,20.00993602,30.97672993,-0.337792475,2018/9/28
0.553747747,5.291634149,10.77091213,20.46183438,30.7768519,-0.699836008,2018/9/28
0.343554882,5.987332953,10.47956263,20.44207046,30.78882192,-0.50381317,2018/9/28
0.671401777,5.893095263,10.82747623,20.49575169,30.62824485,-0.139213851,2018/9/28
0.18085585,5.717495796,10.34582224,20.42921957,30.44940668,-0.964324332,2018/9/28
0.217546909,5.61133897,10.47212811,20.05150944,30.06603173,-0.905498904,2018/9/28
0.32113504,5.877046497,10.49413924,20.05290968,30.70340633,-0.832563821,2018/9/28
0.632649299,5.809552878,10.50251669,20.45023465,30.21418212,-0.733847208,2018/9/28
0.603805736,5.04465079,10.30003309,20.32870012,30.64658683,-0.420168266,2018/9/28
0.797420098,5.567225221,10.10621293,20.36681535,30.32613363,-0.591852271,2018/9/28
0.403908717,5.692162734,10.03545201,20.65058871,30.00484865,-0.086046274,2018/9/28
0.25314993,5.075458247,10.02959448,20.37266777,30.50682993,-0.920088082,2018/9/28
0.368095453,5.311515595,10.95206444,20.36930254,30.32292129,-0.555465711,2018/9/28
0.983341885,5.06883473,10.79395306,20.66700349,30.49427568,-0.369155874,2018/9/28
0.571362413,5.574264658,10.47456735,20.00978144,30.93825456,-0.578802194,2018/9/28
0.847951666,5.269186087,10.15210803,20.3317207,30.2909851,-0.300445586,2018/9/28
0.174911269,5.461525343,10.96468506,20.89184746,30.50754421,-0.990587248,2018/9/28
0.205709227,5.207440229,10.8145428,20.23450883,30.11904562,-0.384799001,2018/9/28
0.532557157,5.527305769,10.92148115,20.72529018,30.65638828,-0.35234001,2018/9/28
0.203624901,5.247933759,10.66436426,20.04754554,30.26235559,-0.680550083,2018/9/28
0.147560416,5.614544431,10.92027676,20.48564753,30.54655794,-0.643475693,2018/9/28
0.420151207,5.988879469,10.43263241,20.27790408,30.68285384,-0.180984477,2018/9/28
0.237421566,5.351082004,10.16839825,20.82608628,30.37289849,-0.885836331,2018/9/28
0.046674705,5.002373053,10.56447573,20.84775377,30.27863333,-0.921288713,2018/9/28
0.875397218,5.729518769,10.67097826,20.17508911,30.64768428,-0.655094121,2018/9/28
0.945312479,5.687912747,10.73601941,20.56425937,30.97216952,-0.858795961,2018/9/28
0.495158747,5.243296651,10.65552937,20.43542245,30.67060908,-0.459815597,2018/9/28
0.664962964,5.611618043,10.41215907,20.27688573,30.0397123,-0.925091771,2018/9/28
0.431032148,5.453063546,10.24711186,20.0686308,30.52150559,-0.243604411,2018/9/28
0.032173056,5.479096383,10.9058056,20.16984162,30.10386097,-0.388779355,2018/9/28
0.079101344,5.67219055,10.3539288,20.67331739,30.96112792,-0.188482938,2018/9/28
0.537025039,5.229518745,10.43333683,20.76248045,30.89012662,-0.857695331,2018/9/28
0.844168581,5.750374724,10.36077267,20.21487133,30.31322383,-0.369618174,2018/9/28
0.528865318,5.068513055,10.61376595,20.07772641,30.82614452,-0.871057393,2018/9/28
0.563523111,5.82551726,10.95828797,20.05806827,30.24533346,-0.339710949,2018/9/28
0.771765271,5.675560017,10.8439582,20.30091718,30.86725639,-0.738391183,2018/9/28
0.384958429,5.684543786,10.3805945,20.36351887,30.10734553,-0.113735159,2018/9/28
0.113695549,5.685117577,10.59479689,20.13151785,30.15812633,-0.839309373,2018/9/28
0.788232396,5.175332248,10.76540074,20.45620189,30.20314019,-0.719409572,2018/9/28
0.467037552,5.484664687,10.38835738,20.04918679,30.60418579,-0.302947331,2018/9/28
0.465641688,5.038596996,10.60493703,20.61829225,30.28645689,-0.607874641,2018/9/28
0.656258959,5.775134854,10.04970019,20.51219862,30.84822666,-0.823255908,2018/9/28
0.990397407,5.633946927,10.28723865,20.07174389,30.9489354,-0.54780707,2018/9/28
0.80835683,5.518855272,10.74062204,20.82270845,30.46917318,-0.20755409,2018/9/28
0.372811721,5.673508686,10.78869874,20.5763365,30.9994983,-0.258756755,2018/9/28
0.088564389,5.129615427,10.68179944,20.13152471,30.61247414,-0.203128897,2018/9/28
0.678960914,5.979259117,10.80405797,20.17075176,30.15168554,-0.036712557,2018/9/28
0.78356273,5.033169264,10.00462746,20.06788379,30.55525807,-0.097723603,2018/9/28
0.524639179,5.326522627,10.63715147,20.29865313,30.44325267,-0.623567471,2018/9/28
0.017130344,5.465294834,10.5434709,20.55677951,30.18181815,-0.559948467,2018/9/28
0.274537012,5.098414726,10.88880834,20.42681948,30.58366398,-0.91052128,2018/9/28
0.390221311,5.641758077,10.49310962,20.73622196,30.10372608,-0.378849108,2018/9/28
0.609228942,5.277876605,10.81226253,20.15049733,30.65255413,-0.658048,2018/9/28
0.775838293,5.858624391,10.67208827,20.6518333,30.45175232,-0.146680683,2018/9/28
0.121957941,5.424435765,10.96151285,20.65896309,30.36884397,-0.1460926,2018/9/28
0.599935471,5.428010225,10.97052579,20.64111759,30.39290597,-0.243028018,2018/9/28
0.45519225,5.312587807,10.08975729,20.10824317,30.13215732,-0.518737208,2018/9/28
0.072747019,5.391080369,10.34553406,20.06166287,30.70014454,-0.101840166,2018/9/28
0.870453319,5.01299343,10.0432032,20.08032965,30.19142734,-0.754838194,2018/9/28
0.682069175,5.725161671,10.70635401,20.08335635,30.57278018,-0.407561786,2018/9/28
0.09045526,5.232255289,10.93495761,20.9265776,30.17653521,-0.276556928,2018/9/28
0.099621131,5.293811375,10.62475742,20.15855015,30.30262827,-0.113167134,2018/9/28
0.741544776,5.027762168,10.95621971,20.87708413,30.65853188,-0.153978919,2018/9/28
0.152912436,5.35403247,10.94472505,20.51045376,30.34721301,-0.89465478,2018/9/28
0.780855648,5.368655819,10.18345856,20.35275003,30.8393694,-0.269380266,2018/9/28
0.16033964,5.779599314,10.39288058,20.86591626,30.81299898,-0.692902398,2018/9/28
0.703024612,5.492749549,10.89958417,20.4246504,30.89650823,-0.279232904,2018/9/28
0.159231547,5.305596755,10.79595122,20.00381914,30.26316498,-0.043319216,2018/9/28
0.684667315,5.676724686,10.44067441,20.67413926,30.63343133,-0.065979488,2018/9/28
0.330882933,5.931734069,10.78335102,20.75206019,30.14078496,-0.760181793,2018/9/28
0.639010113,5.456839189,10.00295295,20.56936989,30.9708905,-0.518952016,2018/9/28
0.249239492,5.848403375,10.40665364,20.95806851,30.61792144,-0.65140671,2018/9/28
0.098450441,5.439357496,10.65833342,20.40526638,30.75896513,-0.702756607,2018/9/28
0.575443598,5.199079138,10.90682575,20.17031077,30.06210151,-0.060518659,2018/9/28
0.411094577,5.296879504,10.49171491,20.66178422,30.19563568,-0.12719042,2018/9/28
0.942554948,5.753258015,10.5578841,20.82454229,30.74845512,-0.091004087,2018/9/28
0.195516118,5.130085699,10.86378433,20.09557903,30.25221215,-0.315870453,2018/9/28
0.070440581,5.547429929,10.15282611,20.23844992,30.9998147,-0.637022245,2018/9/28
0.458285507,5.03782176,10.35015657,20.92685529,30.59650399,-0.464908239,2018/9/28
0.659375595,5.711892604,10.5636174,20.00971551,30.98218374,-0.321614442,2018/9/28
0.507438525,5.995412591,10.18957083,20.35185116,30.82116143,-0.765783734,2018/9/28
0.915617807,5.15298515,10.19375921,20.0377433,30.15367627,-0.751767961,2018/9/28
0.016395113,5.713276885,10.6525158,20.80162815,30.44589573,-0.925871908,2018/9/28
0.49796147,5.959496357,10.51030121,20.40119987,30.59833951,-0.582854968,2018/9/28
0.049929937,5.879370705,10.36584256,20.92934081,30.95080554,-0.370986088,2018/9/28
0.215415989,5.340943734,10.75660138,20.7781277,30.56972779,-0.770909798,2018/9/28
0.612962953,5.92157041,10.42429491,20.12056543,30.73415327,-0.730925699,2018/9/28
0.780835267,5.933346146,10.3623183,20.03976816,30.7835807,-0.031415105,2018/9/28
0.968946663,5.877607459,10.27221069,20.33544103,30.84545902,-0.844377099,2018/9/28
0.717719446,5.145588173,10.63350346,20.99006936,30.69954465,-0.149194438,2018/9/28
0.253609815,5.307797877,10.03640457,20.87497137,30.87556359,-0.105986507,2018/9/28
0.490019311,5.056651221,10.33938549,20.95449585,30.9581135,-0.438409984,2018/9/28
0.870860618,5.631644886,10.59119432,20.1853871,30.7912601,-0.297292126,2018/9/28
0.299797323,5.42667977,10.96604973,20.65338998,30.26624005,-0.129104347,2018/9/28
0.75174032,5.307169827,10.64840051,20.69297532,30.96825812,-0.9110974,2018/9/28
0.815830371,5.275870626,10.55458756,20.85024339,30.19234637,-0.384430038,2018/9/28
0.689826714,5.186548074,10.11259152,20.65325715,30.32766614,-0.947783067,2018/9/28
0.30057478,5.123424201,10.91502965,20.22281662,30.32382958,-0.099668525,2018/9/28
0.986952079,5.985414304,10.27076828,20.5859745,30.70709711,-0.31911064,2018/9/28
0.640327856,5.65481038,10.61332972,20.48000979,30.26795258,-0.595794073,2018/9/28
0.987619127,5.128841662,10.12612476,20.37661898,30.08609933,-0.02714461,2018/9/28
0.362123644,5.900796682,10.01280642,20.22944523,30.1386716,-0.510744826,2018/9/28
0.990860868,5.200549983,10.9852426,20.94327882,30.19833847,-0.825519811,2018/9/28
0.568097251,5.57730307,10.53046215,20.3397246,30.40444664,-0.834989755,2018/9/28
0.999090493,5.534570211,10.99351256,20.16974455,30.43724684,-0.738840297,2018/9/28
0.261880876,5.192035622,10.34113947,20.04859421,30.70081937,-0.721399877,2018/9/28
0.606951316,5.915153941,10.21826293,20.49154283,30.51896661,-0.957792821,2018/9/28
0.699569269,5.558986399,10.96193579,20.55104775,30.4166333,-0.78483786,2018/9/28
0.580505498,5.03571782,10.44047009,20.71415128,30.18971121,-0.397462986,2018/9/28
0.738462724,5.183636157,10.27546548,20.34361064,30.45390078,-0.985042912,2018/9/28
0.574702027,5.053337016,10.66563131,20.64450206,30.83039002,-0.952708604,2018/9/28
0.941939933,5.443820337,10.34669913,20.76373149,30.00604557,-0.09058906,2018/9/28
0.072652571,5.117605084,10.48588502,20.29317826,30.95756835,-0.766240514,2018/9/28
0.995748859,5.73690879,10.50330216,20.56762586,30.35485652,-0.672224803,2018/9/28
0.205337803,5.350320086,10.36216244,20.77398629,30.43548397,-0.210507052,2018/9/28
0.29450455,5.198136604,10.65634199,20.19344835,30.20662896,-0.397529853,2018/9/28
0.325991431,5.805735771,10.36295728,20.06661978,30.1575046,-0.485792258,2018/9/28
0.141186262,5.50912407,10.17908824,20.85467616,30.24837371,-0.482062341,2018/9/28
0.229897121,5.07835904,10.99562313,20.00821493,30.50881061,-0.026881442,2018/9/28
0.196843772,5.802988537,10.57657537,20.30116288,30.74546387,-0.506064301,2018/9/28
0.721242152,5.234170033,10.38642982,20.68052382,30.79348402,-0.638120895,2018/9/28
0.411887129,5.732438717,10.60037337,20.38193056,30.1265281,-0.992052438,2018/9/28
0.150296002,5.517811295,10.84043195,20.2026355,30.22154298,-0.891322313,2018/9/28
0.059398686,5.870751278,10.08012144,20.95662096,30.12230458,-0.395040604,2018/9/28
0.049421718,5.896230016,10.67148059,20.65411943,30.83823258,-0.106347202,2018/9/28
0.488980006,5.655616797,10.09687393,20.26345376,30.47889103,-0.244497156,2018/9/28
0.523017804,5.684326083,10.35819202,20.4599918,30.28196563,-0.129635937,2018/9/28
0.233101727,5.341083291,10.85184797,20.03867463,30.0622421,-0.370757244,2018/9/28
0.922085558,5.986566401,10.19184261,20.0666544,30.28124143,-0.969954986,2018/9/28
0.344176471,5.889217061,10.91023793,20.32422027,30.46581729,-0.74833853,2018/9/28
0.968804723,5.698474887,10.23183147,20.75971729,30.25854481,-0.749729454,2018/9/28
0.412213299,5.419467413,10.10872039,20.06988403,30.38480167,-0.376379124,2018/9/28
0.932498604,5.970607693,10.22355899,20.80025021,30.5793993,-0.199146302,2018/9/28
0.767589642,5.560924601,10.32182182,20.20412917,30.05552408,-0.728207461,2018/9/28
0.39569452,5.503886669,10.50105793,20.70872935,30.79391864,-0.440668914,2018/9/28
0.644013104,5.271496009,10.00500708,20.16020825,30.95689639,-0.682985619,2018/9/28
0.474186646,5.550258362,10.17625323,20.4182385,30.99516496,-0.387744482,2018/9/28
0.213632659,5.538079723,10.04035133,20.26684606,30.55023416,-0.807611579,2018/9/28
0.315828274,5.959239998,10.07994291,20.04372785,30.18223069,-0.753207628,2018/9/28
0.956225419,5.020610493,10.57318546,20.73198149,30.6025704,-0.29215339,2018/9/28
0.724826395,5.13334195,10.35558657,20.81475951,30.22056638,-0.688974666,2018/9/28
0.918265339,5.404443797,10.84801049,20.2133222,30.08193529,-0.736109875,2018/9/28
0.927259639,5.330249357,10.73269847,20.78010963,30.0735595,-0.682254815,2018/9/28
0.599861875,5.170161847,10.81993757,20.76805209,30.58675512,-0.050647567,2018/9/28
0.641390376,5.634918133,10.15495772,20.5350587,30.41765877,-0.761625697,2018/9/28
0.737329648,5.84457463,10.52328762,20.10045625,30.26754787,-0.719953469,2018/9/28
0.882374067,5.546752836,10.1463178,20.8330713,30.71133452,-0.219478762,2018/9/28
0.678897058,5.075547315,10.4686719,20.5295639,30.292032,-0.390517937,2018/9/28
0.991293845,5.761147618,10.08021395,20.38204228,30.20202866,-0.033033108,2018/9/28
0.549870904,5.871838223,10.90443253,20.19468458,30.41012319,-0.831685101,2018/9/28
0.059468158,5.980739059,10.97927803,20.56686618,30.48461729,-0.24782894,2018/9/28
0.448946302,5.842750829,10.08222522,20.86339119,30.7069625,-0.240460971,2018/9/28
0.87084561,5.531800029,10.70656964,20.15475428,30.23729877,-0.367283353,2018/9/28
0.925864057,5.873556291,10.33967113,20.73908339,30.75883785,-0.347453758,2018/9/28
0.255282175,5.292711271,10.29896447,20.97168252,30.76014392,-0.083800347,2018/9/28
0.536496413,5.601263769,10.11321914,20.494614,30.50855921,-0.846390541,2018/9/28
0.470269075,5.887381643,10.23687032,20.10175896,30.11325527,-0.274213409,2018/9/28
0.870667156,5.877440875,10.32850833,20.6314822,30.4375357,-0.998365393,2018/9/28
0.218010655,5.809030448,10.80166489,20.12304827,30.29358468,-0.313102847,2018/9/28
0.995346781,5.374807661,10.64367532,20.16888927,30.97060102,-0.46587222,2018/9/28
0.947904475,5.615485093,10.73557849,20.81018125,30.66261525,-0.889019099,2018/9/28
0.63137322,5.406319783,10.00290787,20.24807372,30.06381486,-0.886977179,2018/9/28
0.44076127,5.483431584,10.92715707,20.46533279,30.18196888,-0.49381295,2018/9/28
0.039828302,5.780312336,10.3976916,20.89920258,30.05694622,-0.29542737,2018/9/28
0.438635947,5.058110565,10.93007366,20.36687832,30.43353688,-0.121089691,2018/9/28
0.835347045,5.973243255,10.67786708,20.45060582,30.90375149,-0.040956213,2018/9/28
0.646366032,5.474917649,10.90248603,20.46147562,30.09999843,-0.869024754,2018/9/28
0.778652114,5.950302551,10.16815947,20.39951504,30.49414192,-0.431255489,2018/9/28
0.335392334,5.38935578,10.3904581,20.68150956,30.61383628,-0.463746619,2018/9/28
0.187348864,5.959713202,10.98289988,20.70815425,30.05626305,-0.508864772,2018/9/28
0.501511833,5.636611084,10.19232493,20.63991201,30.7432607,-0.372120349,2018/9/28
0.495630223,5.903596184,10.71138864,20.19635215,30.39494014,-0.374770602,2018/9/28
0.528662589,5.33955434,10.80831616,20.15444403,30.45364148,-0.953383985,2018/9/28
0.445080242,5.801538255,10.94905283,20.73414734,30.14822158,-0.765074643,2018/9/28
0.498478546,5.090625153,10.2561295,20.08867627,30.3292898,-0.088085045,2018/9/28
0.511361446,5.800827662,10.34745239,20.75486005,30.02765438,-0.032685139,2018/9/28
0.432354987,5.866389882,10.21125986,20.93453106,30.3923361,-0.895611368,2018/9/28
0.503118463,5.901868049,10.26056913,20.40245061,30.39394846,-0.449505795,2018/9/28
0.442387792,5.744783067,10.94624803,20.75247141,30.33191764,-0.102959021,2018/9/28
0.883719067,5.728276786,10.91711198,20.67032306,30.84271506,-0.796127063,2018/9/28
0.084407446,5.604289146,10.18445005,20.43532857,30.2762299,-0.919243205,2018/9/28
0.104409267,5.097215163,10.95561943,20.77403391,30.64760657,-0.674612724,2018/9/28
0.818388676,5.218980762,10.98537802,20.85421293,30.84646299,-0.101269958,2018/9/28
0.803466168,5.056615472,10.18006874,20.2851688,30.73444892,-0.679685135,2018/9/28
0.737221706,5.816547791,10.83589408,20.14500203,30.62727714,-0.270538795,2018/9/28
0.683401003,5.881466262,10.89020125,20.31208828,30.66994447,-0.24100056,2018/9/28
0.924327579,5.028441966,10.33565836,20.07931837,30.78035191,-0.535552687,2018/9/28
0.098725053,5.554338125,10.9965698,20.56907327,30.96050076,-0.099953839,2018/9/28
0.348666453,5.025253313,10.60311189,20.00204151,30.06281342,-0.263077964,2018/9/28
0.123766172,5.459217367,10.52238671,20.16859943,30.93349219,-0.798266297,2018/9/28
0.22975794,5.448626492,10.02976175,20.22364189,30.2681035,-0.00898554,2018/9/28
0.126552347,5.929730643,10.73611467,20.76399782,30.58756106,-0.560803538,2018/9/28
0.91151259,5.823722085,10.20986681,20.44052655,30.09846315,-0.777110092,2018/9/28
0.625337053,5.553407054,10.78357838,20.36968145,30.37159309,-0.568767138,2018/9/28
0.163250538,5.848890582,10.82395135,20.49324299,30.97548586,-0.818878914,2018/9/28
0.16730395,5.122485768,10.90136204,20.46154355,30.73104573,-0.111561391,2018/9/28
0.928410675,5.962401569,10.48580129,20.57297386,30.6949037,-0.376774844,2018/9/28
0.574147848,5.605572011,10.76627544,20.60167201,30.8296889,-0.646852663,2018/9/28
0.28203182,5.025285329,10.88699802,20.51091534,30.92325043,-0.954001331,2018/9/28
0.222807484,5.554126779,10.65715263,20.51842342,30.72059464,-0.772364218,2018/9/28
0.397657989,5.945626564,10.04429396,20.01603248,30.55591384,-0.891433457,2018/9/28
0.914630335,5.881737814,10.1185456,20.89326376,30.70431315,-0.473922562,2018/9/28
0.357209116,5.620193479,10.18558509,20.88848867,30.77139777,-0.685303315,2018/9/28
0.163318597,5.614099903,10.31620808,20.54190917,30.51195626,-0.550916589,2018/9/28
0.69457407,5.656466186,10.80262859,20.20373422,30.3225867,-0.98041273,2018/9/28
0.754827109,5.621979634,10.41382807,20.50782181,30.70237553,-0.136211482,2018/9/28
0.313755575,5.256741275,10.92779672,20.6099961,30.54653946,-0.573845026,2018/9/28
0.838268689,5.78715959,10.56825362,20.13506354,30.21586664,-0.737858431,2018/9/28
0.071239772,5.2810686,10.27738664,20.73083744,30.88737716,-0.392340421,2018/9/28
0.665491657,5.331664349,10.61387536,20.60298125,30.62865983,-0.488842598,2018/9/28
0.11110961,5.992887624,10.15820159,20.88126504,30.20144413,-0.723881336,2018/9/28
0.056741751,5.486507596,10.48907298,20.04741396,30.85948078,-0.115006245,2018/9/28
0.037767278,5.184021778,10.23292113,20.56989261,30.14961134,-0.084271469,2018/9/28
0.797261097,5.051784005,10.51171742,20.01310533,30.87027455,-0.738752838,2018/9/28
0.92219774,5.700919455,10.89365217,20.51306218,30.11916358,-0.612229939,2018/9/28
0.170244518,5.388030417,10.15941017,20.57537512,30.37237511,-0.620314837,2018/9/28
0.67396481,5.680666113,10.38332057,20.74907675,30.07009002,-0.870362274,2018/9/28
0.686558729,5.14267889,10.05689565,20.86176473,30.72042315,-0.331016256,2018/9/28
0.371741167,5.971339147,10.94418765,20.80720159,30.48763756,-0.590329021,2018/9/28
0.056057065,5.02983554,10.72779596,20.52724939,30.87157102,-0.355852434,2018/9/28
0.510895461,5.367786793,10.56595448,20.39053146,30.36795123,-0.89940582,2018/9/28
0.926933746,5.708902866,10.89648754,20.65081531,30.59134745,-0.144707093,2018/9/28
0.221527789,5.908470539,10.05773098,20.43191229,30.7201359,-0.392426327,2018/9/28
0.95095492,5.186841865,10.11906094,20.57269392,30.38077253,-0.670181837,2018/9/28
0.40852093,5.874227413,10.95580579,20.7503537,30.14722595,-0.520612033,2018/9/28
0.908853353,5.888498352,10.18676314,20.93072922,30.66577016,-0.579500207,2018/9/28
0.279072593,5.580545189,10.51355471,20.88847948,30.22920908,-0.982899112,2018/9/28
0.054796371,5.921956796,10.56163327,20.87330825,30.48651894,-0.728698598,2018/9/28
0.97373932,5.828195068,10.11761988,20.77300245,30.93154563,-0.86044219,2018/9/28
0.981826889,5.384215861,10.72521768,20.35883244,30.04033355,-0.111840681,2018/9/28
0.815262193,5.869375991,10.57534354,20.40150699,30.17060037,-0.972973269,2018/9/28
0.612571505,5.562023072,10.96739838,20.8262514,30.37073217,-0.977947947,2018/9/28
0.261305921,5.378234666,10.30116651,20.23256898,30.06154904,-0.942551819,2018/9/28
0.178677923,5.798045716,10.71070054,20.72160391,30.09487158,-0.895262866,2018/9/28
0.592625941,5.167134501,10.57204522,20.8504787,30.59770328,-0.087253639,2018/9/28
0.229310522,5.804221106,10.63053179,20.21879831,30.58965993,-0.793241001,2018/9/28
0.094766355,5.306111436,10.02026222,20.14266782,30.84875493,-0.811131352,2018/9/28
0.334805109,5.50480451,10.33775235,20.03707599,30.86504046,-0.274080461,2018/9/28
0.240784935,5.878185519,10.47427795,20.18772107,30.62338199,-0.834381229,2018/9/28
0.061984302,5.42057344,10.47481943,20.10972266,30.94330476,-0.17459135,2018/9/28
0.595718355,5.839097496,10.96735838,20.59768014,30.42119091,-0.142506797,2018/9/28
0.636407469,5.138527489,10.65742027,20.74578502,30.1547753,-0.717301507,2018/9/28
0.196810786,5.878718812,10.80829108,20.3304616,30.29930027,-0.519264598,2018/9/28
0.746702499,5.072967938,10.60230452,20.62587042,30.93274175,-0.986929531,2018/9/28
0.321720347,5.843488868,10.25942954,20.98794472,30.11526014,-0.612620739,2018/9/28
0.067666047,5.265360736,10.74959455,20.65568176,30.70426278,-0.5416954,2018/9/28
0.706808731,5.792134459,10.57406003,20.90016457,30.18470692,-0.436892587,2018/9/28
0.545556722,5.40577906,10.56151777,20.39028825,30.50147288,-0.020083372,2018/9/28
0.74787208,5.604182975,10.74214164,20.00857609,30.54208535,-0.405517862,2018/9/28
0.540761265,5.003363413,10.28534397,20.93556444,30.59525737,-0.107377729,2018/9/28
0.076811162,5.14018029,10.55447482,20.19398679,30.29906001,-0.122033086,2018/9/28
0.277467407,5.957434711,10.9465155,20.08390867,30.7982967,-0.16207169,2018/9/28
0.638576772,5.904058126,10.29065692,20.99053412,30.02174839,-0.27868525,2018/9/28
0.786215388,5.545002939,10.60012162,20.56162187,30.041583,-0.74518171,2018/9/28
0.656897473,5.478345532,10.30896463,20.39739869,30.38135758,-0.924303545,2018/9/28
0.456885998,5.368684712,10.21744201,20.12147268,30.66888324,-0.777594175,2018/9/28
0.44776494,5.764904133,10.63010584,20.462792,30.65250625,-0.698824745,2018/9/28
0.814900532,5.189898486,10.62041519,20.23421053,30.60423528,-0.230682751,2018/9/28
0.675184674,5.835085665,10.88997756,20.3558259,30.17764137,-0.577898179,2018/9/28
0.795548808,5.926689336,10.68701239,20.04772708,30.71202674,-0.805543076,2018/9/28
0.481944131,5.257899323,10.35092105,20.75361635,30.06988483,-0.297858552,2018/9/28
0.364546351,5.409165541,10.30373154,20.85609068,30.42692034,-0.063288387,2018/9/28
0.519377849,5.062804087,10.6782984,20.16669911,30.99363239,-0.242830903,2018/9/28
0.024054313,5.609063063,10.24785254,20.4700895,30.06672418,-0.858346182,2018/9/28
0.804680533,5.053689235,10.59171415,20.05335309,30.16822968,-0.236843906,2018/9/28
0.669077532,5.034814657,10.3938076,20.595671,30.82320776,-0.098133269,2018/9/28
0.633146919,5.726675872,10.33592611,20.61161598,30.15604739,-0.291625397,2018/9/28
0.929737209,5.141447981,10.50144586,20.54247746,30.0460038,-0.972167282,2018/9/28
0.859791027,5.934814725,10.53590043,20.56545455,30.27891135,-0.297649351,2018/9/28
0.617537377,5.12227326,10.10404826,20.53120387,30.82859427,-0.688449294,2018/9/28
0.840142139,5.173783927,10.37974085,20.6049279,30.09277989,-0.04972806,2018/9/28
0.328041273,5.942516016,10.581559,20.20205416,30.56405321,-0.120298367,2018/9/28
0.93076606,5.441042166,10.72568343,20.97077623,30.02032903,-0.597011616,2018/9/28
0.754417524,5.289958753,10.2124179,20.09560084,30.56420612,-0.417512343,2018/9/28
0.353423684,5.164534306,10.95985537,20.09227309,30.51497987,-0.995489536,2018/9/28
0.437241032,5.763405006,10.53956455,20.38141538,30.13247847,-0.042263679,2018/9/28
0.503426322,5.098391236,10.19088188,20.91354517,30.37487882,-0.296695407,2018/9/28
0.265029804,5.973357101,10.84811201,20.06308649,30.14765618,-0.098901096,2018/9/28
0.635947785,5.10907826,10.03487135,20.46222124,30.49455685,-0.097189333,2018/9/28
0.297589618,5.151736954,10.09766032,20.80380083,30.54681395,-0.466566171,2018/9/28
0.229048183,5.295652083,10.33489878,20.9654377,30.19112453,-0.011483059,2018/9/28
0.351755039,5.335729425,10.7996086,20.97258376,30.75240828,-0.464117869,2018/9/28
0.498079115,5.490205051,10.36362837,20.58745529,30.22160278,-0.353582731,2018/9/28
0.223948661,5.375444623,10.32320213,20.92043368,30.13739736,-0.592722719,2018/9/28
0.024638926,5.405034301,10.77400462,20.86956913,30.09382032,-0.181030838,2018/9/28
0.713861541,5.46097837,10.36677791,20.06312717,30.5775316,-0.767869135,2018/9/28
0.65198539,5.23338912,10.84933409,20.71574435,30.294864,-0.835705243,2018/9/28
0.8659216,5.893664502,10.11579643,20.93288661,30.15018665,-0.102841086,2018/9/28
0.459926963,5.399992145,10.38462838,20.35672203,30.81786157,-0.108060006,2018/9/28
0.881099001,5.921585428,10.70044604,20.57731683,30.68656505,-0.524362092,2018/9/28
0.244922391,5.954725065,10.9420579,20.29000504,30.02308489,-0.718769325,2018/9/28
0.324594651,5.103424847,10.53792754,20.10872186,30.98501823,-0.619996998,2018/9/28
0.979359578,5.660961882,10.80782074,20.102755,30.13105565,-0.474943779,2018/9/30
0.553685737,5.748023736,10.59232481,20.3620263,30.06503883,-0.015453099,2018/9/30
0.860526315,5.239989477,10.4341471,20.84274673,30.16027453,-0.113352955,2018/9/30
0.543224939,5.702911444,10.65235521,20.68865117,30.37732297,-0.665972981,2018/9/30
0.603041434,5.009659465,10.33454982,20.55895942,30.98680993,-0.31604794,2018/9/30
0.48014667,5.039137663,10.21608525,20.0966082,30.75836839,-0.061548578,2018/9/30
0.233188454,5.612273206,10.90243835,20.71398836,30.15288666,-0.353230622,2018/9/30
0.88883429,5.44162802,10.93838784,20.70053689,30.20606591,-0.261868293,2018/9/30
0.656473382,5.758543034,10.31587923,20.62574977,30.53927082,-0.103627327,2018/9/30
0.758228056,5.31120109,10.83259644,20.93247871,30.46088079,-0.285765415,2018/9/30
0.271586014,5.568346166,10.88115247,20.8554934,30.08005368,-0.517537039,2018/9/30
0.260444183,5.354986108,10.16527303,20.24720001,30.69457404,-0.18384907,2018/9/30
0.323005322,5.180144612,10.73441939,20.61931453,30.68151925,-0.005803407,2018/9/30
0.929001775,5.424976309,10.18001799,20.98136786,30.79937156,-0.502246645,2018/9/30
0.085375087,5.042416151,10.97807288,20.2760933,30.636536,-0.681749939,2018/9/30
0.400240382,5.505548953,10.06569947,20.89376405,30.13014062,-0.779418162,2018/9/30
0.917493479,5.883786521,10.97883976,20.23027253,30.25021892,-0.040881457,2018/9/30
0.686476992,5.923175203,10.3674382,20.01603762,30.00325779,-0.253193548,2018/9/30
0.555760798,5.643176804,10.73856034,20.90652756,30.97716804,-0.608901499,2018/9/30
0.70677209,5.533169717,10.93990087,20.22571826,30.07743477,-0.186909841,2018/9/30
0.08397283,5.335321049,10.47635402,20.19393654,30.99497639,-0.017717245,2018/9/30
0.965497832,5.354015177,10.84843612,20.80393938,30.85133493,-0.692476395,2018/9/30
0.814519722,5.549756186,10.81821776,20.97403802,30.30860113,-0.173023196,2018/9/30
0.289735353,5.774986213,10.65787679,20.61884284,30.40918398,-0.953520445,2018/9/30
0.120330224,5.134735155,10.46607382,20.55952431,30.0077432,-0.880704746,2018/9/30
0.124564509,5.774185304,10.59271567,20.81061479,30.15176632,-0.971308461,2018/9/30
0.353670991,5.507706717,10.92120446,20.76148267,30.10234931,-0.085998161,2018/9/30
0.521063305,5.157410355,10.64585036,20.77341022,30.48251563,-0.290051152,2018/9/30
0.222086392,5.741671073,10.90267321,20.04684926,30.07445209,-0.423772118,2018/9/30
0.195496745,5.995234134,10.99956982,20.51028796,30.84596912,-0.949130458,2018/9/30
0.111651685,5.125812962,10.92099965,20.36803359,30.3617814,-0.99900834,2018/9/30
0.058537472,5.395489261,10.8840396,20.01726466,30.78196184,-0.851439567,2018/9/30
0.513242117,5.615368542,10.81211387,20.3860223,30.4669656,-0.339365782,2018/9/30
0.924271104,5.845748907,10.5842747,20.56462974,30.88371207,-0.413827193,2018/9/30
0.357431673,5.988932061,10.38333951,20.47474685,30.45338249,-0.551805349,2018/9/30
0.635103742,5.432567752,10.41750997,20.2828531,30.4322106,-0.122863129,2018/9/30
0.318674474,5.44682876,10.52311457,20.58282452,30.67808171,-0.805552313,2018/9/30
0.076304114,5.283982875,10.60466006,20.04792972,30.58098566,-0.20962669,2018/9/30
0.342952354,5.683205565,10.01883483,20.15480761,30.70215554,-0.9101945,2018/9/30
0.527182109,5.584658193,10.11301451,20.60196154,30.32687182,-0.925941276,2018/9/30
0.397225354,5.313434079,10.69441135,20.20362518,30.50285043,-0.813945832,2018/9/30
0.925220446,5.935144028,10.25584577,20.31645341,30.21441027,-0.107223182,2018/9/30
0.669543711,5.899491516,10.6971355,20.30192966,30.68812716,-0.303121725,2018/9/30
0.867257565,5.747020771,10.54959927,20.06801081,30.06242195,-0.38869857,2018/9/30
0.712558639,5.080888351,10.64791373,20.21816996,30.00199483,-0.497435705,2018/9/30
0.894275164,5.268760007,10.55372923,20.88586197,30.83338885,-0.925379722,2018/9/30
0.411120425,5.954671467,10.29085039,20.14991429,30.35791856,-0.331765338,2018/9/30
0.429048975,5.455230347,10.6621869,20.34694362,30.74969663,-0.404205131,2018/9/30
0.491406254,5.191002362,10.39079467,20.19567855,30.20961685,-0.028951808,2018/9/30
0.677577316,5.355959545,10.59515653,20.69988292,30.03128852,-0.322559976,2018/9/30
0.485925675,5.94938023,10.09737104,20.67795458,30.47877197,-0.669829589,2018/9/30
0.557554177,5.747859394,10.74314781,20.34307256,30.58342487,-0.89413211,2018/9/30
0.749757148,5.873220624,10.59413722,20.8180142,30.53856827,-0.120709429,2018/9/30
0.596589195,5.573645111,10.77768289,20.85411871,30.18493862,-0.228543971,2018/9/30
0.456459305,5.174242187,10.25577725,20.88495938,30.36474759,-0.031090165,2018/9/30
0.020661462,5.595865716,10.83672939,20.92974097,30.11170696,-0.488934992,2018/9/30
0.805207731,5.124915075,10.70893033,20.48203084,30.53391299,-0.301574905,2018/9/30
0.782716094,5.06982547,10.54739965,20.82493426,30.61690293,-0.11891197,2018/9/30
0.350443688,5.337964963,10.00512461,20.1779326,30.11757441,-0.515248442,2018/9/30
0.647433655,5.082449576,10.48213957,20.65588065,30.77140109,-0.326875625,2018/9/30
0.327625208,5.149895741,10.59517854,20.52624598,30.88139819,-0.762149126,2018/9/30
0.523668012,5.356060039,10.59579186,20.01651814,30.87378118,-0.950068048,2018/9/30
0.939095042,5.908029305,10.05303764,20.58505342,30.66486033,-0.667832953,2018/9/30
0.527019459,5.913251118,10.61110837,20.870182,30.04463105,-0.470186582,2018/9/30
0.264226206,5.59253468,10.61241844,20.74711578,30.27922554,-0.534724802,2018/9/30
0.029651978,5.036185824,10.14974864,20.92421132,30.40256452,-0.672240332,2018/9/30
0.366732165,5.55309138,10.75544996,20.77383635,30.06675914,-0.35304343,2018/9/30
0.986948744,5.056184722,10.32220446,20.06960793,30.21094728,-0.729155162,2018/9/30
0.097261536,5.923037093,10.5884266,20.81793715,30.58857057,-0.530896693,2018/9/30
0.497558487,5.326666962,10.75297543,20.55420947,30.32608418,-0.600489076,2018/9/30
0.075539039,5.527782447,10.26121258,20.70764603,30.44634251,-0.131889159,2018/9/30
0.752054242,5.469270387,10.66494101,20.87825951,30.37420821,-0.388926043,2018/9/30
0.378370648,5.715956319,10.82002199,20.6517545,30.83294644,-0.443323646,2018/9/30
0.921806146,5.447822296,10.01375697,20.29675934,30.53457418,-0.495756628,2018/9/30
0.78282187,5.722837124,10.05524586,20.98794729,30.60348079,-0.333616646,2018/9/30
0.53245511,5.301284276,10.40534229,20.55462745,30.57517122,-0.673441975,2018/9/30
0.353462971,5.477547459,10.62915264,20.40787008,30.44189895,-0.915399604,2018/9/30
0.739246441,5.917457336,10.14724198,20.924183,30.49499223,-0.147863027,2018/9/30
0.079231976,5.66593154,10.78761252,20.18278719,30.65788014,-0.427708307,2018/9/30
0.983542728,5.374005808,10.6295456,20.57459866,30.85584866,-0.814458579,2018/9/30
0.324656159,5.643031174,10.65905308,20.05390601,30.56327265,-0.878997611,2018/9/30
0.0966909,5.113731556,10.80983309,20.61840254,30.45426212,-0.843703471,2018/9/30
0.000900599,5.209264303,10.00569475,20.18646555,30.50528388,-0.728328898,2018/9/30
0.573466125,5.342558118,10.42256196,20.58612037,30.13729357,-0.758997925,2018/9/30
0.412337336,5.051469536,10.16326903,20.29705101,30.3612989,-0.478224421,2018/9/30
0.851896644,5.285878822,10.71624913,20.82617173,30.71911303,-0.137003889,2018/9/30
0.791151588,5.527484392,10.6793233,20.03647873,30.49181573,-0.995107053,2018/9/30
0.204799747,5.991380654,10.20233585,20.9681103,30.89191999,-0.084034209,2018/9/30
0.080337171,5.956131315,10.12139165,20.41696344,30.4192361,-0.280255757,2018/9/30
0.909200489,5.632503671,10.72815183,20.8880122,30.22684081,-0.125833386,2018/9/30
0.274054102,5.366655865,10.94848595,20.15171655,30.18901776,-0.1096008,2018/9/30
0.382111418,5.109925937,10.99181187,20.73935216,30.80910089,-0.544790026,2018/9/30
0.112802308,5.341110385,10.41696928,20.58680689,30.15565183,-0.539096943,2018/9/30
0.993021776,5.898906815,10.98350017,20.66158526,30.49254067,-0.754886394,2018/9/30
0.346801009,5.085342543,10.29116349,20.4736158,30.06556573,-0.829909951,2018/9/30
0.361527648,5.561459066,10.25105168,20.39256433,30.83477783,-0.417706451,2018/9/30
0.096592651,5.241525638,10.3086166,20.41098323,30.4035886,-0.19018462,2018/9/30
0.78765087,5.244476894,10.1182719,20.42889266,30.63157053,-0.482683829,2018/9/30
0.48880602,5.787789211,10.79791337,20.51753595,30.03675856,-0.045449718,2018/9/30
0.856204243,5.489341919,10.83176343,20.53044184,30.01342353,-0.362787135,2018/9/30
0.26952509,5.03538401,10.70882189,20.19079652,30.65614396,-0.504658169,2018/9/30
0.414978958,5.441408497,10.47990553,20.41030543,30.80791746,-0.013864595,2018/9/30
0.55125551,5.793008833,10.17748966,20.23167172,30.52213938,-0.855312983,2018/9/30
0.500040141,5.999029449,10.80597237,20.72051778,30.09010282,-0.738151335,2018/9/30
0.806763208,5.412136446,10.37070611,20.99242655,30.58360471,-0.104228145,2018/9/30
0.690995565,5.018210399,10.31022792,20.04658673,30.4827689,-0.883366593,2018/9/30
0.774442499,5.662625058,10.87822797,20.22473783,30.79342756,-0.518211585,2018/9/30
0.936394955,5.81347446,10.38153455,20.70187284,30.60921129,-0.390370628,2018/9/30
0.918768725,5.171951883,10.86607798,20.58650377,30.02568323,-0.609830303,2018/9/30
0.641224993,5.074308799,10.28033066,20.48179461,30.84822104,-0.281400315,2018/9/30
0.992008176,5.540472324,10.03794569,20.06257279,30.97688239,-0.806493681,2018/9/30
0.03900787,5.71624997,10.46773141,20.09912642,30.41458082,-0.342078867,2018/9/30
0.801938429,5.935844795,10.71378587,20.9366768,30.32384349,-0.418874547,2018/9/30
0.075474992,5.15361621,10.92616698,20.02709473,30.80204622,-0.244315284,2018/9/30
0.346445683,5.972883279,10.36885631,20.98033398,30.23036933,-0.932953332,2018/9/30
0.165329336,5.455636619,10.15690267,20.46399933,30.66546539,-0.728090141,2018/9/30
0.608303782,5.571465498,10.25213951,20.94498403,30.96023255,-0.897649737,2018/9/30
0.98212552,5.60897008,10.21088558,20.38240007,30.2368122,-0.927615296,2018/9/30
0.783722902,5.348679851,10.34267321,20.01541611,30.62566525,-0.595743302,2018/9/30
0.222006343,5.873682839,10.57034012,20.02956971,30.78530721,-0.873311892,2018/9/30
0.689059541,5.052800966,10.98696491,20.80669195,30.81304414,-0.233705924,2018/9/30
0.134127722,5.058084955,10.99129932,20.83650548,30.85686056,-0.521246342,2018/9/30
0.044758703,5.589517142,10.03665671,20.14652115,30.61084194,-0.272822081,2018/9/30
0.518865664,5.675514065,10.16782563,20.51179196,30.50290532,-0.846198624,2018/9/30
0.820384016,5.088327011,10.36346006,20.94057506,30.59820551,-0.545694878,2018/9/30
0.640416853,5.286784831,10.86642325,20.50109342,30.51347603,-0.9423346,2018/9/30
0.561013281,5.452124678,10.3386644,20.64128028,30.75810441,-0.224541743,2018/9/30
0.559298087,5.687245978,10.93561799,20.81430055,30.32476964,-0.773953635,2018/9/30
0.121256139,5.066972911,10.05537033,20.24699711,30.89705805,-0.131197052,2018/9/30
0.631853589,5.037137959,10.95578089,20.9523214,30.77807223,-0.504779502,2018/9/30
0.376279458,5.53924793,10.81813302,20.08568794,30.63959001,-0.260601034,2018/9/30
0.916452039,5.978140558,10.25213112,20.90900093,30.09992056,-0.682902396,2018/9/30
0.716546759,5.86125286,10.13141931,20.07859955,30.95806477,-0.209896937,2018/9/30
0.699860322,5.644459984,10.33024589,20.37678414,30.3815749,-0.145567041,2018/9/30
0.503107621,5.909548587,10.81489377,20.61566716,30.65406588,-0.402197827,2018/9/30
0.858170138,5.51149239,10.85330942,20.33584604,30.43018436,-0.536726582,2018/9/30
0.167900677,5.217003187,10.8275055,20.07939395,30.38219815,-0.81295741,2018/9/30
0.290660119,5.058249475,10.56708329,20.9638507,30.29753033,-0.005859282,2018/9/30
0.288737783,5.262697584,10.78720379,20.03532095,30.35511279,-0.099556927,2018/9/30
0.987376184,5.960959873,10.14501605,20.8086566,30.62714376,-0.631333468,2018/9/30
0.648983455,5.719480281,10.92430343,20.4959066,30.43878312,-0.985170335,2018/9/30
0.26101934,5.82911159,10.10299368,20.67679995,30.84509593,-0.345928375,2018/9/30
0.091052857,5.904539282,10.13618089,20.00077678,30.42400904,-0.585870663,2018/9/30
0.95571988,5.848746813,10.84983165,20.08904348,30.64555548,-0.864421553,2018/9/30
0.965676169,5.990384114,10.52713702,20.00404736,30.80944384,-0.259864442,2018/9/30
0.620164877,5.694608534,10.81946884,20.22305671,30.32528445,-0.627050457,2018/9/30
0.915623718,5.785322582,10.32627481,20.13270986,30.12408298,-0.032849087,2018/9/30
0.889014558,5.48515953,10.78428354,20.14089653,30.28251333,-0.692619789,2018/9/30
0.444519614,5.757790168,10.33345214,20.38044478,30.94178893,-0.125063481,2018/9/30
0.121446901,5.554622561,10.81346566,20.03069354,30.64199765,-0.559980185,2018/9/30
0.273132925,5.034850496,10.72824359,20.08719283,30.26122298,-0.149239404,2018/9/30
0.423329976,5.367489601,10.33238516,20.00722282,30.45121443,-0.600480513,2018/9/30
0.07505449,5.055050318,10.50804594,20.72752985,30.76746514,-0.636190644,2018/9/30
0.203336298,5.968099957,10.66711448,20.8222554,30.51946843,-0.794927994,2018/9/30
0.759323484,5.962459047,10.26524533,20.39511452,30.83037773,-0.807402488,2018/9/30
0.449618373,5.205936584,10.32141434,20.53561871,30.54338986,-0.125512245,2018/9/30
0.393059284,5.014297752,10.32577498,20.25367554,30.83848977,-0.191124933,2018/9/30
0.267337803,5.07960781,10.2410786,20.30075234,30.84236223,-0.442143319,2018/9/30
0.917656359,5.90079927,10.29358912,20.78756252,30.60052336,-0.060450694,2018/9/30
0.317119918,5.676979206,10.6737487,20.14389569,30.36083661,-0.336692709,2018/9/30
0.073793976,5.667703443,10.30598068,20.60743543,30.57431709,-0.56553389,2018/9/30
0.686978364,5.089391309,10.12758377,20.65074802,30.1415193,-0.092064279,2018/9/30
0.624892415,5.128313495,10.44107807,20.59534329,30.30844466,-0.148019618,2018/9/30
0.991769195,5.36564719,10.99053761,20.45459219,30.36522242,-0.823587916,2018/9/30
0.775270982,5.809432064,10.83805022,20.42736275,30.64131957,-0.608144272,2018/9/30
0.301344333,5.230385969,10.82361451,20.9034631,30.44071364,-0.049122036,2018/9/30
0.310139748,5.758473351,10.96739532,20.55141084,30.07039472,-0.465070251,2018/9/30
0.016267848,5.746514985,10.80298095,20.8038108,30.1803729,-0.412846932,2018/9/30
0.434079066,5.845481333,10.39002313,20.9219715,30.80147691,-0.50667718,2018/9/30
0.139398133,5.295650317,10.57848373,20.67473619,30.84401933,-0.490523469,2018/9/30
0.549695775,5.475764493,10.24650153,20.78142601,30.69536135,-0.415584697,2018/9/30
0.628315419,5.438177039,10.26628291,20.66883848,30.15120658,-0.462830326,2018/9/30
0.435510316,5.133535513,10.54729953,20.71180394,30.10074245,-0.746873529,2018/9/30
0.661114578,5.520775549,10.14314126,20.2227017,30.24803225,-0.495613434,2018/9/30
0.497781937,5.168896815,10.26987786,20.65658071,30.73507093,-0.927776716,2018/9/30
0.946400363,5.388418932,10.79123958,20.65825962,30.70315076,-0.77954857,2018/9/30
0.041791419,5.86721447,10.43675328,20.30215197,30.85059118,-0.622069913,2018/9/30
0.178685844,5.796007071,10.51031065,20.45331746,30.92642524,-0.668328165,2018/9/30
0.692509568,5.254237715,10.07183739,20.20013156,30.04650975,-0.134284434,2018/9/30
0.169517785,5.866043585,10.74193532,20.98778134,30.18977324,-0.270920254,2018/9/30
0.669683707,5.450730832,10.82453259,20.14573144,30.71654747,-0.865105481,2018/9/30
0.894471853,5.940437096,10.033088,20.00152613,30.40096919,-0.328021225,2018/9/30
0.865573371,5.762821231,10.62948976,20.22964552,30.62513198,-0.75183181,2018/9/30
0.931664328,5.965571082,10.03772889,20.87199051,30.37970024,-0.792718553,2018/9/30
0.63850299,5.838969618,10.15768086,20.22360095,30.02971957,-0.085110339,2018/9/30
0.611444118,5.698143292,10.72592168,20.1168178,30.17625549,-0.164203203,2018/9/30
0.104324674,5.395934756,10.53861088,20.38499785,30.35248893,-0.158153503,2018/9/30
0.525135989,5.307149057,10.91997328,20.67464804,30.8201702,-0.455253503,2018/9/30
0.420914016,5.810486615,10.2027688,20.56991397,30.30652909,-0.729973678,2018/9/30
0.480661004,5.205467787,10.42032682,20.42348733,30.90612328,-0.736055851,2018/9/30
0.147576938,5.154822798,10.16759668,20.92584661,30.80869934,-0.343689341,2018/9/30
0.162601033,5.299421656,10.75318119,20.3121164,30.98869316,-0.18129886,2018/9/30
0.296268415,5.693550733,10.78552334,20.95864654,30.57054792,-0.01385555,2018/9/30
0.451354789,5.623564926,10.75642175,20.32784253,30.36235091,-0.118365509,2018/9/30
0.109106548,5.543202243,10.77136063,20.23988562,30.36227242,-0.194681943,2018/9/30
0.678937752,5.378443392,10.55713211,20.53644293,30.4502906,-0.332010504,2018/9/30
0.327687827,5.775859221,10.05439023,20.89351065,30.55053019,-0.853322275,2018/9/30
0.288158665,5.53846237,10.87949302,20.40319635,30.00523547,-0.470324068,2018/9/30
0.447952729,5.346500906,10.50584773,20.74798113,30.80458571,-0.458455931,2018/9/30
0.543409625,5.850647127,10.63787188,20.06678647,30.29812297,-0.88832636,2018/9/30
0.73824351,5.523425376,10.4945328,20.18726493,30.34325721,-0.098860313,2018/9/30
0.7094453,5.087581728,10.98167433,20.47844992,30.11359875,-0.205792655,2018/9/30
0.339624382,5.577668393,10.6113859,20.43512595,30.51947537,-0.981623972,2018/9/30
0.279902998,5.03972323,10.16967763,20.00939049,30.64918868,-0.926840805,2018/9/30
0.49806132,5.69081098,10.33901822,20.64021251,30.96341817,-0.758150917,2018/9/30
0.310994393,5.624596841,10.97003391,20.44767046,30.26979001,-0.283699827,2018/9/30
0.014166496,5.192540502,10.28675192,20.05183154,30.44722323,-0.325598709,2018/9/30
0.443058778,5.815786352,10.68079528,20.69998739,30.52641181,-0.259712246,2018/9/30
0.7758117,5.803585082,10.66154713,20.74341163,30.64882097,-0.56568429,2018/9/30
0.876364902,5.837193084,10.18540829,20.03144097,30.3467855,-0.072106031,2018/9/30
0.388282763,5.677257981,10.94377902,20.34043871,30.47056328,-0.728459167,2018/9/30
0.095717435,5.573554647,10.37912839,20.79261483,30.57428636,-0.570329404,2018/9/30
0.822104013,5.584815354,10.33258706,20.6522651,30.7886673,-0.605305108,2018/9/30
0.190516319,5.893272512,10.17734132,20.62917701,30.62271857,-0.306406559,2018/9/30
0.266840412,5.421445343,10.9921248,20.49464647,30.29492249,-0.017252333,2018/9/30
0.456229271,5.679050563,10.38972839,20.12853283,30.1945383,-0.9188396,2018/9/30
0.504897884,5.637950858,10.28455235,20.96168368,30.94558374,-0.012922731,2018/9/30
0.545768251,5.830877375,10.08865621,20.45142285,30.31947594,-0.532382763,2018/9/30
0.602545304,5.555720774,10.30553335,20.39942567,30.85326312,-0.051093377,2018/9/30
0.755928376,5.185532971,10.45756884,20.63795574,30.66143549,-0.895873257,2018/9/30
0.248887222,5.395315559,10.1323601,20.38249091,30.25407456,-0.821184875,2018/9/30
0.185483211,5.258090818,10.56411933,20.75972274,30.43380221,-0.809308031,2018/9/30
0.010719536,5.751617674,10.44470923,20.92891026,30.87341979,-0.586688234,2018/9/30
0.522682245,5.971829373,10.81716788,20.31178053,30.62919313,-0.576700505,2018/9/30
0.286218993,5.425791315,10.03935412,20.59389053,30.27975015,-0.192476821,2018/9/30
0.929242188,5.151082919,10.08547206,20.31357394,30.8299901,-0.470971449,2018/9/30
0.017853278,5.689935186,10.52577173,20.82566121,30.44818741,-0.162820571,2018/9/30
0.862322749,5.389053047,10.95889433,20.81825451,30.70688076,-0.043470179,2018/9/30
0.230665473,5.712728405,10.97328644,20.9653825,30.13617764,-0.240221201,2018/9/30
0.542191989,5.608753037,10.29346437,20.61339637,30.97012653,-0.555010659,2018/9/30
0.68441809,5.410584631,10.24850346,20.52064261,30.27989718,-0.967669175,2018/9/30
0.03027563,5.125792774,10.56251224,20.34210985,30.73645587,-0.284269344,2018/9/30
0.201073428,5.616988604,10.94584775,20.13133462,30.40924143,-0.660518098,2018/9/30
0.73111693,5.945545609,10.22447065,20.11253394,30.97055991,-0.713835283,2018/9/30
0.241107462,5.113118733,10.54756464,20.19874631,30.14216497,-0.034750526,2018/9/30
0.411581878,5.752260652,10.47067578,20.17382002,30.63639145,-0.77546724,2018/9/30
0.191147895,5.107030253,10.6634954,20.55274414,30.0587514,-0.498860741,2018/9/30
0.88787747,5.300040677,10.8466068,20.94497604,30.56606282,-0.071301675,2018/9/30
0.62372215,5.286982715,10.13484126,20.63555845,30.15692324,-0.15692409,2018/9/30
0.865262078,5.152884625,10.13956757,20.8409036,30.61935099,-0.557014945,2018/9/30
0.77049587,5.914391676,10.72883867,20.94760092,30.50184523,-0.736559775,2018/9/30
0.283366034,5.627730769,10.54449908,20.41064055,30.96963045,-0.078877925,2018/9/30
0.988761789,5.411447325,10.15992438,20.74898406,30.96866237,-0.369008935,2018/9/30
0.737853704,5.108306473,10.59333121,20.10017247,30.87305715,-0.047620093,2018/9/30
0.410731271,5.217914061,10.47627021,20.76335673,30.07576579,-0.557577438,2018/9/30
0.314729744,5.083685984,10.12211029,20.97168952,30.58362244,-0.368708141,2018/9/30
0.289438616,5.792663781,10.92676103,20.21424544,30.54617492,-0.814961321,2018/9/30
0.807255119,5.709590129,10.77523519,20.91191015,30.03073775,-0.284611197,2018/9/30
0.076215337,5.864691814,10.07950902,20.39840407,30.296951,-0.456507698,2018/9/30
0.979584742,5.513963331,10.80816824,20.97313989,30.6386773,-0.710124561,2018/9/30
0.126782895,5.976571271,10.82495696,20.64012125,30.20377902,-0.293708169,2018/9/30
0.572908588,5.758919483,10.60295895,20.31846132,30.28688061,-0.910018336,2018/9/30
0.293142385,5.378156296,10.26699657,20.05854385,30.88359866,-0.808592274,2018/9/30
0.473584124,5.564084641,10.36665286,20.91767927,30.45276917,-0.364426446,2018/9/30
0.31679285,5.45874113,10.35779891,20.60648882,30.94287922,-0.877773961,2018/9/30
0.992627648,5.002941964,10.29777638,20.36002995,30.04909019,-0.741185725,2018/9/30
0.972644112,5.643566028,10.83821398,20.66119998,30.0750449,-0.946192328,2018/9/30
0.293979366,5.202831652,10.87928956,20.66809765,30.30822651,-0.23556937,2018/9/30
0.68102722,5.561340556,10.40351818,20.96898323,30.60394057,-0.046001152,2018/9/30
0.815341656,5.393838009,10.69945857,20.88948934,30.08082778,-0.42056443,2018/9/30
0.999884606,5.77805494,10.47081478,20.15853892,30.21462313,-0.910608427,2018/9/30
0.185022757,5.915884105,10.56108189,20.48140669,30.6260099,-0.43000959,2018/9/30
0.697877972,5.055960446,10.42232318,20.59186525,30.88503212,-0.63828208,2018/9/30
0.488674433,5.827297265,10.02304599,20.58175804,30.78140338,-0.281710189,2018/9/30
0.083692513,5.668960291,10.42602947,20.55999347,30.9857482,-0.992339554,2018/9/30
0.376939581,5.875661093,10.64943077,20.48097952,30.22006639,-0.242214418,2018/9/30
0.194574325,5.531342254,10.0771668,20.47398636,30.56007437,-0.682814674,2018/9/30
0.643886374,5.597999914,10.47517119,20.42160555,30.34179148,-0.000535329,2018/9/30
0.900285741,5.654381478,10.64654466,20.87618104,30.49938382,-0.271077873,2018/9/30
0.093006763,5.905859338,10.58508527,20.52291137,30.68611968,-0.384765097,2018/9/30
0.059773314,5.999688554,10.12091096,20.50733846,30.98780345,-0.433246523,2018/9/30
0.649829482,5.625495113,10.74462026,20.59460853,30.77551667,-0.804192319,2018/9/30
0.402221485,5.322275621,10.45081057,20.36115946,30.01482214,-0.656638721,2018/9/30
0.281240448,5.652165768,10.41917854,20.5745767,30.59297473,-0.436144896,2018/9/30
0.65087656,5.460087786,10.29393127,20.31730112,30.79301365,-0.766354912,2018/9/30
0.582372611,5.004492231,10.82069622,20.49123854,30.80744719,-0.18432901,2018/9/30
0.762262045,5.701104628,10.55694993,20.44997725,30.61729731,-0.466062009,2018/9/30
0.993591827,5.379363537,10.53464959,20.25335777,30.23835365,-0.75059943,2018/9/30
0.967732171,5.833169487,10.70175019,20.10566079,30.36304855,-0.253324881,2018/9/30
0.452000907,5.561344819,10.95489788,20.80921928,30.1797203,-0.27018309,2018/9/30
0.315679674,5.562527499,10.51637214,20.28275188,30.35565875,-0.683202816,2018/9/30
0.487460528,5.541117906,10.49476476,20.21091066,30.82724509,-0.806785851,2018/9/30
0.34267457,5.487673159,10.61976924,20.69387485,30.59290928,-0.034539842,2018/9/30
0.287249993,5.942998444,10.9709006,20.83117081,30.07341201,-0.840140251,2018/9/30
0.047374681,5.397829575,10.59124669,20.51247938,30.06846447,-0.713808758,2018/9/30
0.820575533,5.721465262,10.95484483,20.49741949,30.78363611,-0.549047073,2018/9/30
0.517345113,5.379884808,10.06365534,20.69705953,30.80367616,-0.313006857,2018/9/30
0.662821847,5.444563278,10.22789865,20.0352647,30.14775142,-0.26254143,2018/9/30
0.695449063,5.189275931,10.27664139,20.3060936,30.09391367,-0.243512625,2018/9/30
0.870673092,5.303601659,10.09817693,20.68840843,30.78629845,-0.817292834,2018/9/30
0.671014361,5.962872403,10.98584093,20.96022714,30.8517043,-0.700286487,2018/9/30
0.130234485,5.871646321,10.26518334,20.90147374,30.13628818,-0.980324137,2018/9/30
0.475592409,5.364183925,10.59914646,20.27426666,30.47980241,-0.72188739,2018/9/30
0.415007301,5.754548878,10.77129213,20.67635632,30.68588364,-0.352511774,2018/9/30
0.067643594,5.794938597,10.98146866,20.20971891,30.15722905,-0.095759891,2018/9/30
0.186791871,5.457701182,10.92669948,20.92999339,30.15556323,-0.797028712,2018/9/30
0.985708228,5.904685324,10.23696184,20.43788264,30.86075711,-0.758160099,2018/9/30
0.351890389,5.967442735,10.29216798,20.16988862,30.15626486,-0.713846188,2018/9/30
0.285155844,5.112854441,10.67184613,20.54449416,30.62483223,-0.162309691,2018/9/30
0.686104739,5.680650875,10.83310044,20.36878459,30.8066708,-0.625644867,2018/9/30
0.56261463,5.488936801,10.62918586,20.44959296,30.6857712,-0.239936685,2018/9/30
0.44613802,5.665653424,10.47968178,20.65730581,30.20996238,-0.658994052,2018/9/30
0.974936208,5.851834575,10.06780374,20.38124263,30.39435824,-0.485003627,2018/9/30
0.011625554,5.68143886,10.43766375,20.05675223,30.62328028,-0.68484391,2018/9/30
0.129002346,5.221834075,10.94985529,20.85772181,30.78552525,-0.091828264,2018/9/30
0.572953789,5.761603975,10.54034699,20.47406778,30.61806731,-0.83483964,2018/9/30
0.023851975,5.874670711,10.871772,20.93518237,30.83397459,-0.15483558,2018/9/30
0.471988798,5.604284997,10.68004433,20.29889564,30.7243071,-0.132510236,2018/9/30
0.938241879,5.955938015,10.13582289,20.84656287,30.59064779,-0.530299335,2018/9/30
0.925016237,5.53093908,10.37579546,20.18317047,30.9666188,-0.114862106,2018/9/30
0.556317562,5.220088103,10.82723871,20.24421579,30.44196352,-0.640262423,2018/9/30
0.223179439,5.486191832,10.55638393,20.56646981,30.02308687,-0.702473016,2018/9/30
0.925061861,5.594257211,10.30943294,20.87823569,30.7378864,-0.283196069,2018/9/30
0.239845452,5.946862041,10.62388582,20.78565537,30.88547858,-0.850844254,2018/9/30
0.231971693,5.354695789,10.38019225,20.74243705,30.51769858,-0.947049579,2018/9/30
0.424298486,5.081827737,10.34091985,20.60015695,30.52975601,-0.32206409,2018/9/30
0.305473783,5.663465685,10.40760398,20.26351764,30.80867,-0.613777672,2018/9/30
0.678496754,5.696557085,10.12926536,20.55280517,30.63769929,-0.119271316,2018/9/30
0.314068588,5.487050975,10.28328841,20.88913615,30.49863714,-0.433550413,2018/9/30
0.422700388,5.614278534,10.68724878,20.88190325,30.92554173,-0.474925715,2018/9/30
0.864696764,5.748206824,10.29379529,20.6923236,30.08917599,-0.127089186,2018/9/30
0.243044571,5.816240118,10.39687268,20.0716077,30.05575282,-0.752903643,2018/9/30
0.989584056,5.221446153,10.52264085,20.88210598,30.33796664,-0.888156912,2018/9/30
0.659273141,5.711965054,10.5582876,20.80503185,30.6348054,-0.768576131,2018/9/30
0.323533009,5.240351136,10.06124906,20.48762381,30.53496256,-0.589437273,2018/9/30
0.103412097,5.953101491,10.0640046,20.97933472,30.23604244,-0.641235756,2018/9/30
0.522658571,5.77343525,10.38576088,20.41866615,30.69427457,-0.182204595,2018/9/30
0.357780399,5.922993167,10.62376909,20.58472795,30.04874797,-0.901466125,2018/9/30
0.208385455,5.534746081,10.47483867,20.29507398,30.0257662,-0.543153325,2018/9/30
0.16950334,5.186560575,10.66973215,20.59447408,30.51386882,-0.088706714,2018/9/30
0.727886891,5.372409518,10.53224852,20.7280771,30.40372447,-0.264569107,2018/9/30
0.903443761,5.729219488,10.55291102,20.93658887,30.98689608,-0.565731441,2018/9/30
0.368214432,5.245978685,10.09110737,20.77268155,30.15134396,-0.669012828,2018/9/30
0.583918834,5.922813104,10.35662412,20.42430668,30.35084538,-0.665859948,2018/9/30
0.271594664,5.806147062,10.58541112,20.3301805,30.77693462,-0.881954309,2018/9/30
0.955391397,5.094080081,10.29397653,20.70242246,30.32033579,-0.138062964,2018/9/30
0.882955738,5.993024868,10.75751028,20.46509191,30.67210875,-0.199453158,2018/9/30
0.991631025,5.825797788,10.10309576,20.09014138,30.55115671,-0.285643121,2018/9/30
0.989560354,5.340749396,10.94056379,20.7714523,30.6237374,-0.705830027,2018/9/30
0.777216251,5.667681986,10.73962957,20.34913174,30.69220833,-0.033255264,2018/9/30
0.176390341,5.430984547,10.10777592,20.76632643,30.18919393,-0.574558702,2018/9/30
0.122881785,5.893538682,10.57028128,20.94668671,30.41313675,-0.571304944,2018/9/30
0.992617948,5.426504979,10.50492358,20.44144142,30.53096848,-0.30131669,2018/9/30
0.742779606,5.69990232,10.54559759,20.76773048,30.43842603,-0.244455854,2018/9/30
0.463301271,5.696431583,10.84645349,20.31068552,30.31805495,-0.41518865,2018/9/30
0.479006203,5.105096654,10.62361324,20.03667504,30.67921834,-0.355915982,2018/9/30
0.871339519,5.808576701,10.57404536,20.51114181,30.46946583,-0.538915733,2018/9/30
0.604466488,5.826520543,10.06743728,20.94074619,30.73373797,-0.231759292,2018/9/30
0.122366243,5.358743528,10.78617806,20.41583716,30.24849283,-0.388159093,2018/9/30
0.21567825,5.410991197,10.27401278,20.17728151,30.33866368,-0.770835915,2018/9/30
0.231385519,5.974341449,10.92438031,20.86039157,30.23288529,-0.887995116,2018/9/30
0.280057037,5.523026013,10.15085831,20.07346451,30.06187478,-0.623080493,2018/9/30
0.123855081,5.413804646,10.55244494,20.38702282,30.90793985,-0.104138783,2018/9/30
0.255336438,5.022391927,10.2054486,20.58512728,30.17296122,-0.219404716,2018/9/30
0.701579619,5.599630979,10.6272739,20.85709888,30.28845474,-0.107485675,2018/9/30
0.606171831,5.260103469,10.52463438,20.61188801,30.36766628,-0.152648767,2018/9/30
0.998673039,5.740722092,10.26560022,20.04884541,30.82604757,-0.051691509,2018/9/30
0.136301521,5.768602183,10.56193018,20.53945095,30.00556573,-0.408585753,2018/9/30
0.011205551,5.108237187,10.99704553,20.69507061,30.66202912,-0.477581699,2018/9/30
0.65653018,5.718598614,10.32832662,20.03884504,30.70245023,-0.222076882,2018/9/30
0.964166469,5.086554797,10.91808991,20.76965595,30.66406825,-0.056957273,2018/9/30
0.824634633,5.400545262,10.58846237,20.42695756,30.84728759,-0.837320494,2018/9/30
0.828406464,5.2429919,10.32817637,20.71880752,30.93078046,-0.088265446,2018/9/30
0.999344891,5.841599259,10.56414707,20.48804103,30.27887407,-0.00533337,2018/9/30
0.403637589,5.635335104,10.73469941,20.84553802,30.50032471,-0.945157377,2018/9/30
0.432289912,5.220850872,10.67893787,20.76234235,30.13154799,-0.71503047,2018/9/30
0.864010729,5.765111602,10.63505451,20.66022497,30.23482852,-0.507920057,2018/9/30
0.794458954,5.340601828,10.15824775,20.90556532,30.05905695,-0.261380651,2018/9/30
0.175532538,5.696034957,10.64711279,20.33973463,30.66240104,-0.912911858,2018/9/30
0.157399765,5.456169405,10.50106967,20.56935877,30.24763778,-0.675363092,2018/9/30
0.857424037,5.113142832,10.43221624,20.05842337,30.43405502,-0.798478385,2018/9/30
0.940164315,5.500520581,10.16257226,20.98970395,30.91612844,-0.766851521,2018/9/30
0.966081114,5.735003587,10.44202262,20.68526306,30.70214521,-0.941541984,2018/9/30
0.687914492,5.354373012,10.56344196,20.32797374,30.13541278,-0.786401964,2018/9/30
0.53990907,5.049473234,10.58540692,20.59109009,30.62107141,-0.64651267,2018/9/30
0.953733067,5.66606681,10.6901473,20.118593,30.86171732,-0.186558908,2018/9/30
0.039574741,5.642491579,10.5488747,20.42687545,30.73430514,-0.464794731,2018/9/30
0.180748234,5.425936164,10.69975725,20.68133366,30.35184812,-0.254747044,2018/9/30
0.444472108,5.215186583,10.80392967,20.04827567,30.89508717,-0.61924789,2018/9/30
0.922731004,5.008964227,10.81369807,20.64436445,30.59925949,-0.497883477,2018/9/30
0.13411925,5.047886842,10.05791471,20.15853763,30.94026533,-0.418848405,2018/9/30
0.709482657,5.379993482,10.54451117,20.45771565,30.64634009,-0.452501181,2018/9/30
0.97891477,5.923993453,10.8191257,20.88083876,30.07974378,-0.358910551,2018/9/30
0.436974009,5.360972457,10.80406483,20.80524986,30.56549627,-0.386575924,2018/9/30
0.414262689,5.79763165,10.04002213,20.13329107,30.64277546,-0.850068057,2018/9/30
0.863726934,5.439776325,10.22272473,20.79898854,30.74017447,-0.177459474,2018/9/30
0.365083756,5.66508217,10.40920471,20.12220637,30.49547201,-0.198993295,2018/9/30
0.844041214,5.517881648,10.20862857,20.04079385,30.06080287,-0.889957087,2018/9/30
0.253789269,5.685061658,10.50629863,20.37869421,30.89499133,-0.644812677,2018/9/30
0.70891324,5.011402606,10.621389,20.68343635,30.65143624,-0.634009936,2018/9/30
0.027953276,5.900316017,10.41614496,20.63778345,30.83921304,-0.961802557,2018/9/30
0.474644707,5.037053621,10.79403506,20.97583303,30.75081899,-0.714418676,2018/9/30
0.456481998,5.004108804,10.06960574,20.87346398,30.91141487,-0.112407428,2018/9/30
0.617238878,5.107444171,10.32674008,20.92051574,30.09604631,-0.741229933,2018/9/30
0.682256212,5.641641671,10.77140587,20.34758558,30.20442768,-0.616299013,2018/9/30
0.837922782,5.649553692,10.51104183,20.60482182,30.52531199,-0.207156244,2018/9/30
0.984659651,5.250477132,10.89922007,20.35093468,30.41026145,-0.285505388,2018/9/30
0.054358589,5.544662923,10.8829511,20.13456442,30.60605446,-0.133691567,2018/9/30
0.868201871,5.810109267,10.75500014,20.85508252,30.46000462,-0.591284616,2018/9/30
0.722881413,5.243688795,10.8300667,20.92929569,30.31586359,-0.836449101,2018/9/30
0.735555757,5.674663199,10.81350276,20.80491738,30.69356654,-0.315811596,2018/9/30
0.476859047,5.354584572,10.64609282,20.00202779,30.70451119,-0.498198723,2018/9/30
0.417924876,5.539230454,10.37987665,20.74048637,30.52828939,-0.53461025,2018/9/30
0.302502598,5.676371304,10.65342262,20.9394219,30.51737948,-0.591239005,2018/9/30
0.468069852,5.134393845,10.85119391,20.21814595,30.8732857,-0.836327605,2018/9/30
0.17209932,5.870543348,10.00859021,20.53236102,30.9976917,-0.582506212,2018/9/30
0.867880401,5.564729567,10.94639869,20.05640381,30.9920846,-0.893309605,2018/9/30
0.732817125,5.238114738,10.78977733,20.85826674,30.5308849,-0.929537381,2018/9/30
0.709800561,5.933625422,10.61329567,20.88581444,30.75154449,-0.807665542,2018/9/30
0.28649614,5.983753907,10.57396844,20.33454668,30.94833964,-0.961422514,2018/9/30
0.962882049,5.464829497,10.25864019,20.48072608,30.53038786,-0.897945485,2018/9/30
0.636142915,5.115597755,10.98268692,20.99767524,30.87640515,-0.698888267,2018/9/30
0.306353924,5.226801436,10.57465797,20.13291246,30.75501339,-0.947614767,2018/9/30
0.221621635,5.614088137,10.17303435,20.42260457,30.60699331,-0.669527075,2018/9/30
0.4616401,5.275741088,10.0862507,20.62229337,30.48602165,-0.459570057,2018/9/30
0.33328827,5.700793814,10.57140179,20.33812123,30.7310081,-0.503397973,2018/9/30
0.95742727,5.476783557,10.1603342,20.93397547,30.28966812,-0.4316336,2018/9/30
0.216330492,5.348472311,10.4817847,20.89002582,30.738581,-0.586185026,2018/9/30
0.664612849,5.154028436,10.35176394,20.04012681,30.05613575,-0.020126015,2018/9/30
0.319961154,5.82564123,10.97245638,20.69293018,30.60057153,-0.629576039,2018/9/30
0.269329895,5.538227468,10.59708633,20.79534427,30.06037854,-0.396945356,2018/9/30
0.700666254,5.52877517,10.23402728,20.10412046,30.31129233,-0.72124805,2018/9/30
0.280728761,5.246890021,10.63188725,20.00762746,30.35892262,-0.840164134,2018/9/30
0.335095683,5.298183686,10.73847607,20.27190023,30.80518292,-0.338568918,2018/9/30
0.055521561,5.47189269,10.04479606,20.68274557,30.99754832,-0.067038321,2018/9/30
0.024415815,5.288039378,10.95251715,20.19703497,30.70474167,-0.709968427,2018/9/30
0.906987631,5.996535557,10.38166751,20.70828348,30.47462191,-0.702087051,2018/9/30
0.136461996,5.456727974,10.48738275,20.85263313,30.11260192,-0.414969525,2018/9/30
0.124413364,5.050710245,10.2053861,20.27344972,30.94824139,-0.116673967,2018/9/30
0.983796754,5.927719089,10.36947383,20.19127058,30.223328,-0.526217121,2018/9/30
