Rmj009/robot_ord/stockdata.csv
joint1,joint2,joint3,joint4,joint5,joint6,Date
0.759349597,5.097327479,10.96831189,20.59528278,30.55199476,-0.74203185,2017/5/5
0.157878772,5.152853501,10.22255236,20.12198259,30.47286402,-0.033512477,2017/5/6
0.404572607,5.408229362,10.21132606,20.6764849,30.18985926,-0.691826972,2017/5/7
0.850867192,5.382641762,10.08326983,20.33216844,30.90392313,-0.525694283,2017/5/8
0.593532755,5.29497249,10.68502511,20.92876306,30.52629987,-0.281299219,2017/5/9
0.729315933,5.390238103,10.99648452,20.85533132,30.73634745,-0.79345973,2017/5/10
0.851641635,5.382424011,10.80662599,20.16234311,30.4335939,-0.520282781,2017/5/11
0.724199837,5.165035294,10.88123673,20.20396958,30.83677287,-0.939019537,2017/5/12
0.736048773,5.118121007,10.75026884,20.44749545,30.07748892,-0.707217917,2017/5/13
0.752976276,5.690589274,10.8844857,20.5768697,30.07053217,-0.500811521,2017/5/14
0.645179504,5.767302208,10.68569519,20.72408169,30.303386,-0.942050888,2017/5/15
0.110628749,5.311855411,10.63961732,20.52018968,30.58511753,-0.827060199,2017/5/16
0.606727888,5.049696886,10.45178619,20.36009897,30.16583806,-0.508488944,2017/5/17
0.81238579,5.186847491,10.69020454,20.11048712,30.2265494,-0.48373512,2017/5/18
0.769801819,5.171262408,10.51699194,20.30102251,30.84882639,-0.859641837,2017/5/19
0.242730635,5.939781499,10.9433163,20.66907009,30.87342149,-0.706884843,2017/5/20
0.788855426,5.895071788,10.30763823,20.18203319,30.37744839,-0.157845337,2017/5/21
0.938449626,5.070705201,10.06493058,20.01448249,30.32783365,-0.499448808,2017/5/22
0.944570159,5.558502901,10.30678078,20.35112932,30.86752705,-0.133054167,2017/5/23
0.324424478,5.384036054,10.27872731,20.75704556,30.71845747,-0.150181881,2017/5/24
0.296495453,5.113502151,10.16210432,20.49850379,30.0837075,-0.330999528,2017/5/25
0.254573487,5.02998336,10.82990633,20.43519925,30.91121982,-0.488776286,2017/5/26
0.924241809,5.974665393,10.59127451,20.77907251,30.86310862,-0.705827004,2017/5/27
0.128455364,5.201368405,10.82177642,20.90396913,30.81672046,-0.024866233,2017/5/28
0.281779856,5.72723851,10.47497627,20.84913847,30.70053338,-0.550473169,2017/5/29
0.198740484,5.101970315,10.20346297,20.71369658,30.98573897,-0.653849959,2017/5/30
0.925091502,5.922488864,10.35611258,20.83269413,30.39563073,-0.391353933,2017/5/31
0.783371214,5.771301511,10.60160582,20.92226467,30.85592296,-0.18448518,2017/6/1
0.756672886,5.294030024,10.80829718,20.60374594,30.74802572,-0.843963339,2017/6/2
0.58391671,5.972741606,10.58561006,20.91722996,30.81432817,-0.103511692,2017/6/3
0.998010309,5.09171631,10.4252008,20.1204075,30.06584703,-0.633774854,2017/6/4
0.501126788,5.581228189,10.47279666,20.36123602,30.53223213,-0.037791944,2017/6/4
0.966941162,5.521006518,10.96436826,20.91498841,30.58996798,-0.006762615,2017/6/4
0.137138855,5.51125696,10.19359691,20.62692345,30.64213199,-0.138250928,2017/6/4
0.920158119,5.894934361,10.66550181,20.01267923,30.31485605,-0.704715874,2017/6/4
0.152531685,5.8685459,10.69561702,20.51872477,30.1323103,-0.793791714,2017/6/4
0.014505193,5.467942108,10.05961991,20.57161428,30.32454992,-0.701444683,2017/6/4
0.145363635,5.403268249,10.98595046,20.40647851,30.56557458,-0.079464996,2017/6/4
0.91297248,5.646656613,10.79609502,20.00337366,30.58816355,-0.057186933,2017/6/4
0.6170805,5.417260073,10.54971172,20.54973406,30.5816431,-0.309103045,2017/6/4
0.115812763,5.41487708,10.51224004,20.09628682,30.80211832,-0.497687762,2017/6/4
0.640180837,5.406819587,10.94439419,20.72496811,30.74173852,-0.573619713,2017/6/4
0.540648259,5.460200751,10.05744514,20.48591423,30.68071291,-0.718490158,2017/6/4
0.239642268,5.422235962,10.11265953,20.47268404,30.40944378,-0.996019733,2017/6/4
0.3185525,5.570348847,10.28564773,20.32563919,30.26096768,-0.154807167,2017/6/4
0.829680386,5.79723346,10.12627548,20.82942798,30.38677816,-0.098890803,2017/6/4
0.360832275,5.425732464,10.76820281,20.75678232,30.81728032,-0.23002021,2017/6/4
0.679908839,5.895973988,10.45911458,20.55987971,30.01356762,-0.091332653,2017/6/4
0.712443847,5.35830358,10.4168646,20.02318201,30.17312205,-0.818171289,2017/6/4
0.800541639,5.215904783,10.17857388,20.6734448,30.85837569,-0.546523196,2017/6/4
0.664380302,5.513686472,10.91203224,20.94302234,30.77620848,-0.087950126,2017/6/4
0.936727446,5.004647314,10.58033542,20.01559246,30.46881797,-0.462450305,2017/6/4
0.268033133,5.910449961,10.21395671,20.22569972,30.4749135,-0.095209546,2017/6/5
0.497312034,5.054030618,10.83362713,20.20860885,30.17808174,-0.892652701,2017/6/6
0.467942203,5.499631202,10.66961182,20.07538162,30.56184744,-0.668523029,2017/6/4
0.570475952,5.051776785,10.42056057,20.62472002,30.82209301,-0.250068684,2017/6/5
0.10523932,5.34884825,10.1479187,20.0118536,30.57832178,-0.616532914,2017/6/6
0.367155329,5.98012356,10.89223056,20.7076812,30.42796332,-0.131884796,2017/6/4
0.586528104,5.367559976,10.59072561,20.88927158,30.07529657,-0.303701508,2017/6/5
0.54986404,5.272297789,10.46217003,20.50470229,30.40732459,-0.799266293,2017/6/6
0.739225794,5.501481121,10.87051601,20.62734044,30.59701609,-0.235004233,2017/6/4
0.224631913,5.9034598,10.41045852,20.71973671,30.28262812,-0.710891644,2017/6/5
0.257904884,5.003867141,10.78164507,20.49790868,30.57247419,-0.744013925,2017/6/6
0.303120814,5.796909911,10.43978838,20.8931256,30.41330594,-0.656972215,2017/6/4
0.909173511,5.921333564,10.28574752,20.84276431,30.64663783,-0.772450179,2017/6/5
0.993784591,5.682383306,10.61953073,20.41360509,30.50241058,-0.037608677,2017/6/6
0.815795699,5.206058658,10.4050474,20.1341344,30.57170468,-0.866264702,2017/6/4
0.0112254,5.570237969,10.28152315,20.25096389,30.31479381,-0.99001594,2017/6/5
0.148239689,5.57838698,10.88823,20.61776966,30.94243646,-0.638504492,2017/6/6
0.478895948,5.853864964,10.55293601,20.01899805,30.72474451,-0.161924204,2017/6/4
0.990995084,5.011349327,10.3941459,20.02883032,30.47643408,-0.003786872,2017/6/5
0.978441708,5.199601427,10.09942042,20.71823609,30.12939602,-0.815637529,2017/6/6
0.47404155,5.243070604,10.6873802,20.27000437,30.21645716,-0.019158228,2017/6/4
0.547429531,5.211441037,10.90864887,20.6441068,30.97458231,-0.730389134,2017/6/5
0.679077627,5.104611678,10.66079244,20.79265854,30.99753026,-0.451461688,2017/6/6
0.147909018,5.151484774,10.68109749,20.08105135,30.94243832,-0.038153945,2017/6/4
0.132761434,5.510114773,10.38490121,20.35731687,30.05151347,-0.128772887,2017/6/5
0.052459729,5.783525775,10.66654637,20.21841853,30.14168259,-0.492958095,2017/6/6
0.200845404,5.488474578,10.72949851,20.75365379,30.41337815,-0.999624109,2017/6/4
0.644836317,5.278854774,10.57391344,20.0308124,30.17138283,-0.202922622,2017/6/5
0.519253088,5.063774402,10.48175518,20.25271693,30.84086692,-0.889271168,2017/6/6
0.88934536,5.339882743,10.00445617,20.15200175,30.25330959,-0.303089497,2017/6/4
0.473890999,5.498810087,10.54907629,20.19158273,30.40123375,-0.808808177,2017/6/5
0.120949606,5.899116893,10.77522706,20.81139119,30.47512158,-0.967773961,2017/6/6
0.189907409,5.043335962,10.62858444,20.81749663,30.4176043,-0.102292954,2017/6/4
0.154307395,5.281510274,10.75415548,20.82462114,30.72480226,-0.608905393,2017/6/5
0.936099832,5.362024452,10.98905155,20.30203803,30.78811796,-0.405780787,2017/6/6
0.481738115,5.427199086,10.90416541,20.35545017,30.11727174,-0.610670156,2017/6/4
0.916770445,5.969058616,10.21632027,20.19857563,30.25778922,-0.263285935,2017/6/5
0.527340119,5.389124153,10.83774284,20.89277543,30.16831408,-0.687214794,2017/6/6
0.612529292,5.395643889,10.65442448,20.24377471,30.44578756,-0.18199496,2017/6/4
0.861751792,5.886068232,10.72275985,20.51826346,30.86317842,-0.152109706,2017/6/5
0.852623384,5.707290627,10.40513661,20.03090086,30.79006311,-0.874745093,2017/6/6
0.320419351,5.93392879,10.92529662,20.79840698,30.03221541,-0.549300306,2017/6/4
0.512353127,5.443393876,10.97498105,20.54845944,30.95578662,-0.089194702,2017/6/5
0.444873769,5.281898775,10.23450341,20.27778339,30.76429595,-0.363313062,2017/6/6
0.316056175,5.008979236,10.58733989,20.51276241,30.69375693,-0.161338139,2017/6/4
0.697636744,5.058921815,10.08127639,20.48847397,30.43364851,-0.209873515,2017/6/5
0.650074155,5.483190139,10.65421182,20.75664301,30.48779715,-0.428293181,2017/6/6
0.617320552,5.5283104,10.44176072,20.01679821,30.42480129,-0.499783336,2017/6/4
0.980151404,5.984658656,10.09454989,20.1019368,30.9216277,-0.620959888,2017/6/5
0.915373555,5.42075998,10.12312902,20.40511184,30.60234807,-0.643821947,2017/6/6
0.178740134,5.711254998,10.76519434,20.6077093,30.16501273,-0.07153536,2017/6/4
0.977048572,5.519400985,10.1450009,20.76904484,30.65841826,-0.050049849,2017/6/5
0.626480529,5.539330712,10.90537846,20.99329086,30.34794405,-0.619716175,2017/6/6
0.165064918,5.848998167,10.71088094,20.44338827,30.44049518,-0.582033169,2017/6/4
0.534093849,5.880405053,10.39527545,20.09674082,30.9983921,-0.30708216,2017/6/5
0.365680281,5.945937961,10.86488111,20.52828387,30.63172122,-0.759079246,2017/6/6
0.975737825,5.519741483,10.21101015,20.28609347,30.0661973,-0.019169151,2017/6/4
0.588074295,5.885191438,10.02857653,20.24084349,30.89452451,-0.182928075,2017/6/5
0.180467527,5.692729996,10.58452716,20.27577248,30.10421916,-0.918464086,2017/6/6
0.319653323,5.612607592,10.23288668,20.27698702,30.61489639,-0.002584615,2017/6/4
0.865612921,5.227780796,10.38034179,20.9901366,30.83736748,-0.507795534,2017/6/5
0.518226424,5.890879078,10.47268937,20.2049131,30.67836851,-0.875940078,2017/6/6
0.910242949,5.982081207,10.57258742,20.76862938,30.80056038,-0.585125747,2017/6/4
0.72684102,5.336872995,10.28326502,20.2145952,30.40283311,-0.880741223,2017/6/5
0.576586927,5.104552927,10.17190629,20.9063921,30.39897829,-0.608290297,2017/6/6
0.423011854,5.93169599,10.66096896,20.1935713,30.46196712,-0.901680601,2017/6/4
0.048611835,5.640803197,10.10896323,20.44751097,30.67816764,-0.271748653,2017/6/5
0.678902995,5.600698468,10.8827224,20.22963453,30.60831903,-0.690778947,2017/6/6
0.811158856,5.192995909,10.8486395,20.83328403,30.13608504,-0.97171888,2017/6/4
0.458665047,5.280336288,10.90515422,20.56066221,30.27567139,-0.232170126,2017/6/5
0.504183806,5.406726598,10.00705058,20.32739936,30.93778498,-0.009540287,2017/6/6
0.075225922,5.441129738,10.87576029,20.90487688,30.83201786,-0.584152011,2017/6/4
0.816089015,5.9198962,10.67093083,20.38928008,30.59846182,-0.187442239,2017/6/5
0.703169761,5.47337822,10.07828561,20.55871243,30.08362597,-0.382077771,2017/6/6
0.743581611,5.694507883,10.75943066,20.26585623,30.55382051,-0.415721273,2017/6/4
0.894863687,5.864535886,10.7718539,20.22556987,30.74508444,-0.537512528,2017/6/5
0.116942759,5.12298954,10.77030047,20.12996357,30.04823937,-0.351478635,2017/6/6
0.971134279,5.715036668,10.21689418,20.19628988,30.24970903,-0.84264431,2017/6/4
0.084545437,5.293293659,10.25463293,20.33112115,30.30528481,-0.871660699,2017/6/5
0.027312426,5.619134486,10.22783649,20.58564025,30.03132152,-0.770277308,2017/6/6
0.591467545,5.320369906,10.67177925,20.71780564,30.11140877,-0.55418527,2017/6/4
0.112092127,5.466640169,10.48346742,20.77615568,30.72540036,-0.404999816,2017/6/5
0.959779135,5.408998728,10.03500042,20.94091086,30.55574831,-0.40836261,2017/6/6
0.892750496,5.269938588,10.05535774,20.33532269,30.74049457,-0.612347207,2017/6/4
0.938080582,5.890410173,10.84042181,20.32941867,30.11222439,-0.513211386,2017/6/5
0.827172474,5.499192402,10.38787874,20.92816795,30.15818145,-0.066440653,2017/6/6
0.917779621,5.549247111,10.89701539,20.93949055,30.5147252,-0.736004181,2017/6/4
0.871476165,5.930432472,10.52135879,20.64479346,30.29681262,-0.608557693,2017/6/5
0.532713258,5.819400154,10.40978908,20.72068282,30.469735,-0.230583063,2017/6/6
0.81685357,5.594799862,10.19385203,20.65943639,30.88372325,-0.256036684,2017/6/4
0.930391073,5.374996765,10.53083743,20.94946208,30.10360478,-0.755400108,2017/6/5
0.523084216,5.595836463,10.23955905,20.24237664,30.91847466,-0.309907888,2017/6/6
0.69817505,5.842402432,10.8234367,20.55428748,30.18157744,-0.351984965,2017/6/4
0.363645832,5.667019185,10.99233841,20.35279286,30.45692842,-0.19574521,2017/6/5
0.180370961,5.087855116,10.22674096,20.45297921,30.27591223,-0.645534227,2017/6/6
0.573262797,5.834610603,10.76919611,20.44678011,30.98822518,-0.722658226,2017/6/4
0.496353593,5.33358917,10.84416646,20.53567159,30.45223166,-0.858467994,2017/6/5
0.666863702,5.355379962,10.78431473,20.58365278,30.95470838,-0.383619077,2017/6/6
0.407051631,5.366591588,10.72846011,20.10502267,30.82665817,-0.761671389,2017/6/4
0.843401788,5.581832001,10.63095433,20.42234596,30.73003317,-0.138749039,2017/6/5
0.665630726,5.838801982,10.77197445,20.57262659,30.29538269,-0.432470525,2017/6/6
0.687193237,5.971057972,10.73216761,20.6666355,30.53225075,-0.01328231,2017/6/4
0.758640203,5.183791625,10.08982235,20.25776869,30.70748897,-0.458561724,2017/6/5
0.966850108,5.984468415,10.22330746,20.57360182,30.54283423,-0.327042765,2017/6/6
0.248968474,5.144757939,10.05860824,20.22731618,30.91689535,-0.56411994,2017/6/4
0.626746215,5.621631095,10.79884878,20.99249815,30.32445822,-0.714577087,2017/6/5
0.175029155,5.717316963,10.31674536,20.97362871,30.8396336,-0.242319952,2017/6/6
0.824746167,5.282447984,10.36019797,20.25316891,30.4052618,-0.071217029,2017/6/4
0.971494534,5.119777069,10.51119548,20.86886527,30.66728197,-0.6736638,2017/6/5
0.188502588,5.915469178,10.39495149,20.55290018,30.90511591,-0.611013515,2017/6/6
0.772757841,5.123787078,10.77110325,20.71201194,30.65021193,-0.323572061,2017/6/4
0.75756932,5.971578598,10.75447458,20.97624162,30.61344532,-0.367951136,2017/6/5
0.76096895,5.152294753,10.97945335,20.35406763,30.24519931,-0.356697478,2017/6/6
0.898393251,5.033228669,10.00668463,20.1176682,30.86513256,-0.408758079,2017/6/4
0.53916239,5.155042447,10.54308541,20.32546398,30.28264974,-0.529848793,2017/6/5
0.811267745,5.00898449,10.92355404,20.70176604,30.86726367,-0.174410738,2017/6/6
0.618859645,5.395721807,10.29131469,20.852091,30.57339367,-0.624257263,2017/6/4
0.532367401,5.846626865,10.25342819,20.1680792,30.18916233,-0.243140342,2017/6/5
0.279508064,5.91048102,10.63128458,20.6953654,30.88146013,-0.671175505,2017/6/6
0.92288875,5.906124909,10.11305768,20.26352566,30.34450653,-0.878627658,2017/6/4
0.789206345,5.699112909,10.01763553,20.3576802,30.54901018,-0.966992833,2017/6/5
0.740589839,5.806567786,10.36164017,20.21284754,30.08349508,-0.07020492,2017/6/6
0.105203809,5.831882188,10.71081921,20.25934372,30.30564385,-0.337165033,2017/6/4
0.890897588,5.872347028,10.07384325,20.06753228,30.19957028,-0.17317428,2017/6/5
0.104247432,5.990580855,10.13983639,20.81495088,30.3269174,-0.28500857,2017/6/6
0.061937282,5.010713339,10.00387331,20.70147781,30.90206607,-0.931441506,2017/6/4
0.690549359,5.608431213,10.39917165,20.6910091,30.41904052,-0.162167238,2017/6/5
0.349387709,5.933474498,10.85520762,20.07767614,30.73665033,-0.875452609,2017/6/6
0.055168071,5.722909811,10.42500241,20.69379926,30.0888861,-0.503108739,2017/6/4
0.876084399,5.197787171,10.19239903,20.44790594,30.09186735,-0.567755136,2017/6/5
0.373052267,5.710193961,10.43170349,20.82477646,30.47161882,-0.217916915,2017/6/6
0.258420451,5.330874566,10.67456946,20.54886778,30.81965206,-0.584725957,2017/6/4
0.559464812,5.328953111,10.90097669,20.11864536,30.30930773,-0.549558971,2017/6/5
0.690085703,5.586652854,10.38909389,20.12612709,30.12580619,-0.629887544,2017/6/6
0.971082043,5.465504395,10.69337246,20.65037646,30.35660827,-0.499665431,2017/6/4
0.282112968,5.119756041,10.52874769,20.22352321,30.27261632,-0.789929401,2017/6/5
0.52829817,5.381553046,10.95792479,20.93016865,30.31465707,-0.111949005,2017/6/6
0.513039817,5.252319689,10.15001948,20.32886621,30.59945196,-0.847089343,2017/6/4
0.112929906,5.436413255,10.42304296,20.03150219,30.3582314,-0.13962214,2017/6/5
0.772513956,5.593427557,10.30936202,20.34766275,30.86968222,-0.677798721,2017/6/6
0.740193363,5.130166913,10.85147291,20.7626092,30.93715998,-0.374191515,2017/6/4
0.776466281,5.224965725,10.79117946,20.0854458,30.1895521,-0.505444121,2017/6/5
0.096595169,5.286286417,10.17136641,20.35956117,30.84341357,-0.831980449,2017/6/6
0.417300429,5.044492647,10.633545,20.32803226,30.0325772,-0.316672368,2017/6/4
0.368877761,5.344542983,10.79189422,20.83030466,30.0273101,-0.238646332,2017/6/5
0.475881357,5.766224803,10.31439801,20.63422254,30.26259908,-0.233871345,2017/6/6
0.427850407,5.893912239,10.24383231,20.58670801,30.59232652,-0.327437134,2017/6/4
0.566686687,5.075981471,10.98415753,20.08780016,30.14749172,-0.68461908,2017/6/5
0.145810322,5.477688673,10.11958775,20.63239187,30.62807189,-0.936412203,2017/6/6
0.848417383,5.708833157,10.12714974,20.81638083,30.75138063,-0.361694464,2017/6/4
0.741242551,5.183286934,10.02678785,20.65136252,30.19548419,-0.728321647,2017/6/5
0.730058056,5.932819975,10.10436487,20.71756817,30.17584048,-0.628800006,2017/6/6
0.284762911,5.807955042,10.41749888,20.57433793,30.81985894,-0.079789302,2017/6/4
0.530882482,5.287064827,10.31681774,20.22602394,30.15403445,-0.336101529,2017/6/5
0.106824892,5.997492479,10.91147833,20.54316894,30.81259655,-0.332603193,2017/6/6
0.793906448,5.734001189,10.81006377,20.58815789,30.21819727,-0.217432367,2017/6/4
0.994322028,5.78731716,10.48131919,20.15035527,30.65776885,-0.854174383,2017/6/5
0.502024441,5.183171744,10.61433017,20.45644858,30.74540552,-0.661301686,2017/6/6
0.110629658,5.703208688,10.88653709,20.40734157,30.95394275,-0.692139571,2017/6/4
0.621580322,5.365243421,10.27285331,20.45296014,30.31272005,-0.69133112,2017/6/5
0.243167779,5.662527362,10.03457793,20.90737152,30.84656644,-0.527292325,2017/6/6
0.860112269,5.419873522,10.06443981,20.40082561,30.6991882,-0.454991165,2017/6/4
0.402035829,5.349660067,10.46726796,20.20744226,30.10855279,-0.351178729,2017/6/5
0.008652399,5.859238686,10.35172901,20.41491555,30.10313111,-0.515872365,2017/6/6
0.628318535,5.079477306,10.67681481,20.02461562,30.20744416,-0.223673811,2017/6/4
0.383870651,5.855491783,10.65192323,20.72051547,30.08882073,-0.442516108,2017/6/5
0.618790605,5.578666504,10.98414725,20.98774434,30.63480718,-0.59640624,2017/6/6
0.414961606,5.173311684,10.45606944,20.16655357,30.56700647,-0.693494901,2017/6/4
0.266251874,5.146835441,10.54902936,20.94883436,30.47539642,-0.285280061,2017/6/5
0.535418638,5.131782319,10.75231026,20.70065772,30.85036508,-0.567101598,2017/6/6
0.252195564,5.639758444,10.82703381,20.24219596,30.52651373,-0.531367284,2017/6/4
0.58668755,5.983682759,10.45308205,20.9039053,30.47010143,-0.539076765,2017/6/5
0.154339549,5.808438922,10.7997592,20.24754531,30.34955963,-0.630250141,2017/6/6
0.554828541,5.521359755,10.99680227,20.59887737,30.48615348,-0.217876274,2017/6/4
0.884473452,5.520446232,10.82527185,20.80860163,30.58728409,-0.556023329,2017/6/5
0.229882206,5.702061195,10.19483604,20.46773959,30.68310816,-0.453831623,2017/6/6
0.926224541,5.93361014,10.42082354,20.08764967,30.37716615,-0.900151008,2017/6/4
0.444919501,5.727783318,10.86189242,20.37095128,30.45365526,-0.471383015,2017/6/5
0.721302923,5.8689984,10.11014767,20.18952939,30.78220237,-0.753429646,2017/6/6
0.085821881,5.742953721,10.33827934,20.30527283,30.20948327,-0.425891934,2017/6/4
0.12765717,5.654845542,10.74191844,20.68772237,30.93672134,-0.040639061,2017/6/5
0.509118389,5.389547775,10.91624397,20.50949669,30.22881555,-0.865996861,2017/6/6
0.969065745,5.257281448,10.74811339,20.82338543,30.98270011,-0.505932954,2017/6/4
0.010709544,5.002625105,10.27192783,20.81223169,30.83472846,-0.337620242,2017/6/5
0.31344418,5.453273081,10.94290873,20.17722491,30.18460412,-0.013423996,2017/6/6
0.31126702,5.640498842,10.89835554,20.94773979,30.00819782,-0.922957242,2017/6/4
0.519426842,5.437529092,10.17178194,20.01273983,30.72470379,-0.570873917,2017/6/5
0.925674656,5.949019193,10.94628365,20.02377833,30.22972333,-0.871806147,2017/6/6
0.317768853,5.260178284,10.92523896,20.93088847,30.89257303,-0.521145336,2017/6/4
0.210735133,5.981203384,10.07744921,20.61879876,30.61134544,-0.420953194,2017/6/5
0.670548242,5.087365021,10.49429158,20.87891271,30.39946876,-0.445046487,2017/6/6
0.042358981,5.106490578,10.9550431,20.77620949,30.22103323,-0.156459339,2017/6/4
0.007066049,5.394689751,10.9958594,20.74501459,30.58749499,-0.998212597,2017/6/5
0.228696754,5.933479999,10.15933181,20.30586101,30.70741246,-0.869379406,2017/6/6
0.208376858,5.36697038,10.31624903,20.69067791,30.46352208,-0.780934251,2017/6/4
0.492339177,5.264049539,10.57614291,20.38852751,30.50892958,-0.67497857,2017/6/5
0.411056203,5.77598096,10.23868697,20.08823287,30.22306552,-0.495062524,2017/6/6
0.133499825,5.653037161,10.29308387,20.92360702,30.00136894,-0.37555987,2017/6/4
0.934031975,5.626879346,10.42266431,20.05570887,30.62037877,-0.571509576,2017/6/5
0.704147433,5.427094682,10.9764198,20.64492565,30.73022558,-0.418900434,2017/6/6
0.300432709,5.702941522,10.21067619,20.8613164,30.49878564,-0.628186042,2017/6/4
0.088894665,5.957384063,10.71056983,20.61714196,30.11949329,-0.095022714,2017/6/5
0.318187576,5.220530958,10.09687274,20.84459219,30.40897311,-0.931751632,2017/6/6
0.544784156,5.895406688,10.97823238,20.68736181,30.89940379,-0.076129987,2017/6/4
0.863381248,5.277999759,10.77742034,20.89507425,30.06736427,-0.047704711,2017/6/5
0.705030985,5.841585436,10.84639572,20.19260465,30.3674035,-0.826899082,2017/6/6
0.261117539,5.595693987,10.09889605,20.00788082,30.80578805,-0.601876799,2017/6/4
0.484701303,5.607873347,10.01853489,20.87233918,30.74889574,-0.329861422,2017/6/5
0.233164236,5.205529108,10.63223023,20.18753765,30.66865867,-0.492504075,2017/6/6
0.221888355,5.524410307,10.92696917,20.18593564,30.10655163,-0.347184037,2017/6/4
0.261887487,5.297355393,10.41458715,20.01174831,30.05627589,-0.164552072,2017/6/5
0.660907313,5.974851771,10.35161543,20.1865837,30.00658081,-0.690003581,2017/6/6
0.516394799,5.331489884,10.71597745,20.69124133,30.69526547,-0.405944228,2017/6/4
0.245902429,5.541709114,10.74188953,20.49810919,30.55289518,-0.976512968,2017/6/5
0.186691054,5.363652784,10.96798511,20.61807269,30.00091875,-0.047869308,2017/6/6
0.304109879,5.440810103,10.94839687,20.80865678,30.53278852,-0.635450482,2017/6/4
0.682069911,5.163150706,10.3793952,20.75645352,30.82438024,-0.385103877,2017/6/5
0.306380796,5.985731911,10.48729373,20.45289198,30.79668644,-0.082807994,2017/6/6
0.528568014,5.305015694,10.43768303,20.02665189,30.77034338,-0.121634329,2017/6/7
0.360126305,5.803767628,10.09224569,20.89669112,30.86793377,-0.573996073,2017/6/8
0.179666211,5.57853392,10.28011695,20.22588209,30.47736086,-0.794749592,2017/6/8
0.660975066,5.071935902,10.18870506,20.09278086,30.02114028,-0.316792188,2017/6/8
0.662574618,5.584877761,10.70006395,20.07565305,30.08723107,-0.031693702,2017/6/8
0.871956063,5.049181555,10.69205429,20.68731874,30.6306136,-0.929482229,2017/6/8
0.261309392,5.568199157,10.4665388,20.13869927,30.39845488,-0.370984826,2017/6/8
0.469158957,5.956346676,10.92079007,20.22086316,30.20922811,-0.5616847,2017/6/8
0.975660004,5.997518479,10.25654626,20.83139326,30.06814248,-0.783931729,2017/6/8
0.822920327,5.642864362,10.35054143,20.30826507,30.43909198,-0.412076793,2017/6/8
0.825634964,5.257051575,10.94226599,20.49978773,30.40157463,-0.183164419,2017/6/8
0.18802635,5.939201266,10.81372594,20.3912759,30.3363593,-0.53272302,2017/6/8
0.034678242,5.911066757,10.77596289,20.49952227,30.67121558,-0.088907576,2017/6/8
0.38193028,5.652633348,10.39001796,20.44600346,30.55565456,-0.964086397,2017/6/8
0.469106309,5.953829644,10.25380606,20.35424167,30.68099001,-0.552012442,2017/6/8
0.560838492,5.581336571,10.40359921,20.45950869,30.97337417,-0.654464879,2017/6/8
0.266326318,5.029370088,10.56349046,20.87027833,30.83399597,-0.867082212,2017/6/8
0.272138052,5.72070971,10.19478291,20.96155368,30.12944962,-0.24608976,2017/6/8
0.740965264,5.889186317,10.55068682,20.9005711,30.81917704,-0.89623263,2017/6/8
0.754465424,5.498291451,10.16683748,20.70202978,30.55475593,-0.164776722,2017/6/8
0.270383612,5.051605241,10.35274259,20.02737306,30.48355951,-0.707168482,2017/6/8
0.997519472,5.102004172,10.18156669,20.93795921,30.69123201,-0.025933248,2017/6/8
0.999307672,5.258010063,10.4504889,20.74217023,30.33774589,-0.900952904,2017/6/8
0.598897232,5.507704054,10.00213852,20.92883837,30.77031257,-0.229237591,2017/6/8
0.644831517,5.605005888,10.95357812,20.59528939,30.78023999,-0.5020702,2017/6/8
0.934796837,5.4809158,10.60072489,20.75763857,30.61138184,-0.049902398,2017/6/8
0.189270694,5.257514562,10.55610551,20.20707537,30.541942,-0.418707779,2017/6/8
0.405585602,5.376000147,10.96515867,20.3382595,30.00484336,-0.724625918,2017/6/8
0.230672405,5.293633528,10.20285391,20.80361258,30.09489711,-0.02891614,2017/6/8
0.512659471,5.606043593,10.76159102,20.09423149,30.28552292,-0.075116156,2017/6/8
0.804675869,5.442790643,10.20298177,20.93216105,30.14717026,-0.720200523,2017/6/8
0.52461846,5.673273645,10.47563794,20.10286101,30.20706351,-0.019455731,2017/6/8
0.907795648,5.707648171,10.12389156,20.16791896,30.95125922,-0.236931702,2017/6/8
0.280444754,5.558524933,10.23024554,20.54620928,30.04320948,-0.565365811,2017/6/8
0.487667159,5.074470268,10.86009331,20.17805062,30.02762022,-0.648998878,2017/6/8
0.823291279,5.385435966,10.49349709,20.980015,30.91343458,-0.323315245,2017/6/8
0.087350994,5.539722382,10.70609385,20.53047634,30.84782687,-0.871764267,2017/6/8
0.37682017,5.894031593,10.72918341,20.07723223,30.26503918,-0.25561049,2017/6/8
0.670053953,5.961876564,10.67187381,20.29491367,30.39765708,-0.430195673,2017/6/8
0.611584019,5.58392356,10.31023443,20.11162615,30.57441071,-0.670236266,2017/6/8
0.681763728,5.727907863,10.91914999,20.79224646,30.12395593,-0.520328996,2017/6/8
0.215744197,5.118123924,10.27716461,20.46310051,30.60265769,-0.8148203,2017/6/8
0.363381382,5.873641591,10.2889749,20.62750063,30.54008425,-0.267063721,2017/6/8
0.564218134,5.026404411,10.04398779,20.10771684,30.32202923,-0.701684503,2017/6/8
0.708134861,5.38970831,10.58518835,20.62387485,30.4351134,-0.162835977,2017/6/8
0.58726797,5.664211395,10.81727419,20.39574787,30.53221288,-0.137997047,2017/6/8
0.752002976,5.15327208,10.49128062,20.97660775,30.35139328,-0.696078462,2017/6/8
0.893126688,5.496802063,10.36756012,20.59750471,30.39267937,-0.886678528,2017/6/8
0.784567188,5.638692094,10.88682731,20.48530971,30.80217543,-0.506244281,2017/6/8
0.093119169,5.977568105,10.71130199,20.33102218,30.87265469,-0.820582095,2017/6/8
0.692620814,5.178267113,10.66039459,20.26540291,30.63600317,-0.789457354,2017/6/8
0.374868894,5.302660313,10.32149303,20.65469887,30.97883636,-0.553988186,2017/6/8
0.804282442,5.952954883,10.61275614,20.14691017,30.25740003,-0.076892358,2017/6/8
0.515868411,5.308910612,10.97027285,20.52099831,30.58297932,-0.012411012,2017/6/8
0.497696984,5.359529628,10.13040786,20.02820027,30.1326593,-0.030148473,2017/6/8
0.699785306,5.0619897,10.31814542,20.32237973,30.05215902,-0.97307239,2017/6/8
0.964136071,5.626353308,10.53131115,20.48834734,30.39864851,-0.917664683,2017/6/8
0.648125303,5.308864148,10.5916818,20.42447626,30.98746372,-0.329685429,2017/6/8
0.914379218,5.041520431,10.97840592,20.11369417,30.514291,-0.730431891,2017/6/8
0.490801575,5.065493074,10.46985682,20.94810658,30.12297684,-0.30256432,2017/6/8
0.519171067,5.942004782,10.21659663,20.14077895,30.19331898,-0.320254275,2017/6/8
0.331150808,5.998113286,10.40451557,20.32261457,30.0224723,-0.327229228,2017/6/8
0.485675292,5.612254482,10.48934204,20.62844978,30.01520192,-0.375072617,2017/6/8
0.461571004,5.810381519,10.34891196,20.52029592,30.43542321,-0.388923642,2017/6/8
0.983822656,5.062317661,10.4919455,20.57551979,30.87180024,-0.867164526,2017/6/8
0.888687084,5.428439719,10.57144302,20.22322347,30.45806998,-0.038441302,2017/6/8
0.513091077,5.658222535,10.43428442,20.42175719,30.12506338,-0.315821982,2017/6/8
0.250805487,5.357157422,10.26446485,20.78645291,30.61977042,-0.642792015,2017/6/8
0.409423426,5.445679747,10.80328733,20.23097145,30.25245362,-0.624454151,2017/6/8
0.717247378,5.690269359,10.57632156,20.27422381,30.11285671,-0.473138262,2017/6/8
0.23323426,5.877990037,10.9691706,20.85447473,30.09414235,-0.160619919,2017/6/8
0.02908549,5.699543129,10.37775222,20.17528403,30.49744565,-0.969135041,2017/6/8
0.504264073,5.940010383,10.75165173,20.26404426,30.25778321,-0.42155811,2017/6/8
0.986308685,5.415213404,10.68052776,20.09573968,30.9608072,-0.755970783,2017/6/8
0.783248257,5.877755928,10.83242538,20.36011531,30.22681229,-0.423861484,2017/6/8
0.509360528,5.974566193,10.9207137,20.25198395,30.22055687,-0.094338619,2017/6/8
0.051800649,5.330764946,10.82319061,20.84302382,30.55461314,-0.467526926,2017/6/8
0.824178601,5.808323981,10.64081309,20.4924382,30.47609026,-0.329328971,2017/6/8
0.06808549,5.084478699,10.21417534,20.75676983,30.31961472,-0.81276648,2017/6/8
0.588895634,5.267607459,10.71453416,20.62443236,30.51748131,-0.645029147,2017/6/8
0.607924409,5.720247138,10.47206992,20.56751714,30.76905471,-0.055273309,2017/6/8
0.400003861,5.604573917,10.95904436,20.55565914,30.49715567,-0.619873331,2017/6/8
0.108681093,5.392178161,10.95308776,20.39602106,30.75335941,-0.688579589,2017/6/8
0.002496378,5.326195793,10.89462686,20.95716087,30.78312764,-0.478471699,2017/6/8
0.346609483,5.107475561,10.33778414,20.33816084,30.60376118,-0.75953338,2017/6/8
0.175711958,5.242544276,10.91889855,20.42494033,30.08221864,-0.809952895,2017/6/8
0.223215745,5.988337406,10.78009375,20.39894432,30.48554118,-0.083286282,2017/6/8
0.803606778,5.973481774,10.48470647,20.75130236,30.84567677,-0.608119496,2017/6/8
0.951876614,5.520567739,10.24168369,20.65133498,30.23933266,-0.680861414,2017/6/8
0.580383381,5.8140021,10.24902773,20.0755662,30.82111158,-0.646571054,2017/6/8
0.611153998,5.231578698,10.62908393,20.76283562,30.53896124,-0.427744365,2017/6/8
0.129187732,5.458761695,10.76109906,20.30751949,30.67313417,-0.564555401,2017/6/8
0.295653481,5.655659091,10.19713144,20.64221472,30.10874872,-0.872876193,2017/6/8
0.707406027,5.778001143,10.90620958,20.08511073,30.9704043,-0.978143041,2017/6/8
0.896466699,5.448284105,10.51938122,20.41531374,30.6313424,-0.003611375,2017/6/8
0.440956965,5.363429546,10.40661634,20.00973538,30.17420356,-0.720236791,2017/6/8
0.903302053,5.574332598,10.66413946,20.49377274,30.04781949,-0.18293712,2017/6/8
0.508668965,5.889331537,10.97368916,20.6364469,30.68492808,-0.209875046,2017/6/8
0.773268273,5.969310805,10.96073642,20.13006482,30.38622794,-0.111367029,2017/6/8
0.692339467,5.002804032,10.12006805,20.55419581,30.7505658,-0.779316877,2017/6/8
0.959630853,5.404373989,10.73990385,20.61587379,30.71433281,-0.593251593,2017/6/8
0.164373855,5.038449193,10.31998274,20.09229584,30.55200573,-0.029777555,2017/6/8
0.212850302,5.05980303,10.04599907,20.14891467,30.52574879,-0.142283273,2017/6/8
0.545550947,5.458274341,10.14697075,20.07609106,30.2648349,-0.696173026,2017/6/8
0.212991694,5.381926641,10.50362977,20.19778698,30.73595158,-0.832290002,2017/6/8
0.663041716,5.905364994,10.87927038,20.87113176,30.74551457,-0.088579426,2017/6/8
0.29462268,5.936985453,10.15177555,20.51439961,30.6817558,-0.632836775,2017/6/8
0.130396496,5.781069284,10.31459835,20.94199498,30.25517319,-0.53588242,2017/6/8
0.40992656,5.457928225,10.74786358,20.47516084,30.00995762,-0.028892455,2017/6/8
0.695729341,5.298867418,10.48745601,20.31344711,30.19076495,-0.943031918,2017/6/8
0.250163715,5.974948715,10.06715363,20.41236798,30.44052222,-0.876994919,2017/6/8
0.895428663,5.992454987,10.20833869,20.50976557,30.25589158,-0.07123051,2017/6/8
0.742777099,5.497738236,10.00229794,20.23179461,30.92317827,-0.401766484,2017/6/8
0.250989364,5.327371721,10.00005304,20.77437881,30.75135732,-0.641938153,2017/6/8
0.866539724,5.068451141,10.94648839,20.84934566,30.84245878,-0.232867985,2017/6/8
0.513192223,5.765731389,10.59120278,20.55631556,30.50394622,-0.529526911,2017/6/8
0.130755927,5.635173688,10.36149967,20.88164091,30.56665964,-0.175480021,2017/6/8
0.826251686,5.986167574,10.40531369,20.54748846,30.33256418,-0.120735647,2017/6/8
0.213891059,5.53705071,10.55915566,20.56648536,30.04995592,-0.689698176,2017/6/8
0.028765248,5.876210352,10.53583429,20.52158708,30.85461801,-0.01036515,2017/6/8
0.352661056,5.589122472,10.9892654,20.20818746,30.87708356,-0.611281061,2017/6/8
0.627168952,5.882600209,10.50383644,20.32954301,30.98786775,-0.429698973,2017/6/8
0.274716647,5.732066075,10.40826626,20.85332731,30.87070519,-0.84031207,2017/6/8
0.432682287,5.416273784,10.12889867,20.57866443,30.70463276,-0.597539199,2017/6/8
0.555872019,5.77015735,10.34469409,20.86632818,30.49545104,-0.245053473,2017/6/8
0.036543287,5.323945584,10.01850857,20.18467646,30.71359121,-0.69541069,2017/6/8
0.23229187,5.935051927,10.21848196,20.28315526,30.18154954,-0.233465873,2017/6/8
0.886135192,5.581486634,10.43267233,20.27367173,30.09664051,-0.662344369,2017/6/8
0.32972177,5.881179798,10.37396251,20.62955484,30.10199596,-0.821050776,2017/6/8
0.066582837,5.532389373,10.89000205,20.2047527,30.17096688,-0.973890082,2017/6/8
0.923761629,5.949222503,10.37324738,20.56630304,30.9166133,-0.520374785,2017/6/8
0.025976503,5.842308276,10.11821107,20.51537175,30.89826411,-0.680126618,2017/6/8
0.57528802,5.548659533,10.0949317,20.13392806,30.54588531,-0.662688805,2017/6/8
0.993468616,5.692744674,10.59220675,20.53039791,30.58090632,-0.980641889,2017/6/8
0.726051785,5.57777788,10.46279582,20.81452389,30.30688334,-0.677441862,2017/6/8
0.780279858,5.930319469,10.69391589,20.35649695,30.42381724,-0.630198108,2017/6/8
0.959316211,5.995014074,10.79122464,20.55411052,30.85717868,-0.585429089,2017/6/8
0.568489138,5.070389588,10.64394312,20.98762356,30.19273042,-0.202152502,2017/6/8
0.018171834,5.66490476,10.61220703,20.81212452,30.94648749,-0.528634547,2017/6/8
0.632220391,5.95930264,10.15142225,20.33314378,30.59946153,-0.866829274,2017/6/8
0.28145851,5.570404864,10.00098506,20.28229545,30.8265038,-0.231895432,2017/6/8
0.106151745,5.549843145,10.34210233,20.30673626,30.28828166,-0.768608403,2017/6/8
0.404687933,5.709982608,10.0811039,20.72610917,30.81519942,-0.13497294,2017/6/8
0.494357389,5.100954702,10.59661385,20.35466083,30.19891473,-0.052978284,2017/6/8
0.144812026,5.886993866,10.92961007,20.14175342,30.71570092,-0.599703578,2017/6/8
0.697375857,5.942659648,10.62216725,20.46334641,30.16275641,-0.560208426,2017/6/8
0.124158079,5.330514538,10.40474488,20.979096,30.48093785,-0.977991594,2017/6/8
0.382410948,5.564805138,10.70919724,20.63951037,30.40548534,-0.090725771,2017/6/8
0.842930619,5.671249362,10.60451466,20.18278898,30.23820292,-0.41317281,2017/6/8
0.80913681,5.619857286,10.10449354,20.68824676,30.01243287,-0.734962141,2017/6/8
0.80533222,5.355847833,10.09708719,20.63242262,30.95501687,-0.125999197,2017/6/8
0.926954641,5.283741101,10.92922041,20.9483233,30.55722384,-0.961817256,2017/6/8
0.28651505,5.6099823,10.83415779,20.1494641,30.38696508,-0.758463962,2017/6/8
0.311238698,5.242218268,10.75796742,20.98693597,30.27884005,-0.569843282,2017/6/8
0.786926377,5.558472707,10.716831,20.31719962,30.67641969,-0.937874545,2017/6/8
0.655635534,5.566189005,10.25966415,20.84966602,30.75701294,-0.56962489,2017/6/8
0.80943341,5.063419894,10.42451485,20.40023897,30.96894527,-0.679941302,2017/6/8
0.973167385,5.945216324,10.73970705,20.3514321,30.14134462,-0.629720934,2017/6/8
0.142315358,5.895889485,10.13245448,20.81703753,30.55650374,-0.218944509,2017/6/8
0.536329036,5.040723757,10.08255922,20.89142597,30.40438551,-0.504354151,2017/6/8
0.073837333,5.426623225,10.01395306,20.39584977,30.47756936,-0.317331039,2017/6/8
0.057791124,5.469972676,10.55637353,20.64202386,30.85627969,-0.181061292,2017/6/8
0.948581064,5.070381105,10.3561734,20.54321623,30.92247003,-0.535474356,2017/6/8
0.942999262,5.927807007,10.23759975,20.7184359,30.32413188,-0.273715274,2017/6/8
0.342967907,5.911508062,10.48034103,20.36485445,30.50212959,-0.23136346,2017/6/8
0.29173409,5.201304331,10.26256896,20.70033006,30.75382583,-0.377109018,2017/6/8
0.274605156,5.945218021,10.16366481,20.78769396,30.87291102,-0.962055888,2017/6/8
0.107772799,5.337084618,10.57149814,20.25680724,30.11204604,-0.430080672,2017/6/8
0.661578148,5.508854219,10.5162396,20.07076293,30.14109183,-0.337392245,2017/6/8
0.315932595,5.027940912,10.68425134,20.05678799,30.03664643,-0.313693646,2017/6/8
0.515561125,5.202178916,10.66048538,20.97987979,30.9364883,-0.340949037,2017/6/8
0.72909415,5.627382884,10.27783797,20.0002682,30.55258824,-0.482039974,2017/6/8
0.166450607,5.187613966,10.91085826,20.90708537,30.81567941,-0.168908305,2017/6/8
0.371435679,5.788502932,10.19919086,20.94479731,30.97024616,-0.810163918,2017/6/8
0.046743322,5.890053059,10.77794592,20.36720799,30.86000944,-0.382229241,2017/6/8
0.874608147,5.751078352,10.69068045,20.48899512,30.21415812,-0.873960559,2017/6/8
0.927671379,5.035352591,10.02313845,20.77325428,30.64078819,-0.757481907,2017/6/8
0.606199404,5.53334889,10.63265339,20.89473524,30.13391609,-0.874906775,2017/6/8
0.778914196,5.91117911,10.53599087,20.04644629,30.30195405,-0.686103061,2017/6/8
0.672268423,5.131128313,10.36632691,20.08635146,30.58813576,-0.217108349,2017/6/8
0.274139868,5.605001297,10.84741115,20.95799633,30.59149788,-0.035360183,2017/6/8
0.175227882,5.149640286,10.36807348,20.15934747,30.51168229,-0.10614524,2017/6/8
0.590960369,5.687607076,10.73536361,20.99309006,30.53421015,-0.750454834,2017/6/8
0.430460803,5.315438354,10.78443255,20.37352763,30.55454893,-0.633018994,2017/6/8
0.326077523,5.510756253,10.26650567,20.54297543,30.20117264,-0.517685605,2017/6/8
0.120713875,5.142470162,10.59875829,20.62944988,30.07175752,-0.674941052,2017/6/8
0.248767858,5.966603767,10.94770016,20.50573179,30.66032178,-0.328721953,2017/6/8
0.181180632,5.208868246,10.86728633,20.58475411,30.97815562,-0.05145419,2017/6/8
0.529798584,5.686977398,10.09653886,20.07849793,30.89853993,-0.052441336,2017/6/8
0.25799357,5.82190692,10.41700138,20.10817891,30.36498662,-0.627326468,2017/6/8
0.84253794,5.381978768,10.07794789,20.52896566,30.853328,-0.298319996,2017/6/8
0.60549175,5.873992511,10.25386955,20.7170571,30.75331702,-0.277865893,2017/6/8
0.690410674,5.308760195,10.31924375,20.35837321,30.50049492,-0.396645739,2017/6/8
0.743465497,5.716438421,10.76687877,20.16459794,30.94593251,-0.891492324,2017/6/8
0.488528756,5.226463146,10.2910286,20.33823064,30.29729785,-0.306372067,2017/6/8
0.684165105,5.15195584,10.14302661,20.13213839,30.95047165,-0.490104725,2017/6/8
0.148142244,5.577659321,10.01179658,20.90961386,30.59357731,-0.905412827,2017/6/8
0.664244694,5.47577457,10.58174296,20.20002795,30.76356015,-0.149754906,2017/6/8
0.420116695,5.446240033,10.7619949,20.76012274,30.52355276,-0.331728295,2017/6/8
0.861708845,5.945960598,10.52657578,20.13042138,30.98078182,-0.721225742,2017/6/8
0.882963467,5.38776982,10.85057783,20.48279135,30.58411437,-0.047363404,2017/6/8
0.946618091,5.766764432,10.99706675,20.41830954,30.88733098,-0.272400698,2017/6/8
0.014321955,5.738060847,10.43000266,20.83986039,30.20264588,-0.460666788,2017/6/8
0.067439401,5.020032917,10.93633788,20.00858772,30.8005298,-0.886808022,2017/6/8
0.041810158,5.604859668,10.85835695,20.15653486,30.57327358,-0.408297031,2017/6/8
0.640573932,5.343096964,10.9036264,20.85652338,30.57786238,-0.800919671,2017/6/8
0.722109129,5.125434189,10.17438901,20.92816771,30.19948779,-0.638765379,2017/6/8
0.823066341,5.168935141,10.90056059,20.1597571,30.56438042,-0.643713613,2017/6/8
0.126038324,5.779788218,10.24345575,20.57628207,30.37991283,-0.961282732,2017/6/8
0.861196411,5.676507289,10.94259586,20.20135144,30.89394051,-0.612094174,2017/6/8
0.226122348,5.087910909,10.02951173,20.46395396,30.60569397,-0.903073337,2017/6/8
0.058354891,5.135872435,10.09650913,20.20532604,30.69322034,-0.243357443,2017/6/8
0.392177959,5.70365839,10.25736982,20.92056967,30.66804243,-0.115858541,2017/6/8
0.644576505,5.834894369,10.23534078,20.47456061,30.24404165,-0.876230587,2017/6/8
0.695885427,5.272363271,10.73102607,20.30752265,30.79207409,-0.721725251,2017/6/8
0.378606248,5.125526549,10.16346457,20.99083464,30.30553895,-0.295359507,2017/6/8
0.335774987,5.738326659,10.38884913,20.54899558,30.90277623,-0.096078877,2017/6/8
0.489140417,5.361615325,10.60315926,20.57497365,30.77597,-0.659667262,2017/6/8
0.216522109,5.51457029,10.36690853,20.73127633,30.2781952,-0.190870021,2017/6/8
0.838249562,5.237158464,10.29685583,20.70223331,30.41490342,-0.360597872,2017/6/8
0.360325887,5.753485713,10.66188611,20.41352529,30.96273311,-0.046666708,2017/6/8
0.678353951,5.560714353,10.5379572,20.52310227,30.51851837,-0.223942687,2017/6/8
0.669869734,5.593313533,10.81544715,20.19060529,30.49226592,-0.130222813,2017/6/8
0.780592849,5.607603178,10.6237686,20.30836953,30.84451589,-0.243177978,2017/6/8
0.493135309,5.516416475,10.64673423,20.63294941,30.92409103,-0.776685796,2017/6/8
0.24800975,5.217758327,10.63480292,20.87154392,30.40882528,-0.458114939,2017/6/8
0.61687762,5.235530716,10.45470465,20.33025274,30.38005362,-0.58995278,2017/6/8
0.62340283,5.357406642,10.47521608,20.75835936,30.06471654,-0.291635109,2017/6/8
0.374759947,5.648802036,10.70911507,20.52377561,30.58089679,-0.727213853,2017/6/8
0.814131282,5.014318453,10.1625667,20.24339932,30.74972265,-0.510692131,2017/6/8
0.114399821,5.636285765,10.06001276,20.43721863,30.43532102,-0.332439274,2017/6/8
0.628794051,5.601331046,10.7330975,20.84448986,30.81441808,-0.713753052,2017/6/8
0.360148421,5.961980597,10.00537067,20.44736678,30.74285157,-0.150386366,2017/6/8
0.607745042,5.493983036,10.5110122,20.95844761,30.73123538,-0.706950578,2017/6/8
0.260991658,5.535063574,10.62367249,20.76015199,30.97752473,-0.164308759,2017/6/8
0.769466732,5.78669815,10.75719232,20.05149025,30.460386,-0.214996279,2017/6/8
0.878060938,5.52260541,10.20015392,20.08768637,30.1533072,-0.738655392,2017/6/8
0.129255916,5.564526184,10.08059199,20.67005753,30.68864165,-0.016232818,2017/6/8
0.683445049,5.411193295,10.21239222,20.16219812,30.84096333,-0.077986883,2017/6/8
0.646871276,5.598554349,10.5635156,20.36894827,30.72667002,-0.106410063,2017/6/8
0.344491265,5.507642009,10.13659677,20.64799219,30.17769415,-0.328636676,2017/6/8
0.531121521,5.494405579,10.55674282,20.75087341,30.04485967,-0.085371983,2017/6/8
0.073661417,5.076023866,10.14527426,20.3337,30.53998477,-0.054407978,2017/6/8
0.045586797,5.681035138,10.42148656,20.01477846,30.62083375,-0.045307456,2017/6/8
0.436576774,5.035534269,10.23134899,20.71052954,30.89388818,-0.541676688,2017/6/8
0.444772326,5.724745139,10.14117775,20.04242744,30.75603921,-0.770159664,2017/6/8
0.774141774,5.825142823,10.76078747,20.52070614,30.74613529,-0.433010317,2017/6/8
0.728908989,5.475439952,10.14285909,20.09123073,30.03757337,-0.621561613,2017/6/8
0.071793871,5.368426018,10.4324662,20.28286906,30.85013161,-0.606240162,2017/6/8
0.048238459,5.469816541,10.64973518,20.01040954,30.18701285,-0.07351958,2017/6/8
0.659790323,5.491209148,10.43099734,20.36678423,30.635854,-0.659296738,2017/6/8
0.873392221,5.471774464,10.69544552,20.18923455,30.16826931,-0.196196472,2017/6/8
0.290412383,5.859153659,10.08733032,20.00546849,30.9268078,-0.663522766,2017/6/8
0.231370812,5.859747139,10.78741339,20.68979071,30.97908038,-0.110959757,2017/6/8
0.936756977,5.629771721,10.92629044,20.81528396,30.87676147,-0.683663564,2017/6/8
0.121900152,5.163124558,10.32460512,20.88508451,30.70418663,-0.937446135,2017/6/8
0.621789214,5.7032778,10.58795858,20.26053292,30.62956882,-0.313080227,2017/6/8
0.703188589,5.212999806,10.79690112,20.13242532,30.37066814,-0.496745475,2017/6/8
0.796862154,5.358539792,10.23424731,20.41103604,30.90143485,-0.447039328,2017/6/8
0.804999996,5.84120485,10.17070207,20.24397305,30.04420238,-0.925956639,2017/6/8
0.286543058,5.720992947,10.23265494,20.41049052,30.2056694,-0.102617844,2017/6/8
0.045615983,5.802370332,10.21193707,20.44035067,30.01023938,-0.418124709,2017/6/8
0.663409889,5.630342559,10.45430465,20.70967737,30.34100003,-0.093667993,2017/6/8
0.352837436,5.737094804,10.7129363,20.5799516,30.93642744,-0.801523629,2017/6/8
0.594121875,5.369303653,10.77547236,20.12677405,30.42241247,-0.705907605,2017/6/8
0.912205149,5.664457639,10.31582248,20.74346666,30.2393339,-0.497609324,2017/6/8
0.474082338,5.694357911,10.29166264,20.60752547,30.94370475,-0.658718673,2017/6/8
0.302390588,5.327451814,10.14281665,20.44330813,30.37682031,-0.930629609,2017/6/8
0.204188211,5.361749536,10.49208365,20.87811054,30.57757877,-0.679027026,2017/6/8
0.988352897,5.396983653,10.78961513,20.11971872,30.12989013,-0.242537599,2017/6/8
0.786121542,5.748222249,10.58401055,20.77442113,30.65849481,-0.668913313,2017/6/8
0.379900097,5.052551359,10.87478656,20.24712966,30.06327593,-0.314544617,2017/6/8
0.170743535,5.613221147,10.6532727,20.29522326,30.47762628,-0.977648364,2017/6/8
0.382732098,5.358409282,10.97899023,20.02884991,30.6803267,-0.298857444,2017/6/8
0.168579901,5.677954888,10.4311122,20.61219198,30.03529491,-0.262531361,2017/6/8
0.439029218,5.746039577,10.92317966,20.16776281,30.32151313,-0.578550259,2017/6/8
0.282435991,5.071418332,10.24301971,20.49558734,30.26842106,-0.636825301,2017/6/8
0.440106656,5.112046287,10.77460457,20.14110342,30.86000916,-0.660203772,2017/6/8
0.400219229,5.325553186,10.24980199,20.36961165,30.56178901,-0.870064785,2017/6/8
0.157492504,5.834277157,10.7097343,20.26013762,30.07961261,-0.941677149,2017/6/8
0.080456571,5.657003548,10.02244051,20.3109754,30.95089094,-0.348017289,2017/6/8
0.36903249,5.580786788,10.58648418,20.85810472,30.97579825,-0.937424006,2017/6/8
0.682880694,5.254253352,10.35644366,20.76726862,30.00000552,-0.444491465,2017/6/8
0.05971994,5.242354555,10.43707489,20.36732452,30.06191483,-0.848263044,2017/6/8
0.247675485,5.453085085,10.32456313,20.63218945,30.40590587,-0.00685834,2017/6/8
0.704442205,5.837338089,10.31511017,20.66454601,30.81648673,-0.394326251,2017/6/8
0.377608036,5.995289659,10.67376975,20.85649272,30.45810317,-0.756364661,2017/6/8
0.006096161,5.196932705,10.83815882,20.93648103,30.82555385,-0.041667521,2017/6/8
0.797208361,5.705794482,10.59246941,20.54582066,30.16106716,-0.831414639,2017/6/8
0.946446135,5.735620556,10.79160874,20.78142678,30.3873872,-0.485176526,2017/6/8
0.920775987,5.86383143,10.8529005,20.39465585,30.67362274,-0.146447142,2017/6/8
0.669807779,5.693597139,10.52658318,20.97679647,30.02075428,-0.071878531,2017/6/8
0.080585714,5.840941308,10.28544006,20.5254669,30.12796006,-0.61550522,2017/6/8
0.889578441,5.503888744,10.8187279,20.49476156,30.09225865,-0.862116235,2017/6/8
0.344626808,5.805401332,10.85054675,20.96644091,30.77536122,-0.996944544,2017/6/8
0.289504142,5.22605201,10.93246836,20.69869437,30.77235836,-0.737846579,2017/6/8
0.266868635,5.424373787,10.17349654,20.34660341,30.8826279,-0.189392734,2017/6/8
0.471577141,5.454115195,10.23464371,20.44934826,30.59301246,-0.123206432,2017/6/8
0.877867554,5.246872157,10.09055794,20.08841081,30.25041938,-0.542695244,2017/6/8
0.585316022,5.769759456,10.52893678,20.1153525,30.67798648,-0.267125673,2017/6/8
0.039497152,5.580541052,10.53374134,20.40853864,30.52888101,-0.563496466,2017/6/8
0.623703729,5.128287881,10.30002434,20.03624652,30.14953653,-0.449532801,2017/6/8
0.730331308,5.283705076,10.44633085,20.18883803,30.03244726,-0.526083788,2017/6/8
0.695553134,5.081847401,10.07597828,20.56092862,30.28491462,-0.848022898,2017/6/8
0.924638611,5.900362596,10.81718849,20.48662766,30.23973542,-0.372521014,2017/6/8
0.018901431,5.001336842,10.22918571,20.49461903,30.73912712,-0.642634708,2017/6/8
0.918132942,5.506572454,10.7846647,20.5398394,30.08877165,-0.209317339,2017/6/8
0.640196974,5.107672571,10.75176309,20.39614455,30.47064906,-0.149035334,2017/6/8
0.218741264,5.588743115,10.90115607,20.45051156,30.18859996,-0.015181206,2017/6/8
0.574396513,5.938165931,10.60047173,20.40779024,30.21988056,-0.631644814,2017/6/8
0.114530839,5.238310096,10.46941981,20.14178669,30.84037573,-0.254345425,2017/6/8
0.360968484,5.042068992,10.98831718,20.42766444,30.61351125,-0.690344564,2017/6/8
0.074663967,5.775742282,10.14704774,20.25425403,30.84941732,-0.928791266,2017/6/8
0.749640249,5.372741641,10.56649203,20.3982762,30.26314208,-0.187514925,2017/6/8
0.430469279,5.595105043,10.0918167,20.37611759,30.71585217,-0.316157789,2017/6/8
0.815655387,5.552811042,10.32999379,20.1912477,30.80692708,-0.844331873,2017/6/8
0.599674975,5.699749385,10.8261945,20.82555398,30.12850282,-0.581727278,2017/6/8
0.699874082,5.988170708,10.16106158,20.10543546,30.29208708,-0.634440904,2017/6/8
0.602875577,5.172659725,10.54716933,20.14818295,30.04200154,-0.69171406,2017/6/8
0.752397155,5.209832271,10.65430366,20.74225075,30.78334506,-0.006629003,2017/6/8
0.802231869,5.583120935,10.24378355,20.56413889,30.15075562,-0.248167835,2017/6/8
0.572237524,5.838750791,10.29860043,20.60389261,30.51749619,-0.432059753,2017/6/8
0.026664972,5.816631279,10.94974067,20.38390251,30.23153884,-0.556556335,2017/6/8
0.682020309,5.542334651,10.32300381,20.38169117,30.87850226,-0.866324856,2017/6/8
0.798940507,5.814891343,10.17583368,20.52558461,30.24959951,-0.840288736,2017/6/8
0.549191818,5.113996558,10.47889967,20.54067371,30.33756676,-0.271948732,2017/6/8
0.028410716,5.217175209,10.9490822,20.96324408,30.01830215,-0.480738727,2017/6/8
0.450226088,5.517929174,10.56983965,20.52208948,30.53143788,-0.217799049,2017/6/8
0.801048568,5.284147975,10.89037686,20.13177352,30.83780968,-0.353125321,2017/6/8
0.768999172,5.651503245,10.56780629,20.72832505,30.54490521,-0.495895583,2017/6/8
0.198065753,5.000479596,10.34603503,20.83904563,30.94983056,-0.556390591,2017/6/8
0.097531943,5.52142257,10.0712718,20.88307192,30.71271206,-0.191332179,2017/6/8
0.189994151,5.126661626,10.41258699,20.50389976,30.24934532,-0.165208583,2017/6/8
0.021142383,5.34915413,10.65571104,20.86432775,30.32946653,-0.7355014,2017/6/8
0.982849671,5.697217641,10.37903365,20.71869843,30.30284897,-0.833867813,2017/6/8
0.448239752,5.400915201,10.99909063,20.04826234,30.84056067,-0.829925499,2017/6/9
0.023131904,5.190517322,10.12679574,20.20754163,30.58427316,-0.674120089,2017/6/10
0.22088457,5.671761835,10.41468716,20.01097783,30.36436356,-0.906204905,2017/6/10
0.24435396,5.631214478,10.4924917,20.8163461,30.96565982,-0.570630299,2017/6/10
0.56443087,5.052259216,10.6622135,20.24228712,30.22892004,-0.926827888,2017/6/10
0.861931481,5.090035772,10.22962126,20.05200105,30.90475689,-0.029012694,2017/6/10
0.08302822,5.259691091,10.98138349,20.1523861,30.60969789,-0.547760053,2017/6/10
0.634766154,5.86744064,10.68440165,20.95194993,30.05948943,-0.534570363,2017/6/10
0.129576237,5.600365469,10.61811073,20.24807535,30.09592161,-0.516541315,2017/6/10
0.35809093,5.424992846,10.99349755,20.55238206,30.51748501,-0.51516826,2017/6/10
0.153999657,5.979882356,10.74699599,20.84055196,30.8058686,-0.363712064,2017/6/10
0.849118698,5.279889022,10.70608749,20.48442735,30.73891177,-0.688311694,2017/6/10
0.986394429,5.143973837,10.9628852,20.66435299,30.37083217,-0.852727368,2017/6/10
0.460405366,5.089490644,10.92438848,20.10465146,30.6663201,-0.899250796,2017/6/10
0.383041282,5.954860973,10.01654531,20.86855815,30.35633163,-0.648694377,2017/6/10
0.084732694,5.501396844,10.27227212,20.2206017,30.25051045,-0.206557248,2017/6/10
0.295079428,5.490993358,10.53311279,20.40257632,30.03975014,-0.076792766,2017/6/10
0.225428428,5.337862298,10.60404177,20.62964723,30.50599265,-0.949612561,2017/6/10
0.638016952,5.695172155,10.75820878,20.11380496,30.37212231,-0.058861275,2017/6/10
0.179999022,5.550051229,10.81453804,20.53348968,30.27979265,-0.848596006,2017/6/10
0.682995349,5.854201938,10.13754634,20.54128824,30.92262938,-0.915809376,2017/6/10
0.287825596,5.669116106,10.2827443,20.94907063,30.84507527,-0.678042998,2017/6/10
0.550341216,5.58106128,10.17558576,20.32145299,30.20011135,-0.692976978,2017/6/10
0.284930457,5.170492089,10.87369619,20.7933517,30.30482109,-0.909200844,2017/6/10
0.087371353,5.091588737,10.6628042,20.97953026,30.21084731,-0.718887256,2017/6/10
0.128973729,5.089991894,10.56537851,20.4398848,30.61583474,-0.332211076,2017/6/10
0.330022491,5.740113141,10.68235882,20.4466787,30.88505948,-0.245109728,2017/6/10
0.297250295,5.251147808,10.22906739,20.33717484,30.70762385,-0.573191456,2017/6/10
0.476105401,5.036241051,10.52607764,20.80773167,30.78324394,-0.045350035,2017/6/10
0.339536637,5.49935905,10.7198773,20.16706515,30.91474278,-0.887656938,2017/6/10
0.992958086,5.044924011,10.46145406,20.01149307,30.78622358,-0.362456123,2017/6/10
0.357940675,5.951612812,10.96942632,20.98067851,30.38226357,-0.858514215,2017/6/10
0.662757603,5.739001328,10.11948998,20.04116502,30.05470623,-0.606039997,2017/6/10
0.37958259,5.403827182,10.08483201,20.71742842,30.17681571,-0.861784431,2017/6/10
0.531870236,5.463501284,10.79115787,20.26972655,30.9607244,-0.046552833,2017/6/10
0.805816999,5.243355262,10.37915801,20.99068887,30.17906464,-0.014580277,2017/6/10
0.774602707,5.248100683,10.40673685,20.07117639,30.64257533,-0.617355303,2017/6/10
0.436558138,5.695753006,10.90749398,20.60578208,30.49614204,-0.584041797,2017/6/10
0.987034781,5.139461246,10.11902789,20.44446002,30.16395541,-0.717431552,2017/6/10
0.004166353,5.234736817,10.03933445,20.64701005,30.31202809,-0.666644953,2017/6/10
0.411697392,5.210554337,10.03154759,20.89489114,30.73198338,-0.058036927,2017/6/10
0.965719473,5.469534046,10.46647075,20.14601529,30.4760246,-0.709211667,2017/6/10
0.782872422,5.225835607,10.02283381,20.99455185,30.19203401,-0.53517997,2017/6/10
0.231067692,5.967782199,10.51732411,20.53269834,30.98345941,-0.641421395,2017/6/10
0.290041025,5.400736932,10.73692669,20.05754921,30.4412841,-0.345936759,2017/6/10
0.30025256,5.229311965,10.13162471,20.10402439,30.67415545,-0.775268798,2017/6/10
0.286673895,5.820299832,10.88026088,20.90384215,30.86453449,-0.49313068,2017/6/10
0.932895925,5.73928769,10.92054705,20.8965584,30.80888006,-0.667751761,2017/6/10
0.487234833,5.508611679,10.94773623,20.37968322,30.15992582,-0.889613725,2017/6/10
0.12426987,5.688899601,10.75318394,20.83550064,30.12852531,-0.479963969,2017/6/10
0.084403066,5.1648033,10.67564123,20.02859165,30.81982426,-0.062921071,2017/6/10
0.286742366,5.881201527,10.16607596,20.77177585,30.45728161,-0.458797133,2017/6/10
0.430669823,5.844122247,10.43112106,20.30113564,30.81458889,-0.214370283,2017/6/10
0.404326182,5.616300894,10.04535591,20.81456802,30.94874479,-0.617371402,2017/6/10
0.762178119,5.391365236,10.76120789,20.24778484,30.50479592,-0.128128134,2017/6/10
0.169931515,5.722578109,10.46379138,20.81483442,30.96967699,-0.134400913,2017/6/10
0.922836892,5.674154628,10.01783808,20.75253779,30.55806406,-0.835262418,2017/6/10
0.914943604,5.482996509,10.23796949,20.25575933,30.67875963,-0.076327053,2017/6/10
0.577709171,5.98336707,10.64264597,20.60788575,30.21727648,-0.275155037,2017/6/10
0.604171377,5.807968714,10.69059801,20.63534908,30.3624078,-0.292014115,2017/6/10
0.891377049,5.354600981,10.31509418,20.15825338,30.02587769,-0.749350441,2017/6/10
0.797641023,5.441439757,10.51328273,20.49502325,30.52974097,-0.264248507,2017/6/10
0.288317721,5.427669757,10.37641477,20.10357741,30.77745565,-0.085755113,2017/6/10
0.187248498,5.788150597,10.2688903,20.1534488,30.40407969,-0.168975605,2017/6/10
0.18687178,5.250903619,10.3092658,20.85986572,30.10556684,-0.416610754,2017/6/10
0.349837651,5.264173917,10.34033491,20.73814504,30.19790065,-0.720175175,2017/6/10
0.864913767,5.485639267,10.49921078,20.23876134,30.32642452,-0.834546039,2017/6/10
0.054825685,5.788321519,10.94395893,20.81706991,30.21301693,-0.830956873,2017/6/10
0.701015793,5.088336009,10.23448394,20.96690246,30.19929915,-0.529372559,2017/6/10
0.587980838,5.627731142,10.7384031,20.92790274,30.00968192,-0.773625718,2017/6/10
0.908531507,5.506403753,10.95483111,20.98683158,30.97128733,-0.464953629,2017/6/10
0.567737109,5.214181161,10.9910446,20.861531,30.05236188,-0.34337621,2017/6/10
0.858096729,5.191809052,10.69640019,20.37533784,30.23184328,-0.937132067,2017/6/10
0.209206251,5.679155226,10.85356099,20.8668857,30.17069552,-0.472748774,2017/6/10
0.842489726,5.827014009,10.11532748,20.76184516,30.68560832,-0.560279119,2017/6/10
0.771205761,5.281455765,10.34634538,20.16141425,30.24365768,-0.138801919,2017/6/10
0.351938376,5.730399709,10.10512502,20.96591203,30.74078828,-0.850353355,2017/6/10
0.598069912,5.179768065,10.45061295,20.84427827,30.98159068,-0.569495001,2017/6/10
0.067757528,5.41238303,10.83415138,20.94482636,30.226505,-0.003455013,2017/6/10
0.563632685,5.773266498,10.5237527,20.66870808,30.11444671,-0.761121635,2017/6/10
0.367777587,5.069950784,10.45128018,20.22698219,30.45300508,-0.574359364,2017/6/10
0.689421609,5.043668917,10.39424001,20.7217615,30.29906384,-0.704978761,2017/6/10
0.496988849,5.429076722,10.98610616,20.83116966,30.21747179,-0.215585205,2017/6/10
0.464405527,5.310663683,10.67749315,20.64200342,30.60171923,-0.305955962,2017/6/10
0.471445165,5.78212004,10.18656985,20.71552642,30.6851544,-0.093344952,2017/6/10
0.161338363,5.382731117,10.04616978,20.10532804,30.61013219,-0.778260285,2017/6/10
0.821963114,5.442825414,10.17260531,20.93328456,30.66085735,-0.692259482,2017/6/10
0.050317097,5.615932347,10.27732584,20.50223268,30.78268066,-0.205259143,2017/6/10
0.977572916,5.786316861,10.64267742,20.66215852,30.45706761,-0.781286646,2017/6/10
0.0061881,5.563033652,10.98046503,20.95596156,30.95350375,-0.321248111,2017/6/10
0.967136859,5.625190534,10.5654742,20.66190231,30.27034626,-0.337158106,2017/6/10
0.027921754,5.191816125,10.43595083,20.88293179,30.86660173,-0.228609719,2017/6/10
0.48521265,5.465500333,10.93634616,20.78766797,30.3329983,-0.040908939,2017/6/10
0.017030057,5.294258865,10.05251999,20.21757106,30.7874311,-0.531525098,2017/6/10
0.728793509,5.404592028,10.66705653,20.0718411,30.233469,-0.062129176,2017/6/10
0.447092494,5.412140466,10.54074066,20.39617881,30.61679663,-0.444219701,2017/6/10
0.731471237,5.298490143,10.22128147,20.29491229,30.40717842,-0.783314935,2017/6/10
0.807114078,5.794981875,10.13691509,20.9954422,30.5619524,-0.27350657,2017/6/10
0.347271123,5.339848216,10.24805136,20.162612,30.77551641,-0.600179366,2017/6/10
0.544289175,5.030310274,10.070003,20.23744915,30.61671291,-0.422687617,2017/6/10
0.659526269,5.769220623,10.84993634,20.83016482,30.19895466,-0.356548768,2017/6/10
0.242740917,5.628391822,10.92942585,20.83376148,30.96984202,-0.237166665,2017/6/10
0.521208068,5.132167271,10.9247975,20.00441325,30.46718686,-0.855024586,2017/6/10
0.84378119,5.38007587,10.53249019,20.7293001,30.63481446,-0.45666868,2017/6/10
0.455270338,5.175349731,10.79449505,20.73200513,30.37124649,-0.10248052,2017/6/10
0.640733298,5.487443614,10.07221822,20.78746659,30.93024455,-0.926079904,2017/6/10
0.984011349,5.819910838,10.80520256,20.59662113,30.12458069,-0.952242531,2017/6/10
0.28034519,5.382696377,10.05408481,20.8183664,30.15836651,-0.322400161,2017/6/10
0.552942594,5.731002368,10.79953349,20.74878966,30.42918515,-0.158428657,2017/6/10
0.343543376,5.133531768,10.69832589,20.81902787,30.42856207,-0.394026425,2017/6/10
0.976734143,5.571940653,10.20219053,20.55886704,30.2197638,-0.287351824,2017/6/10
0.772245612,5.329424696,10.689713,20.27120216,30.03511625,-0.289708951,2017/6/10
0.597649464,5.462951745,10.45934557,20.99125749,30.32394117,-0.136845981,2017/6/10
0.312418053,5.434889317,10.65756782,20.4278722,30.45663477,-0.892444536,2017/6/10
0.467530465,5.934853229,10.83590786,20.56066488,30.74715383,-0.739528687,2017/6/10
0.116739568,5.310913585,10.71247377,20.86319168,30.71005536,-0.495915823,2017/6/10
0.102850805,5.015258138,10.44836075,20.99243667,30.00228381,-0.899943153,2017/6/10
0.553701647,5.026085316,10.64665277,20.37672567,30.95669325,-0.150183369,2017/6/10
0.045314069,5.344525539,10.11134574,20.83571092,30.41370406,-0.898309147,2017/6/10
0.823057015,5.336519881,10.85596948,20.33272993,30.72952626,-0.994238209,2017/6/10
0.723819028,5.862027061,10.62023592,20.42181152,30.7874821,-0.251656829,2017/6/10
0.848618923,5.096193119,10.67736202,20.04065395,30.93330635,-0.672449314,2017/6/10
0.425690199,5.299901841,10.77875353,20.55416974,30.88921854,-0.801773502,2017/6/10
0.522974851,5.714160148,10.69308611,20.42062195,30.70882272,-0.34459359,2017/6/10
0.991145204,5.658724505,10.19523991,20.6306834,30.88310809,-0.775870035,2017/6/10
0.043214163,5.911705829,10.17737404,20.32197062,30.87145366,-0.506718876,2017/6/10
0.845560925,5.237386053,10.11893498,20.96274156,30.20058316,-0.244365269,2017/6/10
0.758473479,5.358415234,10.49712479,20.68614938,30.63319349,-0.401141834,2017/6/10
0.288697598,5.606084247,10.0000388,20.11399977,30.76910346,-0.983367903,2017/6/10
0.356678765,5.942350037,10.53599311,20.44518025,30.42055743,-0.804988729,2017/6/10
0.739972376,5.824857543,10.03438989,20.19902748,30.85072951,-0.209120712,2017/6/10
0.784860963,5.823463581,10.77160723,20.87151029,30.14122154,-0.096745077,2017/6/10
0.61939614,5.388869128,10.78876411,20.42859324,30.38970335,-0.317133985,2017/6/10
0.772993192,5.95480205,10.00530886,20.22972746,30.94982572,-0.558551031,2017/6/10
0.255698321,5.840301927,10.65358563,20.09718685,30.15474005,-0.961753255,2017/6/10
0.399105207,5.833519417,10.80793468,20.13211182,30.26376789,-0.048878448,2017/6/10
0.355721091,5.898533017,10.08550051,20.38404229,30.56833458,-0.991065628,2017/6/10
0.677661985,5.219274731,10.22183835,20.54441617,30.07465124,-0.607445735,2017/6/10
0.250229598,5.026170348,10.2525078,20.76129668,30.98431406,-0.415544892,2017/6/10
0.765645838,5.924048396,10.0912604,20.15035032,30.71099322,-0.227910381,2017/6/10
0.554268003,5.405030451,10.85941154,20.6199543,30.04512367,-0.879269052,2017/6/10
0.710945204,5.554354995,10.55023016,20.00812183,30.58928698,-0.232916172,2017/6/10
0.78611012,5.364901767,10.66635398,20.492999,30.71316109,-0.996647363,2017/6/10
0.004846262,5.304870403,10.39306788,20.59313641,30.64819348,-0.123907526,2017/6/10
0.701288326,5.055322587,10.40158769,20.97203404,30.87342295,-0.146430504,2017/6/10
0.83358515,5.523191793,10.61756442,20.91356714,30.68531299,-0.605995464,2017/6/10
0.093931933,5.310468874,10.16215498,20.89947987,30.09142664,-0.853958735,2017/6/10
0.776428216,5.653931155,10.28251628,20.50117941,30.82337464,-0.604732986,2017/6/10
0.379494564,5.873757307,10.21838599,20.15756445,30.39553752,-0.909845125,2017/6/10
0.8977929,5.626301363,10.51832653,20.2726305,30.32876359,-0.925014523,2017/6/10
0.619620803,5.398226759,10.37173337,20.17740021,30.04644621,-0.454077974,2017/6/10
0.597258944,5.527319435,10.57482028,20.59850909,30.18098233,-0.016498421,2017/6/10
0.306227281,5.604711988,10.80153876,20.18404638,30.45507082,-0.15903577,2017/6/10
0.645390762,5.55698593,10.72081669,20.92411378,30.90414501,-0.735463975,2017/6/10
0.709254786,5.932617289,10.33908173,20.44102876,30.85313332,-0.969975038,2017/6/10
0.384715523,5.380608459,10.92134521,20.73385186,30.58163605,-0.658675413,2017/6/10
0.083985612,5.522014379,10.31056961,20.08057112,30.78892732,-0.367360296,2017/6/10
0.087477018,5.976455395,10.3657632,20.80714399,30.7842574,-0.479144563,2017/6/10
0.277799685,5.305442374,10.26761046,20.13607305,30.89474283,-0.660554386,2017/6/10
0.816512312,5.611947145,10.68589858,20.09264751,30.27793966,-0.450870306,2017/6/10
0.741869346,5.818513869,10.25550729,20.59365649,30.27759554,-0.619816831,2017/6/10
0.616804723,5.705678236,10.09498217,20.29527374,30.31798107,-0.080839062,2017/6/10
0.37665424,5.291000058,10.83275844,20.36038623,30.0387905,-0.525967665,2017/6/10
0.242247127,5.640920438,10.54806588,20.13090899,30.31337725,-0.603818142,2017/6/10
0.043325074,5.363903798,10.71013452,20.95783245,30.02682538,-0.44346505,2017/6/10
0.597251013,5.202506723,10.60614384,20.442949,30.99022203,-0.938312211,2017/6/10
0.039319904,5.211207704,10.03321161,20.1217088,30.28747751,-0.539153172,2017/6/10
0.479333732,5.902282389,10.64984994,20.17088526,30.38364301,-0.526985582,2017/6/10
0.203746161,5.693700953,10.10154362,20.5814764,30.10641666,-0.404301423,2017/6/10
0.518397251,5.922551535,10.29539792,20.13869113,30.87761604,-0.009385741,2017/6/10
0.605959422,5.216309453,10.16297661,20.93324971,30.18814277,-0.331792194,2017/6/10
0.435425321,5.489048003,10.69405065,20.50145266,30.71086026,-0.544275754,2017/6/10
0.362301348,5.635498418,10.90572886,20.12058332,30.25636961,-0.03880801,2017/6/10
0.033331167,5.988191324,10.79826577,20.67757834,30.24778007,-0.864488218,2017/6/10
0.607624891,5.268563993,10.15851481,20.08847997,30.52286451,-0.984891513,2017/6/10
0.802086954,5.028322918,10.0899625,20.59492569,30.69168099,-0.653337316,2017/6/10
0.730653137,5.887348604,10.10858631,20.25766682,30.56791912,-0.084733123,2017/6/10
0.64622169,5.067807897,10.89659094,20.25692708,30.36875404,-0.443759715,2017/6/10
0.72175794,5.991389078,10.61088763,20.99313719,30.84753914,-0.66125914,2017/6/10
0.644850707,5.513564137,10.56625254,20.66646768,30.96230906,-0.046263336,2017/6/10
0.431577943,5.242894732,10.69975681,20.19742983,30.18341026,-0.415913837,2017/6/10
0.758887016,5.514319756,10.62390293,20.99285245,30.48586176,-0.436487302,2017/6/10
0.479829204,5.120879589,10.21668702,20.08799424,30.75508877,-0.813237031,2017/6/10
0.479668964,5.926658347,10.38245629,20.31218115,30.58196698,-0.556561852,2017/6/10
0.659736785,5.939881919,10.33803486,20.53580144,30.84336208,-0.881605104,2017/6/10
0.354722883,5.996331385,10.42330984,20.13321403,30.74715321,-0.276083164,2017/6/10
0.230178608,5.904918531,10.02208361,20.11532967,30.87563142,-0.085137066,2017/6/10
0.173338984,5.584702329,10.18062324,20.62248906,30.22732407,-0.744698294,2017/6/10
0.633955913,5.493995984,10.59497399,20.05114013,30.61340669,-0.514183735,2017/6/10
0.737402824,5.546978478,10.41870614,20.94483624,30.13728962,-0.73986867,2017/6/10
0.60856741,5.110311178,10.68435175,20.33604547,30.60366263,-0.702426378,2017/6/10
0.506995303,5.842349357,10.80892303,20.01396775,30.05376038,-0.766954271,2017/6/10
0.83640812,5.246361992,10.91437476,20.13383322,30.88820126,-0.281054242,2017/6/10
0.000825084,5.651468962,10.15603646,20.59614107,30.86419089,-0.527249172,2017/6/10
0.534870095,5.770510875,10.9385353,20.74715268,30.27121932,-0.886998653,2017/6/10
0.251121626,5.197916736,10.38467094,20.87484507,30.33855733,-0.393695976,2017/6/10
0.389410193,5.741209625,10.68351993,20.70530721,30.3117218,-0.342634431,2017/6/10
0.166863592,5.07667363,10.39616294,20.53647403,30.2634504,-0.254723658,2017/6/10
0.736053144,5.401834905,10.05479209,20.28849269,30.56159486,-0.385310899,2017/6/10
0.704853956,5.427384393,10.49006988,20.86915267,30.28482152,-0.251202107,2017/6/10
0.25477961,5.137969643,10.91546266,20.36323049,30.56808807,-0.843504263,2017/6/10
0.116406628,5.420062317,10.97640362,20.52104132,30.50961073,-0.122005246,2017/6/10
0.667919937,5.872756636,10.21203311,20.34529832,30.00098213,-0.47465273,2017/6/10
0.088054032,5.683895198,10.64620824,20.20963437,30.39048696,-0.072134559,2017/6/10
0.277655428,5.469952879,10.04786557,20.81881548,30.75593,-0.40827033,2017/6/10
0.098862929,5.779061279,10.48115511,20.520332,30.76624859,-0.309498183,2017/6/10
0.812669387,5.255957816,10.97414833,20.67564527,30.02102311,-0.644424136,2017/6/10
0.030561096,5.629530915,10.93154822,20.20447602,30.5691244,-0.119635473,2017/6/10
0.048127414,5.542746369,10.58302093,20.26393026,30.47191843,-0.369411884,2017/6/10
0.805306924,5.766837552,10.32939541,20.02383407,30.91990437,-0.185541186,2017/6/10
0.836886942,5.190084257,10.27321453,20.91823741,30.44959261,-0.259031904,2017/6/10
0.200629105,5.55723855,10.01918383,20.42510797,30.93525502,-0.835131334,2017/6/10
0.06312096,5.324387628,10.06829252,20.07009072,30.90747113,-0.071848954,2017/6/10
0.212897825,5.483325021,10.632753,20.73717106,30.66688844,-0.133717231,2017/6/10
0.849113505,5.697954541,10.24842645,20.06556151,30.85212088,-0.503084502,2017/6/10
0.881358001,5.811122942,10.82379461,20.00254584,30.94055055,-0.782238209,2017/6/10
0.64155081,5.416607118,10.64988629,20.99660867,30.58728277,-0.633170954,2017/6/10
0.172008814,5.754030041,10.58540597,20.33767546,30.42167424,-0.05401487,2017/6/10
0.033870387,5.891899015,10.6507407,20.44351284,30.58787996,-0.482295717,2017/6/10
0.564721733,5.960558754,10.5432055,20.84981381,30.52166346,-0.955966712,2017/6/10
0.918569026,5.017293791,10.06175455,20.20377649,30.75360457,-0.749708492,2017/6/10
0.74575864,5.155325068,10.25691318,20.02362767,30.80429414,-0.51698753,2017/6/10
0.351593558,5.705190448,10.2258677,20.46783936,30.40343816,-0.476598126,2017/6/10
0.941854052,5.169704141,10.17019553,20.95527803,30.46508395,-0.602172254,2017/6/10
0.677353718,5.027698961,10.75822665,20.89395605,30.68473422,-0.508339321,2017/6/10
0.526065296,5.450468192,10.23218121,20.78056214,30.58996654,-0.719469017,2017/6/10
0.072300396,5.45499539,10.21569781,20.89020429,30.74025501,-0.877468037,2017/6/10
0.887050839,5.126884398,10.07003838,20.57521567,30.37690095,-0.988847217,2017/6/10
0.1387166,5.782810298,10.37823158,20.20502078,30.70883293,-0.343093837,2017/6/10
0.373940049,5.945739585,10.02251046,20.23160955,30.26438305,-0.576662904,2017/6/10
0.95908049,5.463034267,10.68448146,20.31004285,30.76490635,-0.135746441,2017/6/10
0.540567349,5.602249879,10.75451306,20.94873067,30.23901469,-0.650961624,2017/6/10
0.183743597,5.992343601,10.86935967,20.67859578,30.82214617,-0.999168313,2017/6/10
0.38211141,5.078108819,10.42846544,20.77033441,30.95380763,-0.712137805,2017/6/10
0.969663749,5.767505868,10.71878498,20.51228077,30.7425558,-0.358468946,2017/6/10
0.061535937,5.54525949,10.03886248,20.35980771,30.5629674,-0.502311684,2017/6/10
0.815985818,5.670111344,10.05193525,20.51650694,30.55659942,-0.554826724,2017/6/10
0.555512541,5.77858599,10.07125413,20.7233743,30.93825736,-0.60287639,2017/6/10
0.251420602,5.678114561,10.95139708,20.82080784,30.12924668,-0.542313551,2017/6/10
0.309348384,5.728957323,10.13001794,20.36685502,30.03930707,-0.378902572,2017/6/10
0.432292874,5.330503981,10.77756414,20.5209813,30.02646776,-0.206159463,2017/6/10
0.410608786,5.983820169,10.64547503,20.0906306,30.08713228,-0.799607463,2017/6/10
0.539405114,5.234689927,10.19997182,20.19619278,30.32964054,-0.070269442,2017/6/10
0.101178837,5.274333821,10.99502176,20.99895505,30.26533327,-0.862064101,2017/6/10
0.96145031,5.383410905,10.11586796,20.89926266,30.34054425,-0.049069223,2017/6/10
0.722310506,5.421239511,10.82676162,20.24137113,30.66627797,-0.334800641,2017/6/10
0.646019355,5.103736115,10.09002143,20.8684528,30.25686553,-0.826204776,2017/6/10
0.20760837,5.065242169,10.19815314,20.37954542,30.54543829,-0.541338589,2017/6/10
0.237657206,5.413043736,10.03440305,20.09209691,30.76424071,-0.417597331,2017/6/10
0.438140817,5.96768082,10.97943786,20.93417659,30.48273925,-0.181504481,2017/6/10
0.955197287,5.439027143,10.71710031,20.25581476,30.22635752,-0.649980471,2017/6/10
0.367821189,5.809164287,10.0863844,20.50409692,30.9877649,-0.753832486,2017/6/10
0.834283537,5.730695081,10.02029433,20.95140263,30.66016187,-0.480654423,2017/6/10
0.844999259,5.154965883,10.90897458,20.96132352,30.89671368,-0.450809483,2017/6/10
0.045177592,5.510907464,10.4582828,20.88098946,30.35744719,-0.463819073,2017/6/10
0.916364813,5.061935247,10.66246586,20.94267374,30.82620659,-0.525806331,2017/6/10
0.793409066,5.454740536,10.36154772,20.71743585,30.77682927,-0.836747968,2017/6/10
0.947369402,5.216222871,10.903231,20.44754978,30.88564603,-0.856253858,2017/6/10
0.458213399,5.253428059,10.502427,20.50915558,30.05641922,-0.240076034,2017/6/10
0.120380049,5.097708339,10.6325766,20.83256068,30.02077455,-0.369426355,2017/6/10
0.950930046,5.832880192,10.16118686,20.13006446,30.71538987,-0.550127751,2017/6/10
0.356295135,5.960992656,10.99702556,20.12565782,30.58244645,-0.207995919,2017/6/10
0.88181707,5.64180108,10.07560676,20.91315417,30.67623705,-0.247164844,2017/6/10
0.547230521,5.526239023,10.65669101,20.22868118,30.20817674,-0.540043858,2017/6/10
0.232483573,5.313596713,10.8789128,20.61996712,30.96309805,-0.175367625,2017/6/10
0.799619228,5.47664083,10.65679784,20.13123376,30.45191946,-0.051606172,2017/6/10
0.455773333,5.967590064,10.02603455,20.00164731,30.29386138,-0.329674881,2017/6/10
0.639134199,5.701984284,10.05611142,20.67286515,30.31584206,-0.483017958,2017/6/10
0.960467474,5.509491527,10.40422123,20.55115196,30.20343279,-0.709208129,2017/6/10
0.610624957,5.733165789,10.41921894,20.15001985,30.52434538,-0.393735402,2017/6/10
0.533194142,5.529303272,10.12241398,20.25979023,30.30503325,-0.869963049,2017/6/10
0.176942771,5.85367954,10.3622098,20.2179049,30.29544403,-0.990086018,2017/6/10
0.656583963,5.344216076,10.7169636,20.59115669,30.44472133,-0.648353027,2017/6/10
0.310520563,5.530318695,10.57322673,20.7473739,30.74057848,-0.627054211,2017/6/10
0.500942086,5.230653194,10.7813193,20.23455284,30.11134963,-0.754759102,2017/6/10
0.993876869,5.305445437,10.96331475,20.80532426,30.71807345,-0.427627843,2017/6/10
0.349190039,5.978351145,10.24886393,20.50532032,30.08218979,-0.094331231,2017/6/10
0.436032926,5.377325173,10.5577403,20.080524,30.37081728,-0.93583191,2017/6/10
0.905109193,5.492529054,10.91345147,20.13059651,30.54207466,-0.251009814,2017/6/10
0.171192573,5.68718061,10.31871208,20.14089803,30.17612818,-0.596063294,2017/6/10
0.024634045,5.177609084,10.71446284,20.25553839,30.97044775,-0.654393172,2017/6/10
0.888213123,5.544309152,10.93927486,20.57486382,30.02041781,-0.02561118,2017/6/10
0.084890657,5.964457298,10.72069016,20.57650743,30.85814766,-0.859937354,2017/6/10
0.50406354,5.851131415,10.49919945,20.37695473,30.6447818,-0.953779112,2017/6/10
0.293528138,5.52229936,10.45371543,20.24300427,30.73378867,-0.44521292,2017/6/10
0.497474231,5.447969743,10.22930716,20.86196323,30.17170703,-0.333937257,2017/6/10
0.148613265,5.799934955,10.18126134,20.53774098,30.62814679,-0.537271973,2017/6/10
0.923393787,5.403609073,10.9989429,20.41014521,30.59887377,-0.180104869,2017/6/10
0.223087463,5.537805744,10.50822538,20.4562383,30.66118266,-0.325557342,2017/6/10
0.696192058,5.90191901,10.49520634,20.16501303,30.00962868,-0.177249012,2017/6/10
0.550313489,5.345259961,10.37141021,20.13811304,30.0834769,-0.216177364,2017/6/10
0.155612116,5.696683416,10.62649271,20.57097084,30.96440187,-0.053298529,2017/6/10
0.929174805,5.061607786,10.16596143,20.89740493,30.85598408,-0.070406367,2017/6/10
0.988299127,5.170322853,10.42008709,20.46144482,30.28076099,-0.74452225,2017/6/10
0.420881237,5.499048397,10.96205995,20.54599829,30.43731723,-0.438436833,2017/6/10
0.771130033,5.574998338,10.94835435,20.15344643,30.72169213,-0.319990458,2017/6/10
0.922959351,5.157328811,10.04243007,20.32968223,30.45907681,-0.055719703,2017/6/10
0.262444769,5.708670354,10.54868984,20.92304316,30.42637044,-0.871917222,2017/6/10
0.913541126,5.670670484,10.23396717,20.7334388,30.90877713,-0.612622054,2017/6/10
0.864053866,5.886915136,10.38771131,20.22905962,30.84235988,-0.644574556,2017/6/10
0.055357578,5.928731503,10.7751136,20.01430022,30.88474312,-0.735372055,2017/6/10
0.991432691,5.772775306,10.67369155,20.33322772,30.67506933,-0.982442535,2017/6/10
0.229441716,5.897800198,10.71793466,20.67844128,30.2732648,-0.721947899,2017/6/10
0.593790647,5.814707235,10.21610901,20.95456335,30.70915434,-0.092661903,2017/6/10
0.16475354,5.153252553,10.88004704,20.50752452,30.94621302,-0.400201463,2017/6/10
0.071543428,5.883962095,10.33309663,20.5738049,30.49297702,-0.115881376,2017/6/10
0.05134452,5.021514647,10.83516076,20.33781832,30.50002374,-0.524900347,2017/6/10
0.919367868,5.499535322,10.34436639,20.95722602,30.87427338,-0.921318119,2017/6/10
0.310836956,5.902516168,10.03319948,20.34336882,30.40528913,-0.342059259,2017/6/10
0.149834057,5.391792769,10.10997288,20.12375779,30.19492846,-0.203099241,2017/6/10
0.660477671,5.574827475,10.87603604,20.51863312,30.05625675,-0.33034002,2017/6/10
0.541428736,5.624611044,10.43959598,20.55444796,30.23760116,-0.167672435,2017/6/10
0.081599185,5.380198194,10.94001639,20.25053419,30.36179705,-0.677848974,2017/6/10
0.534911417,5.672294699,10.59450911,20.26171353,30.36620315,-0.231845291,2017/6/10
0.247182758,5.113625208,10.33581239,20.83830403,30.59347725,-0.219862489,2017/6/10
0.730633236,5.444884177,10.30117784,20.44011125,30.28156609,-0.169839312,2017/6/10
0.473138622,5.246319261,10.78727738,20.17379338,30.43287979,-0.760837984,2017/6/10
0.71854368,5.890575475,10.41983813,20.20297577,30.16051855,-0.481649574,2017/6/10
0.738790135,5.419887256,10.54902447,20.4538324,30.51575709,-0.326443368,2017/6/10
0.44602134,5.480514281,10.57856547,20.16597968,30.62388311,-0.758759577,2017/6/10
0.945712793,5.938089157,10.56912813,20.8521148,30.93580523,-0.074818059,2017/6/10
0.006924911,5.590209079,10.1293989,20.46301544,30.06986952,-0.95311182,2017/6/10
0.467686686,5.713776977,10.05852723,20.03488523,30.61680898,-0.293056994,2017/6/10
0.350886648,5.940446778,10.47971454,20.04876271,30.56262322,-0.274713251,2017/6/10
0.290175024,5.834066517,10.62047899,20.25459417,30.70646457,-0.287003269,2017/6/10
0.581124746,5.252867357,10.68573294,20.48795578,30.9770922,-0.813766687,2017/6/10
0.301093037,5.838033591,10.82358283,20.27651169,30.00178102,-0.074078412,2017/6/10
0.404607893,5.180433515,10.31136148,20.24332865,30.0066571,-0.243424433,2017/6/10
0.706736634,5.531698816,10.33297582,20.80272398,30.92339073,-0.155765089,2017/6/10
0.539429773,5.812569715,10.29428856,20.290318,30.11569098,-0.660664746,2017/6/10
0.074355773,5.387357915,10.37907193,20.14605778,30.89911347,-0.476430948,2017/6/10
0.160529076,5.464896988,10.65510512,20.98616395,30.14252054,-0.578193349,2017/6/10
0.613842858,5.011182894,10.5506965,20.19827556,30.15277494,-0.028896261,2017/6/10
0.116841984,5.458173726,10.66590058,20.77998417,30.93491505,-0.613521508,2017/6/10
0.047328395,5.95775031,10.23191727,20.68300068,30.26438666,-0.182788608,2017/6/10
0.350536691,5.021223727,10.30393303,20.68783317,30.20486067,-0.618131618,2017/6/10
0.585409241,5.987969995,10.97560873,20.36467205,30.18111877,-0.391234025,2017/6/10
0.181865934,5.082587364,10.79806618,20.58128393,30.26775312,-0.908380641,2017/6/10
0.530230826,5.382971916,10.49395288,20.44686842,30.1421305,-0.16219586,2017/6/10
0.369519912,5.290057003,10.66640847,20.71217512,30.98417635,-0.046371817,2017/6/10
0.434178649,5.049554589,10.11949723,20.56394218,30.91601451,-0.072310562,2017/6/10
0.491358455,5.5129106,10.53717121,20.52068371,30.01218417,-0.745050177,2017/6/10
0.668954622,5.983078626,10.77235985,20.6829029,30.43131079,-0.181949383,2017/6/10
0.266884552,5.418757088,10.24314081,20.65956279,30.02590803,-0.567516544,2017/6/10
0.51923937,5.011606605,10.32426948,20.03228099,30.69237262,-0.665122303,2017/6/10
0.197259392,5.873801449,10.76718937,20.93662872,30.13106348,-0.250683841,2017/6/10
0.68645253,5.507236708,10.78713007,20.75452845,30.21803901,-0.929659224,2017/6/10
0.4615584,5.2934606,10.21338062,20.71313518,30.27621828,-0.865471159,2017/6/10
0.979150843,5.702884261,10.04659283,20.9172581,30.70678913,-0.386755623,2017/6/10
0.776741765,5.01974328,10.61844823,20.85440308,30.24800496,-0.185859146,2017/6/10
0.102388482,5.647790132,10.0510193,20.1979378,30.39704364,-0.077758696,2017/6/10
0.189978902,5.790945837,10.02357376,20.36438671,30.8860061,-0.721538798,2017/6/10
0.210166846,5.453245179,10.09234033,20.65629596,30.48075817,-0.679139047,2017/6/10
0.965293933,5.317440522,10.20985107,20.18523986,30.00931077,-0.690974189,2017/6/10
0.146814746,5.422659298,10.56948134,20.83529512,30.28624415,-0.136988493,2017/6/10
0.901549688,5.490720122,10.0028002,20.01740596,30.33404773,-0.654945957,2017/6/10
0.297004138,5.334363452,10.51569266,20.59627192,30.98863836,-0.482951139,2017/6/10
0.904197738,5.215808889,10.8090202,20.78612704,30.90746467,-0.504922388,2017/6/10
0.786259929,5.775382907,10.18734131,20.53776872,30.09070671,-0.135520927,2017/6/10
0.254475308,5.329952136,10.73664671,20.98438872,30.29642707,-0.037872461,2017/6/10
0.932165457,5.416416868,10.72992009,20.95414178,30.92210123,-0.295188994,2017/6/10
0.010302614,5.051111643,10.473976,20.64815598,30.55070565,-0.346563699,2017/6/10
0.416481209,5.979238543,10.8313854,20.84249411,30.8134742,-0.632911827,2017/6/10
0.739455073,5.810684236,10.44264266,20.35264217,30.94871093,-0.056872327,2017/6/10
0.540178758,5.226717424,10.01407792,20.42032289,30.27819215,-0.676798974,2017/6/10
0.720310708,5.61832282,10.05116191,20.08546717,30.56015201,-0.407225875,2017/6/10
0.191903455,5.772388604,10.97280947,20.9957422,30.32961201,-0.66227722,2017/6/10
0.659676924,5.943351706,10.75118736,20.07058483,30.94536287,-0.534668334,2017/6/10
0.452765953,5.428920789,10.86609774,20.38075159,30.7700037,-0.892302245,2017/6/10
0.011771228,5.473686933,10.16608403,20.02144788,30.04218857,-0.064596419,2017/6/10
0.305411897,5.191150848,10.33012206,20.50972326,30.47817635,-0.690540757,2017/6/10
0.53197921,5.785985566,10.5125033,20.77007163,30.60447121,-0.629759232,2017/6/10
0.495083496,5.297568098,10.65428985,20.99910533,30.32555473,-0.185457611,2017/6/10
0.707968643,5.286514041,10.94487544,20.86245366,30.20547856,-0.86432218,2017/6/10
0.612714336,5.284424552,10.17368861,20.43401065,30.43231112,-0.180104882,2017/6/10
0.759907194,5.325635469,10.3819248,20.06312778,30.08445935,-0.414154604,2017/6/10
0.517464885,5.048694642,10.51583875,20.68573918,30.46134597,-0.361320702,2017/6/10
0.047278364,5.552102805,10.85229928,20.62398536,30.07332769,-0.070013091,2017/6/10
0.182967112,5.441284707,10.49558749,20.19497029,30.99635129,-0.454954445,2017/6/10
0.066265225,5.738531645,10.92279391,20.95840432,30.99828906,-0.011536916,2017/6/10
0.095605674,5.831392167,10.52100591,20.7769272,30.35428612,-0.728244244,2017/6/10
0.3753482,5.315160906,10.93219391,20.49636147,30.51972263,-0.205438509,2017/6/10
0.414786776,5.029798315,10.04919187,20.28502046,30.11058435,-0.294735194,2017/6/10
0.806232393,5.208185307,10.08265927,20.78311066,30.14076184,-0.756524496,2017/6/10
0.821721331,5.310168501,10.16706915,20.02996669,30.07889803,-0.097219165,2017/6/10
0.040154397,5.615763827,10.53306517,20.15616264,30.29010488,-0.39897213,2017/6/10
0.200102442,5.3825438,10.76509556,20.1939217,30.86052422,-0.441391203,2017/6/10
0.064167015,5.847674991,10.86585356,20.6331774,30.50749418,-0.437055641,2017/6/10
0.663879234,5.630776264,10.39802403,20.88179029,30.88630632,-0.782685291,2017/6/10
0.269792415,5.786598269,10.57439082,20.91475913,30.37234826,-0.307380808,2017/6/10
0.707133609,5.816525576,10.83465598,20.70158735,30.92678019,-0.265602719,2017/6/10
0.133763755,5.628384702,10.05278327,20.27297055,30.04191685,-0.152860011,2017/6/10
0.395410113,5.156518085,10.04620271,20.24076807,30.93744941,-0.952687591,2017/6/10
0.62730165,5.071745779,10.62786659,20.34582383,30.44930817,-0.680931418,2017/6/10
0.161053848,5.29959379,10.05917018,20.8644479,30.05903712,-0.186983327,2017/6/10
0.2136696,5.490870998,10.85161094,20.76624968,30.82725506,-0.392901061,2017/6/10
0.444845358,5.164411605,10.38451324,20.14047836,30.39988328,-0.957412414,2017/6/10
0.951047151,5.464938805,10.20720483,20.94742975,30.09276131,-0.665578869,2017/6/10
0.383455792,5.120621058,10.99565787,20.57097118,30.84534025,-0.925118713,2017/6/10
0.172290251,5.48211373,10.34559264,20.43975783,30.86933179,-0.56198066,2017/6/10
0.460038129,5.414734961,10.97000604,20.22938958,30.66385555,-0.428139794,2017/6/10
0.562134018,5.483490343,10.28879285,20.83688655,30.78278135,-0.590184116,2017/6/10
0.442992382,5.096851569,10.4336226,20.9693757,30.90370451,-0.049343053,2017/6/10
0.813775208,5.030072561,10.5327594,20.27837847,30.05569771,-0.72095842,2017/6/10
0.56105864,5.337848605,10.45035713,20.30639386,30.55307367,-0.466880483,2017/6/10
0.301911982,5.80348403,10.5463827,20.41310062,30.08718223,-0.846603265,2017/6/10
0.209703066,5.570950984,10.77195011,20.9060221,30.08445931,-0.842081608,2017/6/10
0.713719863,5.247719777,10.60843258,20.74869711,30.98717805,-0.004063526,2017/6/10
0.742799589,5.1669037,10.85168552,20.67724427,30.06041432,-0.321507606,2017/6/10
0.725852884,5.082105529,10.34908864,20.3077217,30.67529564,-0.18096738,2017/6/10
0.027735143,5.288507659,10.57133189,20.47598113,30.6182974,-0.703107969,2017/6/10
0.796326039,5.360311106,10.77611479,20.8196153,30.68251047,-0.995199932,2017/6/10
0.851822033,5.537746323,10.24103106,20.15688479,30.78951571,-0.34958506,2017/6/10
0.037185753,5.140974409,10.37444233,20.97009308,30.74374221,-0.826049843,2017/6/10
0.872570981,5.447797787,10.05642272,20.42460954,30.58966601,-0.292568189,2017/6/10
0.212087864,5.799129176,10.30705891,20.88777998,30.83222441,-0.09078969,2017/6/10
0.598238295,5.079168583,10.22230692,20.19403348,30.05855836,-0.546127855,2017/6/10
0.601036714,5.032475627,10.06624204,20.43187204,30.35769986,-0.168238385,2017/6/10
0.646451475,5.434352049,10.64236811,20.54075591,30.66314281,-0.19632372,2017/6/10
0.205128227,5.736530037,10.6450517,20.13241449,30.51512883,-0.842175311,2017/6/10
0.992479386,5.796433068,10.82024775,20.35085227,30.23692238,-0.874576552,2017/6/10
0.395810118,5.004260938,10.93635528,20.15447417,30.5191317,-0.300801068,2017/6/10
0.363424966,5.668314234,10.5581097,20.20655342,30.55591383,-0.415500078,2017/6/10
0.678308496,5.977926312,10.76519225,20.69814339,30.04568421,-0.714560628,2017/6/10
0.310579783,5.328975246,10.00787239,20.36296886,30.74057384,-0.902337451,2017/6/10
0.349439911,5.305294213,10.46339668,20.12914829,30.20416584,-0.50638947,2017/6/10
0.48319762,5.913202963,10.77850727,20.28798554,30.66186754,-0.745246963,2017/6/10
0.873483017,5.779473227,10.83051606,20.91445176,30.95897176,-0.810121416,2017/6/10
0.862232518,5.840589821,10.46228427,20.64280875,30.12592087,-0.255840754,2017/6/10
0.446736969,5.856300865,10.10654493,20.84696137,30.74008402,-0.589508792,2017/6/10
0.755618492,5.308157025,10.03424768,20.34634228,30.86213567,-0.811870713,2017/6/10
0.97309067,5.400890146,10.76247883,20.39905754,30.69298285,-0.713709967,2017/6/10
0.746307855,5.087473597,10.86458927,20.82907629,30.67337752,-0.413308329,2017/6/10
0.60008366,5.097346582,10.36306638,20.13219241,30.57521024,-0.913724706,2017/6/10
0.159265873,5.083823963,10.9504979,20.65535692,30.54266119,-0.17106774,2017/6/10
0.930181894,5.426586868,10.28886694,20.59793938,30.97349238,-0.738495075,2017/6/10
0.436069128,5.039781358,10.49596591,20.10983996,30.09536386,-0.9355337,2017/6/10
0.590801511,5.938876836,10.75839072,20.195299,30.29307327,-0.992975913,2017/6/10
0.91133571,5.388781764,10.28192163,20.18926737,30.85380801,-0.574438078,2017/6/10
0.144410694,5.98522021,10.12095096,20.75055119,30.91843124,-0.482907976,2017/6/10
0.919581398,5.941134836,10.28791893,20.83415352,30.34869433,-0.95637045,2017/6/10
0.551037138,5.097406873,10.47809496,20.44799021,30.16298081,-0.021401884,2017/6/10
0.990875424,5.559317885,10.53738496,20.3604655,30.66603958,-0.640963758,2017/6/10
0.635678063,5.519322634,10.80357206,20.21909351,30.68207528,-0.178696089,2017/6/10
0.738671122,5.76490099,10.53301082,20.32600807,30.16653921,-0.016144825,2017/6/10
0.922060824,5.446580545,10.21620883,20.53017614,30.48285308,-0.648715147,2017/6/11
0.042146115,5.153154233,10.86435152,20.35953457,30.85184384,-0.067488816,2017/6/12
0.624659173,5.604478808,10.51378932,20.67386844,30.59539201,-0.514161179,2017/6/13
0.024663975,5.124186098,10.63723937,20.21067862,30.61200232,-0.763097762,2017/6/14
0.296479308,5.511586467,10.57039103,20.6308494,30.42936609,-0.800527666,2017/6/15
0.927514787,5.857851601,10.16016691,20.35598855,30.8233523,-0.035284249,2017/6/16
0.954058363,5.801416846,10.94247474,20.5065269,30.23731514,-0.545400168,2017/6/17
0.694246471,5.219749593,10.79278638,20.01971461,30.9042178,-0.668464978,2017/6/18
0.885866237,5.055957457,10.04835196,20.79901184,30.75713486,-0.088446051,2017/6/19
0.193282384,5.913425189,10.76589403,20.18742175,30.48834567,-0.142272282,2017/6/20
0.059404338,5.005102603,10.85137371,20.65773138,30.89041883,-0.383502435,2017/6/21
0.18484295,5.130098259,10.90191976,20.65058772,30.05956026,-0.846418006,2017/6/22
0.688597779,5.38005957,10.20522324,20.99557172,30.31908074,-0.427606989,2017/6/23
0.082174339,5.686220658,10.14950331,20.54902237,30.16009479,-0.669568092,2017/6/24
0.649752084,5.801533636,10.60538192,20.15372949,30.68866228,-0.502798086,2017/6/25
0.770090185,5.584151161,10.00034335,20.14916591,30.27519411,-0.541191339,2017/6/26
0.042696414,5.179206,10.81233592,20.81907748,30.24945593,-0.214076157,2017/6/27
0.657433173,5.568243526,10.82929155,20.20900141,30.65109798,-0.507192745,2017/6/28
0.494740431,5.049102381,10.01653798,20.06130122,30.50228795,-0.840882947,2017/6/29
0.518960779,5.618697196,10.0183816,20.32723275,30.75158551,-0.324798205,2017/6/30
0.739197555,5.959216462,10.30933344,20.09677887,30.49028881,-0.585248939,2017/7/1
0.533391636,5.474968618,10.97921007,20.29526283,30.37414989,-0.918243847,2017/7/2
0.635260136,5.340859903,10.59130082,20.05123205,30.54697273,-0.603806122,2017/7/3
0.334294816,5.345953123,10.06022257,20.3797938,30.71547607,-0.031451653,2017/7/4
0.064320392,5.754558797,10.32281385,20.5968066,30.69977483,-0.919044021,2017/7/5
0.497578185,5.235725244,10.59031327,20.820893,30.3815994,-0.23987007,2017/7/6
0.095763773,5.976267507,10.36694321,20.54625555,30.08727654,-0.973688324,2017/7/7
0.105210244,5.77246679,10.51824069,20.68716754,30.45430683,-0.514913027,2017/7/8
0.785928873,5.118459461,10.06039235,20.01359941,30.84206343,-0.698560854,2017/7/9
0.748531505,5.066727989,10.41396697,20.55624507,30.12643254,-0.349807368,2017/7/10
0.115162285,5.771272482,10.50212378,20.67358061,30.83346274,-0.517345837,2017/7/11
0.179746832,5.500817067,10.12767282,20.41381887,30.30821576,-0.336037535,2017/7/12
0.519149047,5.271606863,10.95151234,20.28103131,30.52015217,-0.643608292,2017/7/13
0.090563967,5.098350341,10.93015952,20.32963986,30.5954738,-0.371331179,2017/7/14
0.925525212,5.956811721,10.40380152,20.960511,30.08476841,-0.901467644,2017/7/15
0.936653746,5.508852484,10.48228719,20.43464408,30.00812547,-0.738144909,2017/7/16
0.889392238,5.354181869,10.12023188,20.82624081,30.94598396,-0.580911058,2017/7/17
0.913870729,5.818229528,10.67198191,20.47997607,30.71083158,-0.0856226,2017/7/18
0.151922083,5.926724558,10.91420856,20.15597664,30.85072681,-0.038334144,2017/7/19
0.373470307,5.602570208,10.26840884,20.32008387,30.37643385,-0.452337197,2017/7/20
0.095976814,5.664605628,10.96608904,20.65963902,30.45285171,-0.224398298,2017/7/21
0.691254611,5.265561412,10.75680573,20.58702863,30.12744035,-0.978790487,2017/7/22
0.730287492,5.819366935,10.77544133,20.95053914,30.40449321,-0.00828486,2017/7/23
0.744964373,5.686950083,10.75792011,20.94030755,30.7541637,-0.220972514,2017/7/24
0.21694227,5.117089979,10.70479135,20.18992926,30.47240372,-0.019356936,2017/7/25
0.770679475,5.265473096,10.44876257,20.27497886,30.06864866,-0.931564933,2017/7/26
0.546403465,5.664851597,10.53054814,20.89050568,30.83168491,-0.538526582,2017/7/27
0.61047477,5.919013921,10.78535734,20.30866556,30.26160465,-0.279767142,2017/7/28
0.637399345,5.44451688,10.00961107,20.06418554,30.02828289,-0.096184702,2017/7/29
0.291732721,5.619204542,10.64087031,20.18645057,30.2524611,-0.961814278,2017/7/30
0.327519622,5.294975153,10.84313449,20.1839191,30.06395383,-0.557022052,2017/7/31
0.972629618,5.413725573,10.96478037,20.98251158,30.09574179,-0.929287972,2017/8/1
0.395958874,5.700189799,10.10417668,20.08451464,30.30914411,-0.803167992,2017/8/2
0.267661059,5.549007285,10.51722962,20.52916118,30.13037038,-0.572750686,2017/8/3
0.335053471,5.943148068,10.4738333,20.73906771,30.64943185,-0.811944845,2017/8/4
0.273499646,5.164039469,10.11918637,20.76390244,30.0080928,-0.976752009,2017/8/5
0.522491671,5.781617058,10.97716426,20.26213348,30.13622856,-0.721800204,2017/8/6
0.841913775,5.81357643,10.15349814,20.10730705,30.20292203,-0.526703081,2017/8/7
0.478367116,5.89346271,10.173229,20.81228538,30.77171816,-0.443438508,2017/8/8
0.595745067,5.922958685,10.33710317,20.3771968,30.34273707,-0.46581766,2017/8/9
0.210190898,5.129216124,10.98565819,20.78141601,30.70691271,-0.302551002,2017/8/10
0.496843272,5.11433106,10.59524618,20.84838532,30.40813171,-0.901042058,2017/8/11
0.714259837,5.513127662,10.00486931,20.47769168,30.19281214,-0.915080102,2017/8/12
0.772741278,5.732995352,10.23000162,20.2715844,30.31188806,-0.220767561,2017/8/13
0.581013844,5.951451838,10.02466228,20.10678842,30.5600662,-0.471921053,2017/8/14
0.557624668,5.533628122,10.44361538,20.19853842,30.53696516,-0.294051049,2017/8/15
0.376102108,5.419373814,10.90498865,20.42201138,30.57773412,-0.247293391,2017/8/16
0.400253462,5.737126115,10.11635647,20.82802577,30.8024076,-0.486730364,2017/8/17
0.1949112,5.393457422,10.43166753,20.50360953,30.62101244,-0.400521784,2017/8/18
0.333931827,5.096509261,10.73123606,20.12605299,30.7102436,-0.417027359,2017/8/19
0.122592681,5.060624723,10.17287371,20.00993888,30.85770196,-0.134183666,2017/8/20
0.92678117,5.283413367,10.35362336,20.86415881,30.57188349,-0.534931771,2017/8/21
0.322224975,5.885909643,10.24474795,20.15323135,30.98742121,-0.997503084,2017/8/22
0.003958002,5.75918994,10.69311403,20.01913312,30.54202387,-0.388352845,2017/8/23
0.022890446,5.993026876,10.17541123,20.38894351,30.8734735,-0.360774664,2017/8/24
0.745788971,5.731779131,10.37993181,20.34199769,30.60870123,-0.093067261,2017/8/25
0.631547584,5.463053651,10.68114856,20.05978923,30.21830416,-0.411410163,2017/8/26
0.709379222,5.528879009,10.97337651,20.91842827,30.29440126,-0.719429498,2017/8/27
0.479814152,5.744989798,10.42323406,20.72381583,30.84128695,-0.582336053,2017/8/28
0.752990088,5.321429657,10.99748,20.4405543,30.81338245,-0.988816346,2017/8/29
0.809415795,5.087652956,10.077926,20.47267429,30.72595979,-0.188043399,2017/8/30
0.823636764,5.25670063,10.95563058,20.2658774,30.62704889,-0.592152742,2017/8/31
0.92090724,5.308537967,10.80842567,20.45293413,30.12272045,-0.601724953,2017/9/1
0.683196599,5.150533222,10.57985434,20.19045884,30.06502384,-0.981028287,2017/9/2
0.006929277,5.042699651,10.16011791,20.37940871,30.00150994,-0.912066246,2017/9/3
0.427902008,5.851153043,10.16752713,20.08030963,30.49715576,-0.040631031,2017/9/4
0.150598801,5.5396686,10.8646308,20.73674634,30.58482399,-0.740094696,2017/9/5
0.713986525,5.049123995,10.99021159,20.66649764,30.60649316,-0.536935119,2017/9/6
0.400625825,5.339857838,10.87796185,20.12186886,30.57059452,-0.163790918,2017/9/7
0.129107111,5.396139132,10.05483132,20.30933465,30.6184035,-0.434718675,2017/9/8
0.514765646,5.368469372,10.25766596,20.12102678,30.59663826,-0.383760035,2017/9/9
0.013994456,5.972936539,10.64024179,20.06360618,30.01331456,-0.896993809,2017/9/10
0.225661491,5.123290718,10.32928906,20.47718159,30.30792518,-0.819298098,2017/9/11
0.206172464,5.760547817,10.65915596,20.82881016,30.33789548,-0.542147518,2017/9/12
0.379446596,5.005484397,10.10485386,20.2628518,30.90832801,-0.026969988,2017/9/13
0.037574012,5.274192174,10.07720283,20.06181573,30.71391421,-0.135352913,2017/9/14
0.507139977,5.902845664,10.55552472,20.9698318,30.60675886,-0.744473878,2017/9/15
0.212738922,5.196441314,10.41933465,20.33911296,30.54181455,-0.742336195,2017/9/16
0.437244539,5.971808732,10.8178094,20.90788377,30.51324868,-0.624822062,2017/9/17
0.48821957,5.760690725,10.33710386,20.7431061,30.91357864,-0.663385571,2017/9/18
0.775432221,5.604460978,10.04700801,20.18623217,30.22969961,-0.636094453,2017/9/19
0.225392846,5.045542877,10.91008194,20.48766604,30.26856608,-0.0203917,2017/9/20
0.850928966,5.03379791,10.46531787,20.09373648,30.7452368,-0.022043405,2017/9/21
0.935389048,5.954961725,10.1024304,20.64522973,30.79466979,-0.926525301,2017/9/22
0.507082133,5.065657635,10.11419219,20.44370473,30.6927228,-0.928638124,2017/9/23
0.827208741,5.644698299,10.1867922,20.64575508,30.78647581,-0.00163451,2017/9/24
0.84687002,5.013938709,10.98142852,20.36706131,30.24744567,-0.110056521,2017/9/25
0.889859953,5.402532569,10.05373552,20.56423176,30.01855147,-0.049002517,2017/9/26
0.816735902,5.101471411,10.37116144,20.34981284,30.27849105,-0.125609425,2017/9/27
0.882284286,5.623137524,10.34191369,20.4682978,30.40402664,-0.214808323,2017/9/28
0.482009108,5.222276412,10.8711676,20.60862565,30.10728964,-0.520499378,2017/9/29
0.883838377,5.279766755,10.25943891,20.50077731,30.60600826,-0.270239673,2017/9/30
0.708983209,5.313544643,10.23764034,20.87246502,30.14936528,-0.618546307,2017/10/1
0.065478028,5.236723947,10.85179755,20.4797849,30.55434505,-0.175179512,2017/10/2
0.561402378,5.883587854,10.94755361,20.64818104,30.86365878,-0.849810242,2017/10/3
0.272483113,5.017808885,10.8891495,20.24896294,30.56082622,-0.649161648,2017/10/4
0.810442898,5.265169252,10.71993625,20.03102664,30.73929803,-0.981045546,2017/10/5
0.256444814,5.341493375,10.23055502,20.11993665,30.29393039,-0.876044198,2017/10/6
0.62578504,5.170562814,10.94633378,20.05430484,30.42691481,-0.687157366,2017/10/7
0.81714534,5.047850416,10.54037231,20.04789305,30.54030891,-0.947089872,2017/10/8
0.723925816,5.562612913,10.89158685,20.42115981,30.66172477,-0.910489869,2017/10/9
0.12304716,5.66137222,10.69025401,20.1614034,30.6758171,-0.709175132,2017/10/10
0.006252158,5.8228087,10.88271187,20.93121,30.38179085,-0.656309926,2017/10/11
0.075176406,5.79854487,10.40990717,20.47065918,30.05281264,-0.854034891,2017/10/12
0.432848789,5.669985194,10.60639667,20.23701639,30.95109,-0.368368986,2017/10/13
0.618200914,5.686185624,10.50317449,20.86294721,30.30558667,-0.204957525,2017/10/14
0.688061119,5.195674853,10.29954581,20.25108966,30.6190775,-0.152676273,2017/10/15
0.527892847,5.758386484,10.74404785,20.37371236,30.97179929,-0.63971122,2017/10/16
0.321339446,5.209730699,10.76890085,20.87136789,30.0189307,-0.362114334,2017/10/17
0.061454501,5.214923773,10.02081417,20.07356527,30.57285451,-0.747078221,2017/10/18
0.333240469,5.954798671,10.48389936,20.5438213,30.17200144,-0.837958537,2017/10/19
0.032481166,5.664287336,10.47317272,20.51085542,30.17078237,-0.036983128,2017/10/20
0.133645707,5.500254034,10.4288571,20.5633512,30.05020955,-0.821111271,2017/10/21
0.947479321,5.646135987,10.21334693,20.94095479,30.86858039,-0.799361667,2017/10/22
0.349417288,5.009043898,10.49355171,20.4022332,30.36045813,-0.478550405,2017/10/23
0.665108986,5.502618671,10.68302318,20.09947462,30.62301522,-0.933828394,2017/10/24
0.92373735,5.263025778,10.54836701,20.14141181,30.93294762,-0.629241472,2017/10/25
0.87802174,5.335374568,10.63756244,20.77079133,30.17459929,-0.850639663,2017/10/26
0.131682103,5.264075217,10.3566102,20.51988076,30.50517618,-0.133853419,2017/10/27
0.528645835,5.311734086,10.81180579,20.87228795,30.48468096,-0.905990672,2017/10/28
0.955708683,5.130312841,10.17358153,20.22654748,30.27502774,-0.56898626,2017/10/29
0.666327741,5.070930837,10.44772262,20.7981886,30.90244934,-0.980848131,2017/10/30
0.127521359,5.960282014,10.96882404,20.86709939,30.98095848,-0.108212869,2017/10/31
0.877601352,5.848965822,10.29376463,20.00769029,30.0851171,-0.958763476,2017/11/1
0.353699968,5.80844707,10.89286379,20.45135785,30.28627476,-0.70016046,2017/11/2
0.437241637,5.494174763,10.06210809,20.37416432,30.4894697,-0.61031337,2017/11/3
0.470448882,5.654785311,10.06687056,20.70062636,30.26169481,-0.32730455,2017/11/4
0.685588316,5.900493155,10.45320646,20.97866082,30.44515956,-0.151098025,2017/11/5
0.194718043,5.497423961,10.52834499,20.32103201,30.52589047,-0.847185622,2017/11/6
0.515468013,5.742083505,10.45432996,20.89505298,30.41526575,-0.992829123,2017/11/7
0.958209121,5.337611559,10.01902377,20.48254128,30.386432,-0.842233468,2017/11/8
0.675237027,5.426318592,10.4103003,20.57878327,30.9195848,-0.745252833,2017/11/9
0.364822961,5.709700184,10.9711537,20.47666465,30.51849525,-0.718880999,2017/11/10
0.893636631,5.401186342,10.94818504,20.00915803,30.97521603,-0.173502587,2017/11/11
0.714990015,5.152011642,10.66535058,20.25505089,30.62325219,-0.952265387,2017/11/12
0.1954086,5.959203917,10.31908451,20.70421452,30.81629871,-0.820399202,2017/11/13
