Rmj009/robot_ord/stockdata.csv
joint1,joint2,joint3,joint4,joint5,joint6,Date
0.00E+00,0.00E+00,0.00E+00,0.00E+00,0.00E+00,0.00E+00,2017/5/4
-1.86E-05,3.35E-05,-2.46E-04,2.98E-03,7.65E-04,-1.35E-03,2017/5/5
-1.04E-04,3.75E-05,-2.40E-04,4.66E-03,5.18E-04,-1.07E-03,2017/5/6
8.02E-04,1.33E-04,-6.00E-05,3.60E-03,-2.17E-03,-4.79E-04,2017/5/7
9.41E-04,4.84E-04,-9.04E-05,3.56E-03,-2.68E-03,1.90E-03,2017/5/8
1.28E-03,-2.11E-04,2.51E-04,4.56E-03,-1.73E-03,3.44E-03,2017/5/9
6.42E-04,4.11E-04,-6.84E-04,3.89E-03,-2.56E-03,5.77E-03,2017/5/10
2.12E-03,-9.65E-04,-3.28E-03,3.49E-03,-1.15E-03,5.79E-03,2017/5/11
2.56E-03,-1.46E-03,-2.43E-03,3.26E-03,-1.40E-03,6.10E-03,2017/5/12
5.26E-04,-2.21E-04,-2.77E-03,3.71E-03,-1.18E-03,5.99E-03,2017/5/13
7.52E-04,-4.89E-04,-3.07E-03,1.77E-03,-2.79E-03,6.18E-03,2017/5/14
1.57E-03,-1.12E-03,-2.88E-03,2.39E-03,-1.18E-03,6.80E-03,2017/5/15
2.27E-03,-1.97E-04,-2.12E-03,2.17E-03,-1.69E-03,7.26E-03,2017/5/16
5.94E-04,7.96E-04,-1.86E-04,7.96E-04,-1.69E-03,7.84E-03,2017/5/17
8.48E-04,1.48E-03,-1.86E-03,1.81E-03,5.78E-04,6.37E-03,2017/5/18
-6.57E-05,1.86E-03,-1.35E-03,1.62E-03,1.29E-03,8.36E-03,2017/5/19
-6.28E-04,2.16E-03,-1.58E-03,9.15E-04,2.42E-03,8.76E-03,2017/5/20
2.57E-04,1.60E-03,-1.52E-03,5.93E-04,2.14E-03,9.03E-03,2017/5/21
-2.39E-04,1.24E-03,-8.30E-04,-2.46E-04,2.06E-03,1.03E-02,2017/5/22
7.90E-04,1.57E-03,-1.07E-03,7.41E-04,3.70E-03,1.13E-02,2017/5/23
3.87E-03,1.43E-03,-4.40E-05,1.84E-03,4.32E-03,1.21E-02,2017/5/24
2.99E-03,1.86E-03,-2.63E-05,3.17E-03,5.01E-03,1.08E-02,2017/5/25
2.43E-03,2.21E-03,-7.91E-04,5.01E-03,5.13E-03,1.09E-02,2017/5/26
2.71E-03,1.42E-03,-1.66E-03,6.81E-03,4.24E-03,1.12E-02,2017/5/27
2.32E-03,7.75E-04,-2.35E-03,7.80E-03,4.32E-03,1.04E-02,2017/5/28
2.06E-03,6.67E-04,-1.44E-03,6.19E-03,4.51E-03,9.36E-03,2017/5/29
1.38E-03,3.22E-03,-9.09E-04,6.75E-03,2.43E-03,1.12E-02,2017/5/30
-1.03E-03,3.56E-03,-1.02E-04,7.22E-03,3.87E-03,1.24E-02,2017/5/31
-1.14E-03,4.90E-03,5.44E-04,7.37E-03,2.48E-03,1.39E-02,2017/6/1
-2.23E-03,4.32E-03,8.23E-04,7.10E-03,3.62E-03,1.59E-02,2017/6/2
1.85E-04,4.09E-03,1.33E-03,7.45E-03,3.70E-03,1.60E-02,2017/6/3
2.08E-03,4.14E-03,3.84E-03,7.92E-03,4.55E-03,1.59E-02,2017/6/4
4.61E-03,3.94E-03,1.35E-03,8.46E-03,5.91E-03,1.57E-02,2017/6/4
6.65E-03,3.03E-03,2.44E-03,8.88E-03,6.15E-03,1.51E-02,2017/6/4
7.13E-03,2.95E-03,2.15E-03,8.81E-03,4.91E-03,1.53E-02,2017/6/4
7.92E-03,4.38E-03,2.44E-03,9.56E-03,5.44E-03,1.58E-02,2017/6/4
8.06E-03,5.10E-03,2.55E-03,1.10E-02,4.96E-03,1.67E-02,2017/6/4
8.34E-03,4.55E-03,3.40E-03,1.10E-02,5.28E-03,1.83E-02,2017/6/4
8.12E-03,4.23E-03,2.59E-03,1.14E-02,4.86E-03,1.60E-02,2017/6/4
9.12E-03,4.88E-03,3.61E-03,1.27E-02,4.74E-03,1.48E-02,2017/6/4
8.41E-03,5.88E-03,3.82E-03,1.40E-02,6.20E-03,1.46E-02,2017/6/4
8.37E-03,6.99E-03,5.72E-03,1.37E-02,4.55E-03,1.40E-02,2017/6/4
7.71E-03,8.68E-03,7.99E-03,1.52E-02,4.65E-03,1.40E-02,2017/6/4
7.70E-03,9.46E-03,7.63E-03,1.59E-02,5.81E-03,1.35E-02,2017/6/4
8.79E-03,1.05E-02,6.43E-03,1.70E-02,5.03E-03,1.39E-02,2017/6/4
1.00E-02,1.11E-02,6.45E-03,1.77E-02,4.89E-03,1.55E-02,2017/6/4
8.81E-03,1.00E-02,6.68E-03,1.78E-02,3.76E-03,1.56E-02,2017/6/4
1.11E-02,9.92E-03,6.70E-03,1.75E-02,3.63E-03,1.73E-02,2017/6/4
1.08E-02,1.01E-02,7.17E-03,1.83E-02,2.63E-03,1.72E-02,2017/6/4
9.52E-03,1.09E-02,7.64E-03,1.90E-02,3.23E-03,1.76E-02,2017/6/4
8.61E-03,1.04E-02,6.22E-03,2.09E-02,2.08E-03,1.58E-02,2017/6/4
8.01E-03,9.56E-03,5.46E-03,2.14E-02,2.71E-03,1.75E-02,2017/6/4
9.41E-03,8.92E-03,5.33E-03,2.13E-02,2.04E-03,1.81E-02,2017/6/4
1.04E-02,7.20E-03,4.85E-03,2.18E-02,2.18E-03,1.75E-02,2017/6/5
9.35E-03,8.55E-03,3.10E-03,2.08E-02,1.25E-03,1.50E-02,2017/6/6
8.76E-03,7.54E-03,3.75E-03,2.13E-02,7.89E-04,1.47E-02,2017/6/4
8.75E-03,8.36E-03,4.04E-03,2.15E-02,1.28E-03,1.41E-02,2017/6/5
8.40E-03,7.36E-03,4.97E-03,2.12E-02,5.67E-04,1.36E-02,2017/6/6
6.83E-03,6.18E-03,6.37E-03,2.17E-02,3.10E-04,1.33E-02,2017/6/4
8.18E-03,7.72E-03,7.24E-03,2.22E-02,2.11E-03,1.21E-02,2017/6/5
8.62E-03,9.91E-03,6.78E-03,2.37E-02,3.63E-03,1.16E-02,2017/6/6
9.86E-03,8.90E-03,7.72E-03,2.21E-02,3.41E-03,1.23E-02,2017/6/4
1.06E-02,8.36E-03,8.24E-03,2.11E-02,2.45E-03,1.27E-02,2017/6/5
9.80E-03,7.69E-03,7.07E-03,1.97E-02,1.58E-03,1.28E-02,2017/6/6
9.87E-03,7.82E-03,8.03E-03,2.12E-02,7.98E-04,1.24E-02,2017/6/4
8.59E-03,7.50E-03,7.40E-03,2.14E-02,-1.05E-03,1.28E-02,2017/6/5
6.77E-03,5.77E-03,6.92E-03,2.09E-02,5.76E-04,1.36E-02,2017/6/6
7.33E-03,5.04E-03,6.28E-03,1.97E-02,4.31E-04,1.45E-02,2017/6/4
9.03E-03,5.61E-03,5.31E-03,1.86E-02,4.85E-04,1.37E-02,2017/6/5
1.01E-02,4.86E-03,4.43E-03,1.83E-02,2.63E-04,1.25E-02,2017/6/6
1.13E-02,5.43E-03,5.59E-03,1.75E-02,1.62E-04,1.29E-02,2017/6/4
1.21E-02,6.54E-03,5.26E-03,1.91E-02,-1.65E-03,1.30E-02,2017/6/5
1.24E-02,6.41E-03,5.40E-03,1.98E-02,-3.03E-04,1.24E-02,2017/6/6
1.30E-02,6.57E-03,6.45E-03,2.10E-02,-1.43E-03,1.33E-02,2017/6/4
1.39E-02,6.24E-03,6.95E-03,1.99E-02,3.28E-04,1.34E-02,2017/6/5
1.42E-02,5.80E-03,6.50E-03,1.93E-02,-7.14E-04,1.33E-02,2017/6/6
1.57E-02,7.17E-03,7.31E-03,1.90E-02,-1.82E-03,1.39E-02,2017/6/4
1.40E-02,7.76E-03,7.20E-03,1.72E-02,-2.71E-03,1.50E-02,2017/6/5
1.38E-02,4.71E-03,7.41E-03,1.87E-02,-3.32E-03,1.54E-02,2017/6/6
1.37E-02,3.58E-03,5.38E-03,1.80E-02,-5.89E-03,1.43E-02,2017/6/4
1.56E-02,3.02E-03,6.29E-03,1.79E-02,-5.29E-03,1.51E-02,2017/6/5
1.32E-02,9.95E-04,5.84E-03,1.66E-02,-6.31E-03,1.64E-02,2017/6/6
1.39E-02,1.21E-03,5.85E-03,1.58E-02,-5.13E-03,1.75E-02,2017/6/4
1.45E-02,-1.41E-05,4.84E-03,1.66E-02,-6.25E-03,1.76E-02,2017/6/5
1.53E-02,-2.97E-03,6.09E-03,1.49E-02,-6.78E-03,1.67E-02,2017/6/6
1.50E-02,-3.49E-03,5.50E-03,1.40E-02,-6.05E-03,1.81E-02,2017/6/4
1.55E-02,-4.50E-03,6.58E-03,1.34E-02,-6.18E-03,1.86E-02,2017/6/5
1.62E-02,-3.86E-03,7.13E-03,1.36E-02,-4.06E-03,1.62E-02,2017/6/6
1.70E-02,-2.37E-03,6.96E-03,1.34E-02,-5.51E-03,1.51E-02,2017/6/4
1.77E-02,-2.31E-03,5.19E-03,1.27E-02,-4.60E-03,1.58E-02,2017/6/5
1.83E-02,-2.34E-03,5.31E-03,1.26E-02,-1.97E-03,1.74E-02,2017/6/6
1.82E-02,-2.02E-03,4.72E-03,1.28E-02,-1.63E-03,1.64E-02,2017/6/4
1.82E-02,-2.22E-03,5.29E-03,1.33E-02,-2.01E-03,1.65E-02,2017/6/5
1.67E-02,-1.83E-03,4.05E-03,1.56E-02,-1.13E-03,1.37E-02,2017/6/6
1.80E-02,-8.44E-04,5.66E-03,1.61E-02,-2.11E-03,1.24E-02,2017/6/4
1.83E-02,-1.29E-03,6.57E-03,1.53E-02,-8.65E-04,1.51E-02,2017/6/5
1.89E-02,-1.52E-03,6.52E-03,1.39E-02,-1.75E-03,1.46E-02,2017/6/6
2.06E-02,-7.29E-04,7.32E-03,1.43E-02,-5.77E-04,1.42E-02,2017/6/4
1.91E-02,2.20E-03,8.45E-03,1.33E-02,-4.53E-04,1.14E-02,2017/6/5
1.98E-02,1.65E-03,8.32E-03,1.20E-02,-1.07E-03,1.22E-02,2017/6/6
1.85E-02,1.35E-03,9.50E-03,1.29E-02,-1.68E-03,1.07E-02,2017/6/4
1.71E-02,1.03E-03,1.00E-02,1.18E-02,-1.80E-03,9.54E-03,2017/6/5
1.75E-02,1.72E-03,9.94E-03,1.29E-02,-2.10E-03,8.72E-03,2017/6/6
1.89E-02,3.20E-03,1.09E-02,1.44E-02,-9.75E-04,6.95E-03,2017/6/4
2.04E-02,3.64E-03,1.20E-02,1.35E-02,-3.95E-04,7.90E-03,2017/6/5
2.02E-02,3.37E-03,1.19E-02,1.27E-02,9.09E-05,7.45E-03,2017/6/6
2.29E-02,1.77E-03,1.21E-02,1.25E-02,1.19E-03,8.43E-03,2017/6/4
2.18E-02,2.07E-03,1.11E-02,1.28E-02,8.08E-04,8.78E-03,2017/6/5
2.20E-02,2.18E-03,1.29E-02,1.19E-02,2.02E-04,9.58E-03,2017/6/6
1.96E-02,2.98E-03,1.29E-02,1.27E-02,2.45E-03,9.93E-03,2017/6/4
1.85E-02,3.28E-03,1.34E-02,1.34E-02,4.09E-03,8.78E-03,2017/6/5
1.82E-02,2.94E-03,1.35E-02,1.16E-02,3.89E-03,8.58E-03,2017/6/6
1.67E-02,3.26E-03,1.38E-02,1.33E-02,3.42E-03,5.55E-03,2017/6/4
1.82E-02,3.94E-03,1.34E-02,1.20E-02,3.36E-03,4.09E-03,2017/6/5
1.75E-02,4.46E-03,1.40E-02,1.29E-02,2.80E-03,2.40E-03,2017/6/6
1.71E-02,5.51E-03,1.35E-02,1.17E-02,1.74E-03,3.45E-03,2017/6/4
1.73E-02,6.25E-03,1.31E-02,1.15E-02,2.39E-03,4.87E-03,2017/6/5
1.72E-02,5.67E-03,1.44E-02,1.09E-02,3.12E-03,5.63E-03,2017/6/6
1.65E-02,4.98E-03,1.37E-02,1.03E-02,2.85E-03,5.58E-03,2017/6/4
1.79E-02,5.28E-03,1.54E-02,1.10E-02,3.18E-03,6.91E-03,2017/6/5
1.70E-02,4.47E-03,1.43E-02,1.09E-02,5.48E-03,6.21E-03,2017/6/6
1.80E-02,4.09E-03,1.42E-02,1.15E-02,5.74E-03,5.24E-03,2017/6/4
1.72E-02,3.36E-03,1.53E-02,1.19E-02,5.47E-03,3.54E-03,2017/6/5
1.68E-02,3.52E-03,1.60E-02,1.24E-02,5.03E-03,2.99E-03,2017/6/6
1.66E-02,3.76E-03,1.59E-02,1.12E-02,4.84E-03,2.15E-03,2017/6/4
1.71E-02,3.40E-03,1.62E-02,1.26E-02,2.90E-03,-5.28E-04,2017/6/5
1.90E-02,1.58E-03,1.56E-02,1.33E-02,1.04E-03,-1.51E-03,2017/6/6
1.87E-02,2.20E-03,1.58E-02,1.51E-02,-8.58E-04,-1.43E-03,2017/6/4
1.96E-02,3.29E-03,1.49E-02,1.49E-02,-3.70E-04,9.08E-04,2017/6/5
1.94E-02,2.85E-03,1.44E-02,1.52E-02,-8.45E-04,3.59E-04,2017/6/6
2.02E-02,1.63E-03,1.37E-02,1.37E-02,9.22E-04,1.57E-04,2017/6/4
1.89E-02,1.96E-03,1.13E-02,1.48E-02,2.26E-03,2.22E-03,2017/6/5
1.92E-02,3.62E-03,1.20E-02,1.30E-02,4.12E-03,2.75E-03,2017/6/6
1.91E-02,2.56E-03,1.29E-02,1.43E-02,3.32E-03,1.80E-03,2017/6/4
1.98E-02,3.15E-03,1.42E-02,1.43E-02,1.81E-03,3.16E-03,2017/6/5
1.96E-02,3.24E-03,1.45E-02,1.33E-02,-2.45E-04,3.07E-03,2017/6/6
1.98E-02,1.93E-03,1.34E-02,1.35E-02,-1.25E-03,3.58E-03,2017/6/4
2.06E-02,2.86E-03,1.36E-02,1.35E-02,-1.39E-03,2.12E-03,2017/6/5
2.11E-02,3.04E-03,1.27E-02,1.18E-02,-6.49E-04,1.78E-04,2017/6/6
2.11E-02,2.30E-03,1.30E-02,1.28E-02,4.06E-05,8.75E-04,2017/6/4
2.01E-02,1.62E-03,1.40E-02,1.30E-02,1.41E-04,8.66E-04,2017/6/5
1.91E-02,3.36E-04,1.22E-02,1.23E-02,1.32E-03,1.72E-03,2017/6/6
1.89E-02,1.32E-03,1.12E-02,1.14E-02,1.46E-03,3.39E-03,2017/6/4
2.03E-02,2.63E-04,1.10E-02,1.13E-02,2.47E-03,2.47E-03,2017/6/5
2.13E-02,1.84E-03,1.30E-02,1.09E-02,3.06E-03,4.73E-03,2017/6/6
2.22E-02,2.09E-03,1.30E-02,1.01E-02,3.28E-03,4.28E-03,2017/6/4
2.19E-02,1.65E-03,1.43E-02,8.57E-03,1.45E-03,6.68E-03,2017/6/5
2.25E-02,2.73E-03,1.52E-02,7.68E-03,2.52E-03,6.71E-03,2017/6/6
2.20E-02,4.45E-03,1.58E-02,8.71E-03,3.12E-03,5.40E-03,2017/6/4
2.16E-02,4.50E-03,1.45E-02,8.19E-03,3.12E-03,4.73E-03,2017/6/5
2.08E-02,5.54E-03,1.45E-02,6.97E-03,2.17E-03,5.02E-03,2017/6/6
2.08E-02,6.10E-03,1.28E-02,8.19E-03,3.49E-03,3.88E-03,2017/6/4
2.09E-02,5.98E-03,1.43E-02,8.55E-03,2.41E-04,4.07E-03,2017/6/5
2.06E-02,5.35E-03,1.43E-02,7.70E-03,6.37E-04,4.82E-03,2017/6/6
2.19E-02,5.99E-03,1.52E-02,9.26E-03,5.16E-04,4.34E-03,2017/6/4
2.23E-02,8.05E-03,1.65E-02,9.08E-03,1.49E-04,4.97E-03,2017/6/5
2.21E-02,9.60E-03,1.62E-02,1.03E-02,2.69E-04,7.06E-03,2017/6/6
2.25E-02,1.06E-02,1.73E-02,8.46E-03,-6.23E-04,8.78E-03,2017/6/4
2.32E-02,1.01E-02,1.82E-02,8.51E-03,-3.63E-04,8.99E-03,2017/6/5
2.31E-02,1.12E-02,2.00E-02,7.41E-03,-1.12E-03,1.02E-02,2017/6/6
2.43E-02,1.19E-02,1.91E-02,6.69E-03,-1.00E-03,1.08E-02,2017/6/4
2.59E-02,1.24E-02,1.75E-02,5.51E-03,-4.16E-04,9.32E-03,2017/6/5
2.66E-02,1.22E-02,1.95E-02,5.21E-03,-1.08E-03,9.69E-03,2017/6/6
2.64E-02,1.07E-02,2.07E-02,4.37E-03,-1.92E-03,1.05E-02,2017/6/4
2.61E-02,9.91E-03,1.87E-02,3.22E-03,8.67E-06,1.02E-02,2017/6/5
2.61E-02,1.02E-02,1.84E-02,4.53E-03,4.35E-04,9.19E-03,2017/6/6
2.59E-02,1.05E-02,1.94E-02,3.90E-03,1.09E-03,1.08E-02,2017/6/4
2.79E-02,1.12E-02,1.90E-02,4.16E-03,1.47E-04,1.01E-02,2017/6/5
2.79E-02,1.15E-02,1.90E-02,2.30E-03,-5.08E-04,1.19E-02,2017/6/6
2.64E-02,1.07E-02,1.75E-02,2.55E-03,-1.61E-04,1.11E-02,2017/6/4
2.66E-02,1.24E-02,1.61E-02,1.46E-03,1.21E-03,1.11E-02,2017/6/5
2.52E-02,1.43E-02,1.40E-02,1.21E-03,2.43E-03,1.10E-02,2017/6/6
2.58E-02,1.45E-02,1.48E-02,3.05E-03,3.76E-03,1.19E-02,2017/6/4
2.59E-02,1.34E-02,1.57E-02,1.15E-03,4.38E-03,1.05E-02,2017/6/5
2.52E-02,1.37E-02,1.74E-02,1.92E-03,6.03E-03,9.42E-03,2017/6/6
2.38E-02,1.30E-02,1.50E-02,1.05E-03,5.27E-03,8.60E-03,2017/6/4
2.32E-02,1.03E-02,1.35E-02,1.92E-03,6.22E-03,8.62E-03,2017/6/5
2.29E-02,1.09E-02,1.47E-02,2.38E-03,8.22E-03,8.94E-03,2017/6/6
2.44E-02,9.83E-03,1.46E-02,3.32E-03,9.13E-03,9.32E-03,2017/6/4
2.45E-02,9.57E-03,1.58E-02,3.54E-03,9.75E-03,9.53E-03,2017/6/5
2.49E-02,1.02E-02,1.67E-02,4.07E-03,9.15E-03,8.67E-03,2017/6/6
2.58E-02,1.03E-02,1.62E-02,4.17E-03,7.95E-03,5.12E-03,2017/6/4
2.49E-02,8.85E-03,1.66E-02,4.51E-03,7.87E-03,4.55E-03,2017/6/5
2.62E-02,8.39E-03,1.56E-02,5.21E-03,6.91E-03,2.74E-03,2017/6/6
2.70E-02,7.94E-03,1.69E-02,5.80E-03,6.54E-03,2.84E-03,2017/6/4
2.57E-02,7.52E-03,1.64E-02,7.19E-03,9.76E-03,4.38E-03,2017/6/5
2.43E-02,7.68E-03,1.57E-02,5.88E-03,8.19E-03,3.77E-03,2017/6/6
2.47E-02,6.80E-03,1.62E-02,5.12E-03,7.78E-03,2.70E-03,2017/6/4
2.53E-02,6.43E-03,1.59E-02,5.38E-03,6.33E-03,2.30E-03,2017/6/5
2.50E-02,7.55E-03,1.61E-02,5.32E-03,4.72E-03,2.30E-03,2017/6/6
2.57E-02,8.19E-03,1.43E-02,4.40E-03,6.01E-03,8.66E-04,2017/6/4
2.58E-02,8.36E-03,1.47E-02,5.72E-03,5.82E-03,1.91E-03,2017/6/5
2.56E-02,8.29E-03,1.45E-02,3.16E-03,7.21E-03,2.62E-03,2017/6/6
2.63E-02,8.43E-03,1.45E-02,2.84E-03,6.68E-03,1.18E-03,2017/6/4
2.79E-02,8.42E-03,1.40E-02,2.13E-03,6.95E-03,6.43E-04,2017/6/5
2.60E-02,9.10E-03,1.42E-02,3.72E-03,8.35E-03,-3.86E-04,2017/6/6
2.48E-02,9.82E-03,1.36E-02,4.95E-03,8.97E-03,2.12E-04,2017/6/4
2.36E-02,8.54E-03,1.32E-02,3.83E-03,9.88E-03,-2.42E-04,2017/6/5
2.28E-02,9.65E-03,1.16E-02,5.90E-03,1.10E-02,-5.09E-04,2017/6/6
2.34E-02,1.02E-02,1.20E-02,3.73E-03,8.36E-03,-2.19E-03,2017/6/4
2.48E-02,1.01E-02,1.26E-02,2.85E-03,6.97E-03,-2.22E-03,2017/6/5
2.38E-02,8.94E-03,1.18E-02,2.69E-03,7.07E-03,-2.58E-03,2017/6/6
2.42E-02,9.64E-03,1.29E-02,2.37E-03,9.85E-03,-3.28E-03,2017/6/4
2.44E-02,1.20E-02,1.30E-02,1.25E-03,9.46E-03,-3.61E-03,2017/6/5
2.51E-02,9.90E-03,1.38E-02,1.72E-04,9.45E-03,-3.17E-03,2017/6/6
2.33E-02,8.12E-03,1.50E-02,1.47E-03,1.09E-02,-4.27E-03,2017/6/4
2.15E-02,7.49E-03,1.60E-02,2.41E-03,1.01E-02,-5.15E-03,2017/6/5
2.08E-02,6.77E-03,1.52E-02,2.44E-03,9.42E-03,-4.83E-03,2017/6/6
2.11E-02,7.74E-03,1.57E-02,2.37E-03,7.73E-03,-5.15E-03,2017/6/4
2.15E-02,7.68E-03,1.69E-02,2.66E-03,8.94E-03,-4.50E-03,2017/6/5
2.39E-02,8.57E-03,1.69E-02,2.38E-03,9.77E-03,-2.72E-03,2017/6/6
2.48E-02,6.14E-03,1.60E-02,2.80E-03,1.07E-02,-3.54E-03,2017/6/4
2.45E-02,5.62E-03,1.46E-02,4.33E-03,1.21E-02,-1.88E-03,2017/6/5
2.61E-02,4.80E-03,1.54E-02,4.90E-03,1.26E-02,-1.78E-03,2017/6/6
2.56E-02,5.74E-03,1.42E-02,4.96E-03,1.34E-02,-3.61E-03,2017/6/4
2.44E-02,5.55E-03,1.45E-02,5.15E-03,1.63E-02,-2.22E-03,2017/6/5
2.50E-02,6.92E-03,1.44E-02,6.47E-03,1.66E-02,-6.67E-04,2017/6/6
2.43E-02,6.71E-03,1.41E-02,5.70E-03,1.50E-02,-3.75E-04,2017/6/4
2.52E-02,7.43E-03,1.23E-02,4.95E-03,1.53E-02,-4.77E-04,2017/6/5
2.64E-02,7.91E-03,1.45E-02,4.29E-03,1.43E-02,-4.64E-04,2017/6/6
2.51E-02,7.82E-03,1.49E-02,4.73E-03,1.37E-02,1.38E-03,2017/6/4
2.42E-02,8.47E-03,1.54E-02,6.95E-03,1.46E-02,-1.46E-03,2017/6/5
2.44E-02,9.39E-03,1.55E-02,6.15E-03,1.49E-02,-2.02E-03,2017/6/6
2.48E-02,1.02E-02,1.53E-02,6.36E-03,1.40E-02,-2.38E-03,2017/6/4
2.41E-02,1.07E-02,1.52E-02,5.44E-03,1.43E-02,-2.27E-03,2017/6/5
2.44E-02,9.88E-03,1.45E-02,4.25E-03,1.50E-02,-2.60E-03,2017/6/6
2.52E-02,1.08E-02,1.34E-02,4.29E-03,1.43E-02,-1.75E-03,2017/6/4
2.58E-02,9.85E-03,1.26E-02,2.81E-03,1.25E-02,-2.77E-03,2017/6/5
2.65E-02,8.59E-03,1.53E-02,2.17E-03,1.23E-02,-3.26E-03,2017/6/6
2.61E-02,9.75E-03,1.38E-02,4.71E-04,1.35E-02,-3.85E-03,2017/6/4
2.46E-02,1.16E-02,1.36E-02,-1.48E-03,1.45E-02,-3.57E-03,2017/6/5
2.33E-02,1.39E-02,1.32E-02,-4.44E-03,1.41E-02,-3.44E-03,2017/6/6
2.25E-02,1.37E-02,1.24E-02,-3.00E-03,1.44E-02,-1.53E-03,2017/6/4
2.26E-02,1.41E-02,1.22E-02,-4.45E-03,1.45E-02,-2.62E-03,2017/6/5
2.17E-02,1.40E-02,1.52E-02,-4.72E-03,1.49E-02,-3.35E-03,2017/6/6
2.12E-02,1.42E-02,1.54E-02,-4.12E-03,1.50E-02,-1.72E-03,2017/6/4
2.08E-02,1.56E-02,1.59E-02,-5.54E-03,1.48E-02,-1.57E-03,2017/6/5
2.11E-02,1.61E-02,1.46E-02,-4.86E-03,1.43E-02,-1.74E-03,2017/6/6
2.08E-02,1.50E-02,1.53E-02,-5.69E-03,1.45E-02,-6.62E-04,2017/6/4
2.06E-02,1.55E-02,1.51E-02,-5.94E-03,1.56E-02,-2.37E-04,2017/6/5
2.24E-02,1.55E-02,1.56E-02,-6.25E-03,1.33E-02,-1.31E-03,2017/6/6
2.26E-02,1.54E-02,1.34E-02,-5.93E-03,1.45E-02,-1.34E-03,2017/6/4
2.13E-02,1.46E-02,1.23E-02,-6.99E-03,1.47E-02,-3.10E-03,2017/6/5
2.00E-02,1.44E-02,1.31E-02,-7.96E-03,1.49E-02,-2.54E-03,2017/6/6
1.96E-02,1.27E-02,1.26E-02,-9.29E-03,1.52E-02,-1.88E-03,2017/6/4
1.94E-02,1.38E-02,1.29E-02,-1.05E-02,1.61E-02,-3.44E-04,2017/6/5
1.71E-02,1.36E-02,1.20E-02,-1.09E-02,1.56E-02,-1.92E-03,2017/6/6
1.62E-02,1.25E-02,1.34E-02,-1.19E-02,1.68E-02,-1.98E-03,2017/6/4
1.61E-02,1.25E-02,1.40E-02,-1.22E-02,1.57E-02,-2.53E-03,2017/6/5
1.58E-02,1.14E-02,1.44E-02,-1.22E-02,1.53E-02,-1.23E-03,2017/6/6
1.69E-02,1.02E-02,1.38E-02,-1.16E-02,1.55E-02,-2.16E-03,2017/6/4
1.75E-02,1.07E-02,1.31E-02,-1.23E-02,1.35E-02,-8.74E-04,2017/6/5
1.85E-02,1.18E-02,1.41E-02,-1.23E-02,1.47E-02,-6.06E-04,2017/6/6
1.75E-02,1.16E-02,1.26E-02,-1.02E-02,1.50E-02,5.83E-04,2017/6/4
1.65E-02,1.23E-02,1.22E-02,-1.02E-02,1.45E-02,1.53E-03,2017/6/5
1.76E-02,1.23E-02,1.36E-02,-9.28E-03,1.46E-02,2.37E-03,2017/6/6
1.72E-02,1.20E-02,1.26E-02,-9.57E-03,1.45E-02,1.54E-03,2017/6/4
1.82E-02,1.55E-02,1.20E-02,-1.03E-02,1.29E-02,3.85E-04,2017/6/5
1.79E-02,1.46E-02,1.18E-02,-1.04E-02,1.11E-02,-2.31E-04,2017/6/6
1.66E-02,1.37E-02,1.39E-02,-9.95E-03,9.27E-03,-1.60E-03,2017/6/4
1.56E-02,1.36E-02,1.41E-02,-1.12E-02,9.71E-03,-2.28E-03,2017/6/5
1.52E-02,1.33E-02,1.52E-02,-9.44E-03,9.94E-03,-2.12E-03,2017/6/6
1.51E-02,1.25E-02,1.50E-02,-8.70E-03,8.64E-03,-1.48E-03,2017/6/4
1.29E-02,1.27E-02,1.56E-02,-8.67E-03,7.97E-03,-2.38E-03,2017/6/5
1.19E-02,1.25E-02,1.52E-02,-1.07E-02,8.13E-03,-4.26E-03,2017/6/6
1.12E-02,1.29E-02,1.70E-02,-1.25E-02,7.33E-03,-4.76E-03,2017/6/4
1.28E-02,1.24E-02,1.46E-02,-1.33E-02,8.74E-03,-5.37E-03,2017/6/5
1.21E-02,1.12E-02,1.56E-02,-1.25E-02,9.96E-03,-5.30E-03,2017/6/6
1.23E-02,1.08E-02,1.48E-02,-1.37E-02,8.81E-03,-3.28E-03,2017/6/4
1.14E-02,1.22E-02,1.44E-02,-1.31E-02,9.45E-03,-3.72E-03,2017/6/5
1.23E-02,1.36E-02,1.48E-02,-1.24E-02,9.65E-03,-3.37E-03,2017/6/6
1.31E-02,1.54E-02,1.63E-02,-1.22E-02,8.59E-03,-2.91E-03,2017/6/7
1.32E-02,1.56E-02,1.65E-02,-1.35E-02,8.45E-03,-2.02E-03,2017/6/8
1.35E-02,1.58E-02,1.65E-02,-1.53E-02,1.01E-02,-1.85E-03,2017/6/8
1.24E-02,1.62E-02,1.58E-02,-1.52E-02,8.73E-03,-2.08E-03,2017/6/8
1.29E-02,1.65E-02,1.62E-02,-1.53E-02,9.58E-03,-2.94E-03,2017/6/8
1.14E-02,1.74E-02,1.74E-02,-1.59E-02,1.01E-02,-3.13E-03,2017/6/8
1.07E-02,1.77E-02,1.80E-02,-1.54E-02,8.70E-03,-3.56E-03,2017/6/8
9.58E-03,1.61E-02,1.64E-02,-1.42E-02,9.23E-03,-2.50E-03,2017/6/8
1.04E-02,1.68E-02,1.69E-02,-1.26E-02,7.03E-03,-2.45E-03,2017/6/8
1.02E-02,1.57E-02,1.87E-02,-1.23E-02,5.34E-03,-2.53E-03,2017/6/8
1.01E-02,1.52E-02,1.81E-02,-1.18E-02,5.19E-03,-2.05E-03,2017/6/8
1.09E-02,1.79E-02,1.70E-02,-1.23E-02,7.15E-03,-2.20E-03,2017/6/8
1.17E-02,1.73E-02,1.90E-02,-1.26E-02,6.55E-03,-3.00E-03,2017/6/8
1.29E-02,1.79E-02,1.85E-02,-1.29E-02,7.88E-03,-1.72E-03,2017/6/8
1.25E-02,1.76E-02,1.83E-02,-1.21E-02,7.67E-03,-2.13E-03,2017/6/8
1.14E-02,1.85E-02,1.83E-02,-1.36E-02,8.89E-03,-4.42E-03,2017/6/8
1.09E-02,1.88E-02,1.78E-02,-1.30E-02,1.04E-02,-6.05E-03,2017/6/8
1.13E-02,1.80E-02,1.57E-02,-1.11E-02,1.01E-02,-6.48E-03,2017/6/8
1.15E-02,1.81E-02,1.52E-02,-1.22E-02,1.05E-02,-5.94E-03,2017/6/8
1.12E-02,1.83E-02,1.54E-02,-1.16E-02,1.10E-02,-6.48E-03,2017/6/8
9.04E-03,1.98E-02,1.54E-02,-1.10E-02,1.11E-02,-7.62E-03,2017/6/8
8.60E-03,2.06E-02,1.50E-02,-1.07E-02,1.05E-02,-6.87E-03,2017/6/8
7.65E-03,2.00E-02,1.37E-02,-1.01E-02,1.11E-02,-8.22E-03,2017/6/8
8.64E-03,2.04E-02,1.46E-02,-1.12E-02,9.97E-03,-8.77E-03,2017/6/8
8.12E-03,2.07E-02,1.38E-02,-1.13E-02,9.49E-03,-1.00E-02,2017/6/8
6.76E-03,2.02E-02,1.43E-02,-9.67E-03,1.20E-02,-9.35E-03,2017/6/8
8.01E-03,2.19E-02,1.44E-02,-7.45E-03,1.19E-02,-1.03E-02,2017/6/8
8.40E-03,2.14E-02,1.38E-02,-8.20E-03,1.25E-02,-8.34E-03,2017/6/8
1.02E-02,2.14E-02,1.59E-02,-8.24E-03,1.02E-02,-8.63E-03,2017/6/8
1.15E-02,1.94E-02,1.75E-02,-6.96E-03,1.12E-02,-9.36E-03,2017/6/8
1.05E-02,2.00E-02,1.70E-02,-6.52E-03,9.35E-03,-9.65E-03,2017/6/8
1.19E-02,1.83E-02,1.66E-02,-6.07E-03,8.00E-03,-1.22E-02,2017/6/8
1.35E-02,1.76E-02,1.72E-02,-5.81E-03,7.23E-03,-1.39E-02,2017/6/8
1.35E-02,1.76E-02,1.54E-02,-6.14E-03,8.03E-03,-1.16E-02,2017/6/8
1.44E-02,1.81E-02,1.59E-02,-5.43E-03,8.84E-03,-1.19E-02,2017/6/8
1.29E-02,1.86E-02,1.71E-02,-6.63E-03,9.66E-03,-1.02E-02,2017/6/8
1.14E-02,2.03E-02,1.89E-02,-6.54E-03,8.39E-03,-1.01E-02,2017/6/8
1.01E-02,1.93E-02,1.84E-02,-6.91E-03,6.99E-03,-9.20E-03,2017/6/8
9.09E-03,1.89E-02,2.03E-02,-7.12E-03,6.24E-03,-9.20E-03,2017/6/8
8.01E-03,2.03E-02,2.16E-02,-8.47E-03,6.89E-03,-8.69E-03,2017/6/8
8.72E-03,2.04E-02,2.20E-02,-6.66E-03,7.86E-03,-8.62E-03,2017/6/8
7.95E-03,2.10E-02,2.29E-02,-7.20E-03,7.51E-03,-1.09E-02,2017/6/8
9.24E-03,2.15E-02,2.34E-02,-8.18E-03,8.37E-03,-1.11E-02,2017/6/8
8.85E-03,2.08E-02,2.13E-02,-9.63E-03,7.92E-03,-1.05E-02,2017/6/8
7.16E-03,1.82E-02,2.02E-02,-8.83E-03,8.65E-03,-1.04E-02,2017/6/8
9.17E-03,1.93E-02,1.99E-02,-7.30E-03,6.68E-03,-1.04E-02,2017/6/8
1.03E-02,2.03E-02,1.89E-02,-7.73E-03,7.98E-03,-8.73E-03,2017/6/8
9.13E-03,1.86E-02,2.08E-02,-6.34E-03,7.69E-03,-7.64E-03,2017/6/8
9.25E-03,1.91E-02,2.21E-02,-4.48E-03,7.59E-03,-7.69E-03,2017/6/8
8.70E-03,1.87E-02,2.07E-02,-5.22E-03,7.14E-03,-8.51E-03,2017/6/8
9.76E-03,1.84E-02,2.09E-02,-3.83E-03,7.78E-03,-9.68E-03,2017/6/8
1.06E-02,1.74E-02,1.89E-02,-3.60E-03,5.40E-03,-1.02E-02,2017/6/8
1.10E-02,1.65E-02,1.99E-02,-3.44E-03,4.94E-03,-1.01E-02,2017/6/8
1.23E-02,1.59E-02,1.82E-02,-4.62E-03,4.62E-03,-1.10E-02,2017/6/8
1.27E-02,1.71E-02,1.82E-02,-5.02E-03,3.49E-03,-1.08E-02,2017/6/8
1.29E-02,1.55E-02,2.09E-02,-6.40E-03,3.90E-03,-1.03E-02,2017/6/8
1.41E-02,1.53E-02,2.06E-02,-7.39E-03,4.60E-03,-1.08E-02,2017/6/8
1.41E-02,1.43E-02,1.99E-02,-5.86E-03,3.10E-03,-1.26E-02,2017/6/8
1.43E-02,1.45E-02,2.00E-02,-6.80E-03,2.69E-03,-1.17E-02,2017/6/8
1.24E-02,1.34E-02,1.87E-02,-5.53E-03,2.57E-03,-1.19E-02,2017/6/8
1.08E-02,1.36E-02,1.98E-02,-8.31E-03,3.82E-03,-9.77E-03,2017/6/8
1.28E-02,1.30E-02,1.80E-02,-1.02E-02,2.63E-03,-1.01E-02,2017/6/8
1.44E-02,1.20E-02,1.76E-02,-9.23E-03,2.07E-03,-1.08E-02,2017/6/8
1.47E-02,1.14E-02,1.66E-02,-1.07E-02,2.38E-03,-1.02E-02,2017/6/8
1.34E-02,9.86E-03,1.72E-02,-1.24E-02,3.70E-03,-1.05E-02,2017/6/8
1.26E-02,1.05E-02,1.78E-02,-1.37E-02,3.24E-03,-1.12E-02,2017/6/8
1.30E-02,1.18E-02,1.74E-02,-1.32E-02,1.86E-03,-8.81E-03,2017/6/8
1.05E-02,1.18E-02,1.75E-02,-1.45E-02,1.33E-03,-8.60E-03,2017/6/8
7.79E-03,1.12E-02,1.66E-02,-1.63E-02,7.55E-04,-1.01E-02,2017/6/8
7.11E-03,1.14E-02,1.64E-02,-1.69E-02,9.08E-04,-9.33E-03,2017/6/8
5.64E-03,1.21E-02,1.46E-02,-1.53E-02,5.98E-04,-7.47E-03,2017/6/8
4.81E-03,1.44E-02,1.36E-02,-1.34E-02,-4.79E-04,-7.99E-03,2017/6/8
5.59E-03,1.74E-02,1.18E-02,-1.42E-02,-8.29E-04,-7.20E-03,2017/6/8
4.64E-03,1.65E-02,1.11E-02,-1.38E-02,-2.26E-03,-7.57E-03,2017/6/8
4.59E-03,1.68E-02,1.25E-02,-1.39E-02,-2.18E-03,-8.49E-03,2017/6/8
4.39E-03,1.68E-02,1.32E-02,-1.49E-02,-1.78E-04,-7.50E-03,2017/6/8
5.22E-03,1.75E-02,1.33E-02,-1.55E-02,-2.77E-03,-8.20E-03,2017/6/8
4.82E-03,1.72E-02,1.20E-02,-1.64E-02,-3.77E-03,-7.25E-03,2017/6/8
4.59E-03,1.75E-02,1.35E-02,-1.51E-02,-6.86E-03,-6.54E-03,2017/6/8
6.28E-03,1.69E-02,1.23E-02,-1.54E-02,-5.70E-03,-7.51E-03,2017/6/8
7.50E-03,1.54E-02,1.25E-02,-1.58E-02,-5.38E-03,-8.12E-03,2017/6/8
7.14E-03,1.70E-02,1.31E-02,-1.60E-02,-7.40E-03,-6.50E-03,2017/6/8
6.53E-03,1.62E-02,1.18E-02,-1.47E-02,-8.02E-03,-6.65E-03,2017/6/8
6.63E-03,1.65E-02,1.28E-02,-1.41E-02,-8.19E-03,-6.75E-03,2017/6/8
6.03E-03,1.65E-02,1.24E-02,-1.34E-02,-8.48E-03,-8.21E-03,2017/6/8
6.38E-03,1.65E-02,1.24E-02,-1.56E-02,-9.31E-03,-7.14E-03,2017/6/8
6.24E-03,1.55E-02,1.00E-02,-1.63E-02,-8.94E-03,-6.49E-03,2017/6/8
5.56E-03,1.50E-02,1.12E-02,-1.68E-02,-9.99E-03,-6.20E-03,2017/6/8
8.65E-03,1.39E-02,1.20E-02,-1.70E-02,-1.13E-02,-6.90E-03,2017/6/8
8.64E-03,1.34E-02,1.17E-02,-1.58E-02,-1.12E-02,-7.96E-03,2017/6/8
7.17E-03,1.43E-02,1.25E-02,-1.63E-02,-1.18E-02,-8.82E-03,2017/6/8
8.29E-03,1.42E-02,1.27E-02,-1.60E-02,-1.34E-02,-7.25E-03,2017/6/8
8.21E-03,1.48E-02,1.26E-02,-1.64E-02,-1.43E-02,-7.06E-03,2017/6/8
9.17E-03,1.43E-02,1.33E-02,-1.84E-02,-1.43E-02,-6.60E-03,2017/6/8
1.08E-02,1.45E-02,1.36E-02,-1.97E-02,-1.28E-02,-7.30E-03,2017/6/8
1.05E-02,1.47E-02,1.50E-02,-1.99E-02,-1.30E-02,-6.51E-03,2017/6/8
1.08E-02,1.36E-02,1.35E-02,-2.19E-02,-1.31E-02,-7.02E-03,2017/6/8
1.15E-02,1.33E-02,1.29E-02,-2.30E-02,-1.26E-02,-5.20E-03,2017/6/8
1.31E-02,1.28E-02,1.34E-02,-2.29E-02,-1.26E-02,-5.52E-03,2017/6/8
1.42E-02,1.25E-02,1.35E-02,-2.41E-02,-1.21E-02,-3.70E-03,2017/6/8
1.41E-02,1.24E-02,1.44E-02,-2.24E-02,-1.31E-02,-3.43E-03,2017/6/8
1.68E-02,1.15E-02,1.34E-02,-2.31E-02,-1.23E-02,-5.23E-03,2017/6/8
1.56E-02,1.05E-02,1.31E-02,-2.26E-02,-1.06E-02,-4.57E-03,2017/6/8
1.60E-02,1.06E-02,1.27E-02,-2.49E-02,-8.78E-03,-4.92E-03,2017/6/8
1.52E-02,1.07E-02,1.26E-02,-2.33E-02,-9.89E-03,-3.33E-03,2017/6/8
1.65E-02,1.18E-02,1.41E-02,-2.53E-02,-9.45E-03,-2.16E-03,2017/6/8
1.68E-02,1.11E-02,1.32E-02,-2.43E-02,-9.12E-03,-1.70E-03,2017/6/8
1.81E-02,1.27E-02,1.23E-02,-2.45E-02,-9.36E-03,-8.62E-05,2017/6/8
1.69E-02,1.32E-02,1.19E-02,-2.46E-02,-6.86E-03,-3.15E-04,2017/6/8
1.63E-02,1.23E-02,1.22E-02,-2.45E-02,-9.70E-03,-1.41E-03,2017/6/8
1.75E-02,1.23E-02,1.15E-02,-2.58E-02,-1.08E-02,1.51E-04,2017/6/8
2.03E-02,8.18E-03,1.18E-02,-2.64E-02,-1.09E-02,-7.99E-05,2017/6/8
1.97E-02,9.90E-03,1.16E-02,-2.69E-02,-1.07E-02,5.52E-04,2017/6/8
2.00E-02,1.01E-02,1.30E-02,-2.49E-02,-1.04E-02,1.63E-03,2017/6/8
1.89E-02,1.18E-02,1.45E-02,-2.55E-02,-1.21E-02,9.81E-04,2017/6/8
1.79E-02,1.17E-02,1.54E-02,-2.39E-02,-1.05E-02,2.88E-03,2017/6/8
1.80E-02,1.15E-02,1.47E-02,-2.45E-02,-1.15E-02,3.01E-03,2017/6/8
1.96E-02,1.07E-02,1.29E-02,-2.43E-02,-1.19E-02,1.94E-03,2017/6/8
2.07E-02,1.09E-02,1.21E-02,-2.46E-02,-1.15E-02,7.86E-04,2017/6/8
2.24E-02,1.12E-02,1.11E-02,-2.31E-02,-1.17E-02,-2.20E-04,2017/6/8
2.43E-02,1.04E-02,1.26E-02,-2.47E-02,-1.28E-02,-9.66E-04,2017/6/8
2.49E-02,1.00E-02,1.20E-02,-2.60E-02,-9.84E-03,1.58E-04,2017/6/8
2.51E-02,1.11E-02,1.06E-02,-2.65E-02,-1.09E-02,-2.62E-04,2017/6/8
2.47E-02,1.03E-02,1.14E-02,-2.70E-02,-1.14E-02,-2.04E-03,2017/6/8
2.41E-02,1.10E-02,1.21E-02,-2.74E-02,-1.24E-02,-3.54E-03,2017/6/8
2.67E-02,1.13E-02,1.35E-02,-2.73E-02,-1.29E-02,-2.63E-03,2017/6/8
2.72E-02,1.11E-02,1.16E-02,-2.55E-02,-1.27E-02,-1.88E-03,2017/6/8
2.75E-02,1.26E-02,1.21E-02,-2.50E-02,-1.27E-02,-2.32E-03,2017/6/8
2.63E-02,1.15E-02,1.12E-02,-2.25E-02,-1.23E-02,-1.01E-03,2017/6/8
2.65E-02,1.17E-02,1.29E-02,-2.42E-02,-1.17E-02,-8.39E-04,2017/6/8
2.62E-02,1.19E-02,1.41E-02,-2.42E-02,-1.07E-02,-1.54E-03,2017/6/8
2.61E-02,1.28E-02,1.37E-02,-2.36E-02,-1.09E-02,-1.53E-03,2017/6/8
2.72E-02,1.22E-02,1.26E-02,-2.35E-02,-1.01E-02,-1.56E-03,2017/6/8
2.84E-02,1.22E-02,1.36E-02,-2.43E-02,-9.81E-03,-2.88E-03,2017/6/8
2.81E-02,1.30E-02,1.29E-02,-2.52E-02,-9.14E-03,-1.49E-03,2017/6/8
2.74E-02,1.24E-02,1.29E-02,-2.47E-02,-9.00E-03,2.42E-04,2017/6/8
2.90E-02,1.07E-02,1.21E-02,-2.45E-02,-8.34E-03,1.25E-03,2017/6/8
3.05E-02,9.96E-03,9.91E-03,-2.35E-02,-8.20E-03,1.13E-04,2017/6/8
2.90E-02,7.80E-03,9.61E-03,-2.34E-02,-7.50E-03,6.00E-04,2017/6/8
3.03E-02,7.62E-03,8.55E-03,-2.19E-02,-6.22E-03,1.42E-03,2017/6/8
3.01E-02,9.07E-03,8.42E-03,-2.01E-02,-5.51E-03,2.87E-03,2017/6/8
3.02E-02,8.19E-03,1.05E-02,-2.00E-02,-4.93E-03,2.08E-03,2017/6/8
2.96E-02,9.12E-03,1.09E-02,-1.95E-02,-6.76E-03,1.47E-03,2017/6/8
3.00E-02,1.02E-02,9.82E-03,-1.91E-02,-6.62E-03,1.92E-03,2017/6/8
3.04E-02,1.06E-02,8.98E-03,-2.04E-02,-6.96E-03,2.27E-03,2017/6/8
3.15E-02,9.73E-03,9.08E-03,-2.01E-02,-7.42E-03,3.72E-03,2017/6/8
3.26E-02,1.14E-02,8.91E-03,-2.07E-02,-8.02E-03,4.38E-03,2017/6/8
3.16E-02,1.05E-02,9.03E-03,-2.06E-02,-8.32E-03,2.79E-03,2017/6/8
3.14E-02,9.34E-03,9.49E-03,-2.08E-02,-1.02E-02,3.55E-03,2017/6/8
3.09E-02,9.77E-03,8.90E-03,-2.05E-02,-1.13E-02,4.62E-03,2017/6/8
3.15E-02,9.05E-03,9.36E-03,-2.10E-02,-1.04E-02,5.72E-03,2017/6/8
3.24E-02,8.10E-03,1.08E-02,-2.08E-02,-1.08E-02,4.46E-03,2017/6/8
3.29E-02,9.87E-03,1.14E-02,-2.03E-02,-1.07E-02,4.76E-03,2017/6/8
3.06E-02,1.06E-02,1.24E-02,-2.00E-02,-1.24E-02,4.90E-03,2017/6/8
3.10E-02,1.08E-02,1.12E-02,-2.01E-02,-1.33E-02,4.19E-03,2017/6/8
3.22E-02,1.15E-02,1.26E-02,-2.12E-02,-1.40E-02,3.01E-03,2017/6/8
3.19E-02,1.16E-02,1.50E-02,-2.15E-02,-1.25E-02,4.45E-03,2017/6/8
3.16E-02,1.17E-02,1.39E-02,-2.25E-02,-1.32E-02,4.70E-03,2017/6/8
3.11E-02,1.15E-02,1.47E-02,-2.34E-02,-1.22E-02,3.61E-03,2017/6/8
3.20E-02,1.01E-02,1.37E-02,-2.54E-02,-1.19E-02,3.05E-03,2017/6/8
3.30E-02,1.01E-02,1.44E-02,-2.61E-02,-1.26E-02,1.44E-03,2017/6/8
3.34E-02,1.11E-02,1.41E-02,-2.52E-02,-1.25E-02,1.35E-03,2017/6/8
3.25E-02,1.07E-02,1.54E-02,-2.58E-02,-1.04E-02,3.38E-04,2017/6/8
3.34E-02,1.04E-02,1.58E-02,-2.60E-02,-9.51E-03,2.03E-03,2017/6/8
3.31E-02,1.27E-02,1.55E-02,-2.72E-02,-9.07E-03,3.06E-03,2017/6/8
3.28E-02,1.25E-02,1.60E-02,-2.63E-02,-1.15E-02,2.82E-03,2017/6/8
3.08E-02,1.33E-02,1.55E-02,-2.77E-02,-1.06E-02,2.77E-03,2017/6/8
3.23E-02,1.29E-02,1.42E-02,-2.82E-02,-9.40E-03,3.17E-03,2017/6/8
3.03E-02,1.25E-02,1.39E-02,-2.77E-02,-7.98E-03,5.08E-03,2017/6/8
3.03E-02,1.29E-02,1.26E-02,-2.86E-02,-9.08E-03,6.77E-03,2017/6/8
2.97E-02,1.39E-02,1.23E-02,-2.87E-02,-1.02E-02,7.73E-03,2017/6/8
2.88E-02,1.35E-02,1.34E-02,-2.89E-02,-9.99E-03,7.74E-03,2017/6/8
2.98E-02,1.43E-02,1.28E-02,-2.83E-02,-9.65E-03,7.75E-03,2017/6/8
3.14E-02,1.47E-02,1.19E-02,-3.05E-02,-9.53E-03,7.35E-03,2017/6/8
3.02E-02,1.36E-02,1.23E-02,-3.16E-02,-8.00E-03,7.38E-03,2017/6/8
3.07E-02,1.31E-02,1.30E-02,-3.18E-02,-7.63E-03,6.07E-03,2017/6/8
3.09E-02,1.13E-02,1.25E-02,-3.00E-02,-7.79E-03,6.30E-03,2017/6/8
3.22E-02,1.16E-02,1.28E-02,-2.95E-02,-7.27E-03,7.68E-03,2017/6/8
3.18E-02,1.23E-02,1.32E-02,-3.01E-02,-7.71E-03,7.82E-03,2017/6/8
3.34E-02,1.12E-02,1.36E-02,-2.98E-02,-7.11E-03,7.45E-03,2017/6/8
3.23E-02,1.15E-02,1.55E-02,-2.93E-02,-7.74E-03,7.62E-03,2017/6/8
3.11E-02,1.19E-02,1.35E-02,-2.80E-02,-8.29E-03,7.85E-03,2017/6/8
3.09E-02,1.25E-02,1.30E-02,-2.76E-02,-9.18E-03,9.50E-03,2017/6/8
3.18E-02,1.30E-02,1.32E-02,-2.77E-02,-1.01E-02,1.10E-02,2017/6/8
3.09E-02,1.13E-02,1.51E-02,-2.89E-02,-1.21E-02,9.08E-03,2017/6/8
3.08E-02,9.87E-03,1.70E-02,-2.88E-02,-1.36E-02,8.96E-03,2017/6/8
2.92E-02,1.09E-02,1.76E-02,-2.80E-02,-1.47E-02,8.91E-03,2017/6/8
2.95E-02,9.95E-03,1.78E-02,-2.84E-02,-1.25E-02,1.04E-02,2017/6/8
3.03E-02,9.75E-03,1.67E-02,-2.67E-02,-1.07E-02,1.09E-02,2017/6/8
2.96E-02,9.57E-03,1.67E-02,-2.59E-02,-1.23E-02,1.05E-02,2017/6/8
2.86E-02,1.14E-02,1.78E-02,-2.50E-02,-1.32E-02,9.98E-03,2017/6/8
2.81E-02,1.16E-02,1.61E-02,-2.68E-02,-1.27E-02,1.02E-02,2017/6/8
2.88E-02,1.13E-02,1.72E-02,-2.63E-02,-1.36E-02,1.10E-02,2017/6/8
2.89E-02,1.22E-02,1.82E-02,-2.67E-02,-1.35E-02,1.12E-02,2017/6/8
2.97E-02,1.15E-02,1.69E-02,-2.67E-02,-1.33E-02,1.25E-02,2017/6/8
2.87E-02,1.18E-02,1.48E-02,-2.53E-02,-1.42E-02,1.26E-02,2017/6/8
2.90E-02,1.13E-02,1.49E-02,-2.31E-02,-1.32E-02,1.19E-02,2017/6/8
2.93E-02,1.23E-02,1.68E-02,-2.41E-02,-1.25E-02,1.20E-02,2017/6/8
2.84E-02,1.13E-02,1.68E-02,-2.37E-02,-1.10E-02,1.25E-02,2017/6/8
2.90E-02,1.22E-02,1.88E-02,-2.32E-02,-1.06E-02,1.30E-02,2017/6/8
3.17E-02,1.18E-02,1.90E-02,-2.21E-02,-1.04E-02,1.27E-02,2017/6/8
3.32E-02,1.12E-02,1.81E-02,-2.25E-02,-7.26E-03,1.35E-02,2017/6/8
3.34E-02,9.27E-03,1.81E-02,-2.32E-02,-8.03E-03,1.34E-02,2017/6/8
3.35E-02,7.68E-03,1.83E-02,-2.31E-02,-8.70E-03,1.34E-02,2017/6/8
3.41E-02,9.25E-03,1.91E-02,-2.33E-02,-8.46E-03,1.39E-02,2017/6/8
3.13E-02,1.14E-02,1.93E-02,-2.26E-02,-6.91E-03,1.58E-02,2017/6/8
3.34E-02,1.26E-02,1.92E-02,-2.21E-02,-7.30E-03,1.63E-02,2017/6/8
3.34E-02,1.40E-02,1.87E-02,-2.33E-02,-7.01E-03,1.70E-02,2017/6/8
3.49E-02,1.45E-02,1.79E-02,-2.38E-02,-7.55E-03,1.87E-02,2017/6/8
3.54E-02,1.42E-02,1.84E-02,-2.35E-02,-8.52E-03,1.84E-02,2017/6/8
3.49E-02,1.30E-02,1.99E-02,-2.49E-02,-8.23E-03,1.91E-02,2017/6/8
3.60E-02,1.24E-02,1.90E-02,-2.33E-02,-8.34E-03,2.07E-02,2017/6/8
3.48E-02,1.24E-02,1.88E-02,-2.30E-02,-7.01E-03,1.97E-02,2017/6/8
3.67E-02,1.33E-02,1.98E-02,-2.17E-02,-6.67E-03,2.01E-02,2017/6/8
3.64E-02,1.06E-02,1.94E-02,-2.07E-02,-7.99E-03,1.93E-02,2017/6/8
3.58E-02,1.07E-02,1.89E-02,-2.05E-02,-8.15E-03,1.91E-02,2017/6/8
3.60E-02,1.12E-02,2.09E-02,-2.10E-02,-8.22E-03,1.88E-02,2017/6/8
3.59E-02,8.20E-03,2.12E-02,-1.92E-02,-9.33E-03,1.87E-02,2017/6/8
3.49E-02,6.25E-03,2.24E-02,-1.86E-02,-9.54E-03,1.83E-02,2017/6/8
3.30E-02,6.35E-03,2.18E-02,-1.69E-02,-1.18E-02,1.76E-02,2017/6/8
3.45E-02,4.31E-03,2.25E-02,-1.68E-02,-1.17E-02,1.87E-02,2017/6/8
3.39E-02,3.80E-03,2.24E-02,-1.53E-02,-1.33E-02,1.82E-02,2017/6/8
3.36E-02,4.45E-03,2.41E-02,-1.52E-02,-1.20E-02,1.87E-02,2017/6/8
3.44E-02,3.40E-03,2.33E-02,-1.60E-02,-1.15E-02,1.99E-02,2017/6/8
3.44E-02,5.03E-03,2.43E-02,-1.53E-02,-9.91E-03,1.90E-02,2017/6/8
3.24E-02,5.99E-03,2.31E-02,-1.43E-02,-9.88E-03,1.71E-02,2017/6/8
3.30E-02,4.60E-03,2.29E-02,-1.44E-02,-9.25E-03,1.87E-02,2017/6/8
3.46E-02,3.95E-03,2.22E-02,-1.44E-02,-7.15E-03,1.89E-02,2017/6/8
3.54E-02,4.03E-03,2.14E-02,-1.43E-02,-5.59E-03,1.79E-02,2017/6/8
3.64E-02,2.46E-03,2.19E-02,-1.50E-02,-4.42E-03,1.98E-02,2017/6/8
3.39E-02,1.84E-03,2.17E-02,-1.32E-02,-3.55E-03,1.97E-02,2017/6/8
3.32E-02,2.18E-03,2.27E-02,-1.29E-02,-4.20E-03,1.99E-02,2017/6/8
3.24E-02,3.55E-03,2.28E-02,-1.12E-02,-3.01E-03,1.99E-02,2017/6/8
3.29E-02,4.29E-03,2.37E-02,-1.28E-02,-3.50E-03,1.89E-02,2017/6/8
3.34E-02,4.22E-03,2.30E-02,-1.26E-02,-4.54E-03,1.98E-02,2017/6/8
3.35E-02,6.26E-03,2.15E-02,-1.21E-02,-4.48E-03,1.79E-02,2017/6/8
3.34E-02,5.57E-03,2.29E-02,-1.28E-02,-2.66E-03,1.97E-02,2017/6/8
3.37E-02,5.85E-03,2.42E-02,-1.39E-02,-1.41E-03,2.14E-02,2017/6/8
3.39E-02,6.11E-03,2.53E-02,-1.40E-02,-3.09E-04,2.04E-02,2017/6/8
3.70E-02,7.64E-03,2.35E-02,-1.40E-02,5.40E-04,2.10E-02,2017/6/8
3.83E-02,7.00E-03,2.31E-02,-1.51E-02,2.04E-03,2.15E-02,2017/6/8
3.98E-02,8.18E-03,2.17E-02,-1.51E-02,8.04E-04,2.26E-02,2017/6/8
4.05E-02,7.80E-03,2.20E-02,-1.57E-02,2.50E-03,2.09E-02,2017/6/8
4.20E-02,8.17E-03,2.16E-02,-1.51E-02,3.16E-03,2.21E-02,2017/6/8
4.28E-02,8.36E-03,2.20E-02,-1.41E-02,2.90E-03,2.22E-02,2017/6/8
3.95E-02,8.14E-03,2.35E-02,-1.54E-02,3.48E-03,2.42E-02,2017/6/8
4.02E-02,8.98E-03,2.31E-02,-1.69E-02,4.19E-03,2.40E-02,2017/6/8
3.94E-02,9.88E-03,2.26E-02,-1.62E-02,4.27E-03,2.28E-02,2017/6/8
3.96E-02,9.17E-03,2.12E-02,-1.65E-02,4.83E-03,2.38E-02,2017/6/8
4.22E-02,8.86E-03,2.11E-02,-1.65E-02,2.75E-03,2.53E-02,2017/6/8
4.06E-02,1.02E-02,2.18E-02,-1.52E-02,3.13E-03,2.70E-02,2017/6/8
3.76E-02,1.05E-02,2.21E-02,-1.56E-02,1.35E-03,2.85E-02,2017/6/8
3.75E-02,1.08E-02,2.18E-02,-1.52E-02,1.73E-03,2.74E-02,2017/6/8
3.84E-02,9.13E-03,2.15E-02,-1.43E-02,2.60E-03,2.73E-02,2017/6/8
3.88E-02,9.12E-03,2.08E-02,-1.34E-02,2.52E-03,2.76E-02,2017/6/8
3.87E-02,9.28E-03,2.11E-02,-1.29E-02,1.19E-03,2.80E-02,2017/6/8
4.00E-02,8.84E-03,2.01E-02,-1.33E-02,2.29E-03,2.61E-02,2017/6/8
4.08E-02,8.89E-03,1.94E-02,-1.37E-02,2.43E-03,2.67E-02,2017/6/8
4.01E-02,8.12E-03,1.95E-02,-1.37E-02,1.76E-03,2.89E-02,2017/6/8
3.86E-02,9.60E-03,1.94E-02,-1.27E-02,1.93E-03,2.95E-02,2017/6/8
3.83E-02,9.05E-03,2.00E-02,-1.28E-02,3.02E-03,3.04E-02,2017/6/8
4.05E-02,7.35E-03,1.99E-02,-1.29E-02,2.90E-03,3.08E-02,2017/6/8
4.23E-02,7.35E-03,1.81E-02,-1.40E-02,5.95E-03,3.15E-02,2017/6/8
4.24E-02,8.56E-03,1.69E-02,-1.33E-02,5.90E-03,3.20E-02,2017/6/8
4.29E-02,1.01E-02,1.55E-02,-1.28E-02,4.83E-03,3.08E-02,2017/6/8
4.30E-02,1.22E-02,1.60E-02,-1.31E-02,5.20E-03,3.12E-02,2017/6/8
4.26E-02,7.80E-03,1.54E-02,-1.19E-02,4.61E-03,3.18E-02,2017/6/8
4.24E-02,8.89E-03,1.73E-02,-1.14E-02,5.22E-03,3.14E-02,2017/6/8
4.34E-02,8.43E-03,1.82E-02,-1.16E-02,4.75E-03,3.18E-02,2017/6/8
4.37E-02,8.88E-03,1.90E-02,-1.29E-02,3.13E-03,2.92E-02,2017/6/8
4.44E-02,9.13E-03,1.95E-02,-1.19E-02,2.46E-03,2.97E-02,2017/6/8
4.47E-02,9.82E-03,2.01E-02,-9.92E-03,3.25E-03,2.91E-02,2017/6/8
4.57E-02,9.80E-03,1.92E-02,-9.57E-03,2.91E-03,2.84E-02,2017/6/8
4.63E-02,1.01E-02,2.04E-02,-8.97E-03,3.66E-03,2.87E-02,2017/6/8
4.59E-02,8.70E-03,1.96E-02,-8.32E-03,6.57E-03,2.79E-02,2017/6/8
4.60E-02,1.07E-02,1.97E-02,-7.60E-03,6.63E-03,2.85E-02,2017/6/8
4.63E-02,1.19E-02,1.95E-02,-8.59E-03,6.31E-03,2.83E-02,2017/6/8
4.66E-02,1.09E-02,1.99E-02,-9.07E-03,4.25E-03,2.83E-02,2017/6/8
4.71E-02,9.44E-03,2.17E-02,-9.05E-03,4.02E-03,2.82E-02,2017/6/8
4.65E-02,1.03E-02,2.06E-02,-8.63E-03,4.60E-03,2.97E-02,2017/6/8
4.50E-02,8.52E-03,2.16E-02,-1.03E-02,5.70E-03,3.06E-02,2017/6/8
4.40E-02,8.44E-03,2.29E-02,-1.05E-02,4.74E-03,3.04E-02,2017/6/8
4.24E-02,6.62E-03,2.33E-02,-1.08E-02,5.72E-03,2.95E-02,2017/6/8
4.12E-02,6.03E-03,2.45E-02,-1.17E-02,5.85E-03,3.04E-02,2017/6/8
4.07E-02,8.40E-03,2.49E-02,-1.27E-02,4.90E-03,3.02E-02,2017/6/8
4.14E-02,9.58E-03,2.35E-02,-1.27E-02,4.86E-03,2.94E-02,2017/6/8
4.24E-02,1.13E-02,2.23E-02,-1.24E-02,4.41E-03,2.91E-02,2017/6/8
3.93E-02,1.11E-02,2.19E-02,-1.20E-02,6.08E-03,2.97E-02,2017/6/8
4.02E-02,1.06E-02,2.11E-02,-1.31E-02,6.44E-03,2.97E-02,2017/6/8
4.01E-02,9.90E-03,2.03E-02,-1.23E-02,6.44E-03,2.85E-02,2017/6/8
3.77E-02,1.01E-02,2.23E-02,-1.06E-02,5.66E-03,2.88E-02,2017/6/8
4.00E-02,9.40E-03,2.41E-02,-1.01E-02,5.22E-03,2.67E-02,2017/6/8
4.04E-02,8.23E-03,2.44E-02,-9.36E-03,6.13E-03,2.47E-02,2017/6/8
3.98E-02,7.22E-03,2.42E-02,-8.93E-03,4.92E-03,2.28E-02,2017/6/8
3.99E-02,9.07E-03,2.17E-02,-1.02E-02,5.65E-03,2.35E-02,2017/6/8
3.92E-02,8.94E-03,2.04E-02,-9.31E-03,6.75E-03,2.52E-02,2017/6/8
3.92E-02,8.49E-03,2.04E-02,-1.02E-02,7.70E-03,2.55E-02,2017/6/8
3.94E-02,8.35E-03,2.07E-02,-1.01E-02,7.38E-03,2.50E-02,2017/6/8
4.11E-02,1.04E-02,1.95E-02,-9.67E-03,6.50E-03,2.59E-02,2017/6/8
4.20E-02,9.18E-03,1.93E-02,-1.06E-02,7.03E-03,2.70E-02,2017/6/8
4.25E-02,7.54E-03,2.08E-02,-1.09E-02,7.50E-03,2.66E-02,2017/6/8
4.28E-02,5.52E-03,2.10E-02,-1.10E-02,7.00E-03,2.71E-02,2017/6/8
4.23E-02,5.86E-03,2.13E-02,-9.61E-03,4.79E-03,2.58E-02,2017/6/8
4.18E-02,6.38E-03,2.23E-02,-1.10E-02,5.90E-03,2.58E-02,2017/6/8
4.23E-02,5.87E-03,2.24E-02,-1.17E-02,6.27E-03,2.61E-02,2017/6/8
4.19E-02,6.18E-03,2.28E-02,-1.15E-02,6.63E-03,2.70E-02,2017/6/8
4.26E-02,6.92E-03,2.33E-02,-1.37E-02,6.68E-03,2.74E-02,2017/6/8
4.20E-02,7.62E-03,2.43E-02,-1.30E-02,8.04E-03,2.80E-02,2017/6/8
4.32E-02,7.45E-03,2.37E-02,-1.27E-02,7.02E-03,2.92E-02,2017/6/8
4.31E-02,9.08E-03,2.38E-02,-1.20E-02,7.60E-03,2.99E-02,2017/6/8
4.39E-02,8.68E-03,2.23E-02,-1.22E-02,7.12E-03,3.05E-02,2017/6/8
4.45E-02,9.39E-03,2.25E-02,-1.30E-02,6.66E-03,2.93E-02,2017/6/8
4.33E-02,9.77E-03,2.28E-02,-1.23E-02,8.50E-03,3.06E-02,2017/6/8
4.38E-02,9.75E-03,2.36E-02,-1.31E-02,9.31E-03,3.11E-02,2017/6/8
4.33E-02,1.02E-02,2.48E-02,-1.43E-02,1.04E-02,2.86E-02,2017/6/8
4.41E-02,1.02E-02,2.31E-02,-1.56E-02,9.01E-03,2.88E-02,2017/6/8
4.25E-02,8.69E-03,2.30E-02,-1.61E-02,9.58E-03,3.01E-02,2017/6/8
4.39E-02,9.27E-03,2.43E-02,-1.69E-02,9.97E-03,3.18E-02,2017/6/8
4.52E-02,9.54E-03,2.44E-02,-1.64E-02,9.18E-03,3.40E-02,2017/6/8
4.67E-02,8.89E-03,2.33E-02,-1.70E-02,6.65E-03,3.56E-02,2017/6/8
4.62E-02,1.01E-02,2.48E-02,-1.76E-02,5.32E-03,3.56E-02,2017/6/8
4.44E-02,1.08E-02,2.47E-02,-1.71E-02,5.35E-03,3.47E-02,2017/6/8
4.51E-02,1.15E-02,2.48E-02,-1.59E-02,5.21E-03,3.40E-02,2017/6/8
4.34E-02,1.07E-02,2.67E-02,-1.81E-02,5.33E-03,3.41E-02,2017/6/8
4.62E-02,1.19E-02,2.87E-02,-1.91E-02,4.98E-03,3.40E-02,2017/6/8
4.62E-02,1.30E-02,2.76E-02,-1.88E-02,4.19E-03,3.29E-02,2017/6/8
4.71E-02,1.34E-02,2.75E-02,-1.58E-02,4.47E-03,3.17E-02,2017/6/8
4.61E-02,1.39E-02,2.73E-02,-1.70E-02,4.85E-03,3.24E-02,2017/6/8
4.54E-02,1.45E-02,2.67E-02,-1.74E-02,5.44E-03,3.08E-02,2017/6/8
4.64E-02,1.60E-02,2.63E-02,-1.60E-02,4.98E-03,3.01E-02,2017/6/8
4.59E-02,1.61E-02,2.70E-02,-1.55E-02,5.55E-03,3.01E-02,2017/6/8
4.74E-02,1.53E-02,2.53E-02,-1.77E-02,5.48E-03,2.82E-02,2017/6/8
4.71E-02,1.56E-02,2.45E-02,-1.66E-02,6.49E-03,2.84E-02,2017/6/8
4.66E-02,1.38E-02,2.42E-02,-1.63E-02,6.55E-03,2.86E-02,2017/6/8
4.55E-02,1.19E-02,2.43E-02,-1.65E-02,5.08E-03,2.84E-02,2017/6/8
4.66E-02,1.11E-02,2.30E-02,-1.69E-02,5.21E-03,2.80E-02,2017/6/9
4.65E-02,1.11E-02,2.27E-02,-1.55E-02,5.98E-03,2.75E-02,2017/6/10
4.51E-02,1.05E-02,2.07E-02,-1.50E-02,4.82E-03,2.73E-02,2017/6/10
4.50E-02,9.65E-03,1.99E-02,-1.47E-02,4.88E-03,2.83E-02,2017/6/10
4.41E-02,9.92E-03,1.89E-02,-1.61E-02,6.27E-03,2.80E-02,2017/6/10
4.40E-02,1.07E-02,1.80E-02,-1.77E-02,7.59E-03,2.84E-02,2017/6/10
4.25E-02,9.39E-03,1.92E-02,-1.79E-02,6.83E-03,2.81E-02,2017/6/10
4.19E-02,9.07E-03,2.26E-02,-1.79E-02,6.34E-03,2.78E-02,2017/6/10
4.25E-02,9.86E-03,2.11E-02,-1.87E-02,6.42E-03,2.82E-02,2017/6/10
4.38E-02,9.28E-03,1.99E-02,-1.69E-02,5.58E-03,2.80E-02,2017/6/10
4.39E-02,9.68E-03,1.90E-02,-1.69E-02,4.39E-03,2.78E-02,2017/6/10
4.38E-02,9.34E-03,1.92E-02,-1.65E-02,5.81E-03,2.69E-02,2017/6/10
4.43E-02,9.13E-03,1.83E-02,-1.60E-02,5.66E-03,2.70E-02,2017/6/10
4.35E-02,8.84E-03,1.88E-02,-1.59E-02,5.45E-03,2.71E-02,2017/6/10
4.19E-02,8.86E-03,1.85E-02,-1.53E-02,5.55E-03,2.69E-02,2017/6/10
4.30E-02,8.86E-03,2.04E-02,-1.47E-02,6.20E-03,2.54E-02,2017/6/10
4.40E-02,9.09E-03,2.06E-02,-1.50E-02,7.78E-03,2.48E-02,2017/6/10
4.33E-02,1.00E-02,1.97E-02,-1.38E-02,7.85E-03,2.42E-02,2017/6/10
4.23E-02,1.23E-02,1.81E-02,-1.28E-02,6.34E-03,2.39E-02,2017/6/10
4.08E-02,1.31E-02,1.85E-02,-1.39E-02,5.56E-03,2.35E-02,2017/6/10
4.12E-02,1.32E-02,2.02E-02,-1.47E-02,5.41E-03,2.28E-02,2017/6/10
4.06E-02,1.27E-02,1.99E-02,-1.46E-02,6.34E-03,2.23E-02,2017/6/10
4.01E-02,1.11E-02,1.88E-02,-1.48E-02,6.28E-03,2.29E-02,2017/6/10
4.12E-02,1.10E-02,1.84E-02,-1.48E-02,6.41E-03,2.29E-02,2017/6/10
4.17E-02,1.25E-02,1.78E-02,-1.51E-02,5.23E-03,2.41E-02,2017/6/10
4.06E-02,1.17E-02,1.74E-02,-1.51E-02,4.46E-03,2.32E-02,2017/6/10
4.00E-02,1.14E-02,1.72E-02,-1.57E-02,4.32E-03,2.22E-02,2017/6/10
4.10E-02,1.17E-02,1.83E-02,-1.52E-02,4.39E-03,2.25E-02,2017/6/10
4.08E-02,1.18E-02,1.77E-02,-1.43E-02,5.52E-03,2.20E-02,2017/6/10
4.26E-02,1.14E-02,1.88E-02,-1.42E-02,6.10E-03,2.03E-02,2017/6/10
4.25E-02,1.37E-02,1.90E-02,-1.52E-02,6.60E-03,2.00E-02,2017/6/10
4.26E-02,1.36E-02,1.78E-02,-1.28E-02,5.68E-03,1.94E-02,2017/6/10
4.25E-02,1.44E-02,1.84E-02,-1.21E-02,5.91E-03,1.92E-02,2017/6/10
4.32E-02,1.44E-02,2.00E-02,-1.12E-02,5.98E-03,1.84E-02,2017/6/10
4.33E-02,1.59E-02,2.06E-02,-1.03E-02,4.66E-03,1.97E-02,2017/6/10
4.40E-02,1.54E-02,2.14E-02,-8.85E-03,4.19E-03,1.99E-02,2017/6/10
4.26E-02,1.73E-02,2.22E-02,-8.16E-03,4.54E-03,1.96E-02,2017/6/10
4.23E-02,1.77E-02,2.31E-02,-9.32E-03,3.69E-03,1.98E-02,2017/6/10
4.20E-02,1.62E-02,2.17E-02,-8.67E-03,3.48E-03,2.05E-02,2017/6/10
4.31E-02,1.63E-02,1.99E-02,-9.73E-03,3.49E-03,1.93E-02,2017/6/10
4.32E-02,1.41E-02,2.08E-02,-9.53E-03,3.42E-03,2.05E-02,2017/6/10
4.47E-02,1.42E-02,2.20E-02,-1.01E-02,2.17E-03,1.82E-02,2017/6/10
4.67E-02,1.36E-02,2.08E-02,-9.10E-03,8.92E-04,1.99E-02,2017/6/10
4.72E-02,1.15E-02,2.03E-02,-9.24E-03,1.18E-03,2.08E-02,2017/6/10
4.73E-02,1.22E-02,1.89E-02,-7.62E-03,8.35E-04,1.92E-02,2017/6/10
4.60E-02,9.60E-03,1.66E-02,-7.67E-03,2.30E-03,1.88E-02,2017/6/10
4.74E-02,8.89E-03,1.61E-02,-7.32E-03,6.46E-04,2.04E-02,2017/6/10
4.66E-02,8.77E-03,1.72E-02,-8.68E-03,8.57E-04,1.86E-02,2017/6/10
4.76E-02,9.42E-03,1.68E-02,-1.11E-02,8.46E-04,1.89E-02,2017/6/10
5.00E-02,8.88E-03,1.61E-02,-1.05E-02,7.83E-04,2.08E-02,2017/6/10
4.98E-02,9.00E-03,1.69E-02,-1.04E-02,7.54E-04,2.28E-02,2017/6/10
4.92E-02,1.07E-02,1.76E-02,-1.17E-02,3.06E-04,2.47E-02,2017/6/10
4.79E-02,1.36E-02,1.81E-02,-1.11E-02,-3.55E-05,2.48E-02,2017/6/10
4.76E-02,1.22E-02,1.77E-02,-1.09E-02,1.53E-03,2.63E-02,2017/6/10
4.89E-02,1.32E-02,1.74E-02,-1.01E-02,1.82E-03,2.67E-02,2017/6/10
5.03E-02,1.45E-02,1.83E-02,-9.04E-03,2.05E-03,2.73E-02,2017/6/10
4.90E-02,1.37E-02,1.87E-02,-9.31E-03,1.88E-03,2.59E-02,2017/6/10
4.72E-02,1.34E-02,1.99E-02,-1.10E-02,2.85E-03,2.36E-02,2017/6/10
4.80E-02,1.30E-02,1.81E-02,-1.14E-02,2.40E-03,2.17E-02,2017/6/10
4.88E-02,1.25E-02,1.77E-02,-1.23E-02,3.00E-03,2.11E-02,2017/6/10
4.80E-02,1.21E-02,1.70E-02,-1.30E-02,2.26E-03,2.14E-02,2017/6/10
4.85E-02,1.32E-02,1.63E-02,-1.46E-02,1.79E-03,2.11E-02,2017/6/10
4.74E-02,1.22E-02,1.63E-02,-1.54E-02,2.08E-03,2.10E-02,2017/6/10
4.65E-02,1.22E-02,1.47E-02,-1.57E-02,6.97E-04,2.09E-02,2017/6/10
4.67E-02,1.20E-02,1.47E-02,-1.61E-02,-7.69E-04,2.18E-02,2017/6/10
4.91E-02,1.40E-02,1.45E-02,-1.57E-02,-1.62E-03,2.57E-02,2017/6/10
4.95E-02,1.17E-02,1.41E-02,-1.54E-02,-1.52E-03,2.67E-02,2017/6/10
5.03E-02,1.17E-02,1.30E-02,-1.65E-02,-8.10E-04,2.76E-02,2017/6/10
4.89E-02,1.07E-02,1.43E-02,-1.98E-02,-6.55E-04,2.67E-02,2017/6/10
4.97E-02,1.07E-02,1.31E-02,-2.04E-02,-3.73E-03,2.49E-02,2017/6/10
4.97E-02,1.00E-02,1.48E-02,-1.85E-02,-4.00E-03,2.58E-02,2017/6/10
5.02E-02,9.90E-03,1.37E-02,-1.72E-02,-4.81E-03,2.66E-02,2017/6/10
4.99E-02,1.12E-02,1.39E-02,-1.58E-02,-3.29E-03,2.64E-02,2017/6/10
4.91E-02,1.08E-02,1.58E-02,-1.65E-02,-4.07E-03,2.50E-02,2017/6/10
4.73E-02,1.06E-02,1.76E-02,-1.70E-02,-1.72E-03,2.33E-02,2017/6/10
4.64E-02,1.06E-02,1.59E-02,-1.64E-02,-1.62E-03,2.27E-02,2017/6/10
4.66E-02,1.06E-02,1.70E-02,-1.87E-02,-1.88E-03,2.17E-02,2017/6/10
4.68E-02,9.19E-03,1.54E-02,-1.97E-02,-7.74E-04,2.00E-02,2017/6/10
4.63E-02,7.94E-03,1.52E-02,-2.01E-02,-2.37E-03,1.85E-02,2017/6/10
4.56E-02,7.82E-03,1.59E-02,-1.94E-02,-1.56E-03,1.57E-02,2017/6/10
4.59E-02,6.63E-03,1.69E-02,-2.11E-02,-2.46E-03,1.61E-02,2017/6/10
4.42E-02,8.78E-03,1.78E-02,-2.25E-02,-3.20E-03,1.47E-02,2017/6/10
4.44E-02,8.91E-03,1.82E-02,-2.28E-02,-2.27E-03,1.56E-02,2017/6/10
4.50E-02,8.89E-03,1.79E-02,-2.18E-02,-2.44E-03,1.58E-02,2017/6/10
4.63E-02,9.22E-03,1.68E-02,-2.34E-02,-9.49E-04,1.55E-02,2017/6/10
4.70E-02,9.98E-03,1.39E-02,-2.37E-02,-1.91E-03,1.55E-02,2017/6/10
4.72E-02,1.05E-02,1.41E-02,-2.20E-02,-3.03E-03,1.49E-02,2017/6/10
4.67E-02,9.74E-03,1.24E-02,-2.23E-02,-3.22E-03,1.35E-02,2017/6/10
4.56E-02,1.03E-02,1.14E-02,-2.17E-02,-4.23E-03,1.27E-02,2017/6/10
4.54E-02,1.11E-02,1.19E-02,-1.95E-02,-5.98E-03,1.13E-02,2017/6/10
4.67E-02,1.11E-02,1.20E-02,-1.84E-02,-4.46E-03,9.64E-03,2017/6/10
4.99E-02,8.29E-03,1.32E-02,-1.81E-02,-5.35E-03,9.05E-03,2017/6/10
5.20E-02,7.64E-03,1.18E-02,-1.86E-02,-4.78E-03,8.28E-03,2017/6/10
5.28E-02,7.80E-03,1.39E-02,-1.86E-02,-4.50E-03,7.79E-03,2017/6/10
5.30E-02,9.46E-03,1.55E-02,-1.89E-02,-7.21E-03,7.49E-03,2017/6/10
5.17E-02,9.57E-03,1.39E-02,-2.03E-02,-6.88E-03,8.23E-03,2017/6/10
5.16E-02,9.40E-03,1.37E-02,-2.07E-02,-6.30E-03,8.08E-03,2017/6/10
4.84E-02,8.29E-03,1.18E-02,-2.05E-02,-8.35E-03,7.78E-03,2017/6/10
4.76E-02,7.80E-03,1.41E-02,-2.09E-02,-9.49E-03,7.90E-03,2017/6/10
4.75E-02,8.19E-03,1.29E-02,-2.18E-02,-8.45E-03,7.80E-03,2017/6/10
4.77E-02,9.88E-03,1.14E-02,-1.78E-02,-9.30E-03,7.93E-03,2017/6/10
4.79E-02,9.57E-03,1.13E-02,-1.88E-02,-9.42E-03,8.13E-03,2017/6/10
4.80E-02,9.93E-03,1.06E-02,-1.93E-02,-9.17E-03,7.67E-03,2017/6/10
4.63E-02,1.02E-02,1.31E-02,-1.99E-02,-9.22E-03,6.48E-03,2017/6/10
4.44E-02,1.26E-02,1.30E-02,-1.88E-02,-9.40E-03,7.53E-03,2017/6/10
4.38E-02,1.28E-02,1.39E-02,-1.96E-02,-9.48E-03,8.99E-03,2017/6/10
4.62E-02,1.39E-02,1.49E-02,-1.96E-02,-8.67E-03,8.82E-03,2017/6/10
4.54E-02,1.54E-02,1.33E-02,-1.88E-02,-7.83E-03,9.19E-03,2017/6/10
4.65E-02,1.57E-02,1.32E-02,-2.00E-02,-8.19E-03,1.07E-02,2017/6/10
4.57E-02,1.33E-02,1.38E-02,-1.98E-02,-8.41E-03,1.14E-02,2017/6/10
4.60E-02,1.39E-02,1.29E-02,-1.92E-02,-8.94E-03,1.29E-02,2017/6/10
4.55E-02,1.46E-02,1.24E-02,-1.95E-02,-1.00E-02,1.32E-02,2017/6/10
4.60E-02,1.32E-02,1.15E-02,-1.90E-02,-9.79E-03,1.32E-02,2017/6/10
4.61E-02,1.27E-02,1.30E-02,-2.01E-02,-1.12E-02,1.30E-02,2017/6/10
4.34E-02,1.47E-02,1.34E-02,-1.83E-02,-1.28E-02,1.35E-02,2017/6/10
4.28E-02,1.54E-02,1.41E-02,-1.70E-02,-1.32E-02,1.25E-02,2017/6/10
4.37E-02,1.51E-02,1.18E-02,-1.62E-02,-1.39E-02,1.49E-02,2017/6/10
4.44E-02,1.50E-02,1.09E-02,-1.86E-02,-1.57E-02,1.60E-02,2017/6/10
4.38E-02,1.34E-02,1.06E-02,-1.77E-02,-1.60E-02,1.66E-02,2017/6/10
4.33E-02,1.23E-02,1.09E-02,-1.82E-02,-1.63E-02,1.58E-02,2017/6/10
4.29E-02,1.32E-02,1.05E-02,-1.68E-02,-1.65E-02,1.60E-02,2017/6/10
4.15E-02,1.23E-02,8.75E-03,-1.76E-02,-1.46E-02,1.60E-02,2017/6/10
4.10E-02,1.23E-02,9.33E-03,-1.90E-02,-1.32E-02,1.59E-02,2017/6/10
4.19E-02,1.20E-02,8.01E-03,-1.63E-02,-1.32E-02,1.68E-02,2017/6/10
4.01E-02,1.24E-02,9.79E-03,-1.39E-02,-1.26E-02,1.73E-02,2017/6/10
3.90E-02,1.29E-02,9.48E-03,-1.46E-02,-1.35E-02,1.81E-02,2017/6/10
3.90E-02,1.31E-02,9.80E-03,-1.41E-02,-1.57E-02,1.81E-02,2017/6/10
3.94E-02,1.07E-02,9.28E-03,-1.45E-02,-1.70E-02,1.95E-02,2017/6/10
4.07E-02,1.06E-02,9.74E-03,-1.46E-02,-1.73E-02,1.78E-02,2017/6/10
4.12E-02,9.83E-03,9.20E-03,-1.73E-02,-1.78E-02,1.74E-02,2017/6/10
4.14E-02,1.04E-02,1.15E-02,-1.95E-02,-1.83E-02,1.59E-02,2017/6/10
4.12E-02,1.02E-02,1.14E-02,-1.95E-02,-1.85E-02,1.58E-02,2017/6/10
4.10E-02,6.85E-03,1.13E-02,-1.84E-02,-1.88E-02,1.41E-02,2017/6/10
4.21E-02,7.74E-03,1.21E-02,-1.89E-02,-1.88E-02,1.40E-02,2017/6/10
4.23E-02,8.60E-03,1.34E-02,-1.86E-02,-1.89E-02,1.22E-02,2017/6/10
4.40E-02,7.69E-03,1.25E-02,-1.73E-02,-1.93E-02,1.13E-02,2017/6/10
4.46E-02,7.10E-03,1.17E-02,-1.75E-02,-2.01E-02,1.16E-02,2017/6/10
4.49E-02,7.54E-03,1.32E-02,-1.82E-02,-1.87E-02,1.16E-02,2017/6/10
4.53E-02,6.38E-03,1.39E-02,-1.85E-02,-1.95E-02,1.20E-02,2017/6/10
4.61E-02,6.59E-03,1.48E-02,-1.82E-02,-1.97E-02,1.35E-02,2017/6/10
4.63E-02,5.94E-03,1.47E-02,-1.96E-02,-2.03E-02,1.41E-02,2017/6/10
4.80E-02,5.26E-03,1.49E-02,-2.03E-02,-2.19E-02,1.49E-02,2017/6/10
4.74E-02,5.69E-03,1.64E-02,-2.09E-02,-2.12E-02,1.43E-02,2017/6/10
4.75E-02,6.62E-03,1.73E-02,-2.07E-02,-1.97E-02,1.56E-02,2017/6/10
4.68E-02,7.62E-03,1.62E-02,-2.07E-02,-2.04E-02,1.57E-02,2017/6/10
4.68E-02,6.72E-03,1.43E-02,-2.14E-02,-2.02E-02,1.57E-02,2017/6/10
4.84E-02,5.58E-03,1.43E-02,-2.05E-02,-1.91E-02,1.49E-02,2017/6/10
4.85E-02,6.74E-03,1.56E-02,-2.09E-02,-2.02E-02,1.37E-02,2017/6/10
4.85E-02,8.01E-03,1.54E-02,-2.14E-02,-2.00E-02,1.52E-02,2017/6/10
5.05E-02,5.44E-03,1.54E-02,-2.15E-02,-2.26E-02,1.56E-02,2017/6/10
4.90E-02,7.60E-03,1.67E-02,-2.10E-02,-2.31E-02,1.60E-02,2017/6/10
5.08E-02,8.09E-03,1.50E-02,-2.01E-02,-2.35E-02,1.84E-02,2017/6/10
5.10E-02,6.75E-03,1.48E-02,-2.13E-02,-2.33E-02,1.88E-02,2017/6/10
5.21E-02,7.02E-03,1.60E-02,-2.09E-02,-2.30E-02,1.83E-02,2017/6/10
5.28E-02,6.39E-03,1.64E-02,-2.27E-02,-2.47E-02,1.83E-02,2017/6/10
5.40E-02,6.47E-03,1.57E-02,-2.14E-02,-2.36E-02,1.71E-02,2017/6/10
5.45E-02,7.09E-03,1.62E-02,-2.10E-02,-2.45E-02,1.72E-02,2017/6/10
5.43E-02,7.27E-03,1.58E-02,-2.10E-02,-2.51E-02,1.68E-02,2017/6/10
5.47E-02,6.82E-03,1.50E-02,-2.10E-02,-2.47E-02,1.66E-02,2017/6/10
5.41E-02,5.76E-03,1.56E-02,-1.87E-02,-2.64E-02,1.60E-02,2017/6/10
5.54E-02,6.79E-03,1.57E-02,-1.84E-02,-2.63E-02,1.60E-02,2017/6/10
5.44E-02,6.05E-03,1.64E-02,-1.89E-02,-2.81E-02,1.50E-02,2017/6/10
5.31E-02,7.49E-03,1.66E-02,-2.08E-02,-2.74E-02,1.58E-02,2017/6/10
5.21E-02,6.57E-03,1.64E-02,-2.05E-02,-2.77E-02,1.52E-02,2017/6/10
5.19E-02,7.48E-03,1.62E-02,-2.14E-02,-2.85E-02,1.51E-02,2017/6/10
5.17E-02,8.17E-03,1.52E-02,-2.10E-02,-2.72E-02,1.62E-02,2017/6/10
5.15E-02,7.69E-03,1.64E-02,-2.24E-02,-2.72E-02,1.52E-02,2017/6/10
5.14E-02,6.07E-03,1.59E-02,-2.28E-02,-2.81E-02,1.31E-02,2017/6/10
5.16E-02,6.61E-03,1.62E-02,-2.40E-02,-2.73E-02,1.14E-02,2017/6/10
5.13E-02,6.03E-03,1.60E-02,-2.27E-02,-2.52E-02,1.17E-02,2017/6/10
5.05E-02,6.03E-03,1.68E-02,-2.25E-02,-2.43E-02,1.11E-02,2017/6/10
5.11E-02,4.70E-03,1.76E-02,-2.45E-02,-2.41E-02,8.27E-03,2017/6/10
5.07E-02,5.81E-03,1.72E-02,-2.60E-02,-2.32E-02,1.02E-02,2017/6/10
5.19E-02,6.08E-03,1.83E-02,-2.65E-02,-2.35E-02,9.22E-03,2017/6/10
5.11E-02,4.30E-03,1.79E-02,-2.77E-02,-2.40E-02,9.50E-03,2017/6/10
5.15E-02,3.90E-03,1.68E-02,-2.67E-02,-2.49E-02,8.82E-03,2017/6/10
4.98E-02,3.14E-03,1.74E-02,-2.62E-02,-2.41E-02,7.37E-03,2017/6/10
4.86E-02,2.13E-03,1.71E-02,-2.36E-02,-2.54E-02,9.20E-03,2017/6/10
4.81E-02,2.00E-03,1.89E-02,-2.31E-02,-2.57E-02,8.45E-03,2017/6/10
4.88E-02,2.50E-03,1.89E-02,-2.31E-02,-2.61E-02,7.86E-03,2017/6/10
4.89E-02,2.60E-03,1.88E-02,-2.39E-02,-2.66E-02,6.99E-03,2017/6/10
4.76E-02,2.63E-03,1.70E-02,-2.22E-02,-2.70E-02,6.98E-03,2017/6/10
4.91E-02,3.10E-03,1.71E-02,-2.15E-02,-2.89E-02,6.81E-03,2017/6/10
4.82E-02,3.62E-03,1.61E-02,-2.08E-02,-3.02E-02,7.66E-03,2017/6/10
4.70E-02,4.59E-03,1.56E-02,-1.98E-02,-3.13E-02,6.96E-03,2017/6/10
4.62E-02,2.11E-03,1.55E-02,-1.95E-02,-3.11E-02,9.50E-03,2017/6/10
4.50E-02,2.28E-03,1.49E-02,-2.01E-02,-2.98E-02,1.05E-02,2017/6/10
4.56E-02,-2.33E-04,1.51E-02,-2.21E-02,-3.19E-02,9.33E-03,2017/6/10
4.41E-02,-8.11E-04,1.68E-02,-2.25E-02,-3.26E-02,8.00E-03,2017/6/10
4.41E-02,1.95E-04,1.71E-02,-2.29E-02,-3.18E-02,6.55E-03,2017/6/10
4.37E-02,6.79E-04,1.75E-02,-2.31E-02,-3.07E-02,4.19E-03,2017/6/10
4.22E-02,1.76E-03,1.93E-02,-2.46E-02,-3.10E-02,2.94E-03,2017/6/10
4.08E-02,6.60E-04,1.73E-02,-2.64E-02,-3.09E-02,2.31E-03,2017/6/10
4.15E-02,-4.60E-04,1.83E-02,-2.64E-02,-3.02E-02,2.88E-03,2017/6/10
4.10E-02,9.84E-04,2.03E-02,-2.69E-02,-3.08E-02,2.60E-03,2017/6/10
4.22E-02,-1.17E-03,2.12E-02,-2.59E-02,-3.07E-02,3.08E-03,2017/6/10
4.13E-02,-2.11E-03,1.96E-02,-2.47E-02,-3.15E-02,3.44E-03,2017/6/10
4.04E-02,-1.48E-03,1.85E-02,-2.44E-02,-3.10E-02,9.97E-04,2017/6/10
4.17E-02,-8.98E-04,1.88E-02,-2.27E-02,-3.06E-02,1.29E-03,2017/6/10
4.39E-02,1.51E-03,1.72E-02,-2.29E-02,-3.09E-02,2.79E-04,2017/6/10
4.47E-02,1.10E-03,1.67E-02,-2.10E-02,-3.11E-02,2.73E-04,2017/6/10
4.36E-02,3.27E-04,1.78E-02,-2.24E-02,-3.12E-02,-1.99E-04,2017/6/10
4.37E-02,-3.43E-04,1.73E-02,-2.32E-02,-3.11E-02,2.86E-04,2017/6/10
4.26E-02,4.83E-04,1.73E-02,-2.07E-02,-3.14E-02,3.10E-05,2017/6/10
4.14E-02,4.10E-04,1.51E-02,-1.95E-02,-3.38E-02,7.00E-04,2017/6/10
4.23E-02,6.21E-04,1.39E-02,-1.87E-02,-3.44E-02,5.05E-05,2017/6/10
4.29E-02,1.78E-03,1.39E-02,-1.85E-02,-3.36E-02,6.10E-04,2017/6/10
4.29E-02,1.98E-03,1.57E-02,-1.78E-02,-3.30E-02,7.37E-04,2017/6/10
4.21E-02,4.13E-03,1.70E-02,-1.83E-02,-3.47E-02,-1.08E-03,2017/6/10
4.31E-02,3.73E-03,1.79E-02,-1.74E-02,-3.48E-02,-7.40E-04,2017/6/10
4.35E-02,5.78E-03,1.84E-02,-1.55E-02,-3.50E-02,-1.24E-03,2017/6/10
4.33E-02,4.05E-03,1.80E-02,-1.52E-02,-3.58E-02,-8.50E-04,2017/6/10
4.39E-02,4.34E-03,1.75E-02,-1.51E-02,-3.71E-02,-2.93E-03,2017/6/10
4.49E-02,3.80E-03,1.77E-02,-1.45E-02,-3.76E-02,-2.34E-03,2017/6/10
4.44E-02,3.93E-03,1.86E-02,-1.53E-02,-4.01E-02,-3.53E-03,2017/6/10
4.41E-02,2.23E-03,1.91E-02,-1.61E-02,-4.03E-02,-3.45E-03,2017/6/10
4.34E-02,2.02E-03,1.84E-02,-1.63E-02,-3.92E-02,-5.89E-03,2017/6/10
4.27E-02,2.70E-03,1.80E-02,-1.62E-02,-3.87E-02,-5.98E-03,2017/6/10
4.01E-02,3.52E-03,1.84E-02,-1.72E-02,-3.82E-02,-4.83E-03,2017/6/10
3.97E-02,3.52E-03,1.83E-02,-1.67E-02,-3.76E-02,-4.68E-03,2017/6/10
4.11E-02,4.87E-03,1.79E-02,-1.46E-02,-3.76E-02,-4.05E-03,2017/6/10
3.94E-02,4.22E-03,1.79E-02,-1.43E-02,-3.90E-02,-3.90E-03,2017/6/10
3.90E-02,3.86E-03,1.92E-02,-1.53E-02,-3.81E-02,-3.28E-03,2017/6/10
3.68E-02,3.67E-03,1.95E-02,-1.57E-02,-3.77E-02,-3.77E-03,2017/6/10
3.64E-02,5.62E-03,1.93E-02,-1.45E-02,-3.77E-02,-4.55E-03,2017/6/10
3.74E-02,6.55E-03,1.88E-02,-1.59E-02,-3.92E-02,-5.44E-03,2017/6/10
3.77E-02,6.30E-03,1.87E-02,-1.59E-02,-3.85E-02,-5.90E-03,2017/6/10
3.67E-02,7.23E-03,1.67E-02,-1.86E-02,-3.65E-02,-6.38E-03,2017/6/10
3.77E-02,8.18E-03,1.76E-02,-1.80E-02,-3.67E-02,-5.63E-03,2017/6/10
3.61E-02,7.27E-03,1.78E-02,-1.86E-02,-3.70E-02,-4.53E-03,2017/6/10
3.49E-02,6.41E-03,1.74E-02,-1.65E-02,-3.72E-02,-5.63E-03,2017/6/10
3.33E-02,4.75E-03,1.80E-02,-1.67E-02,-3.60E-02,-5.53E-03,2017/6/10
3.54E-02,4.89E-03,1.67E-02,-1.67E-02,-3.57E-02,-5.42E-03,2017/6/10
3.49E-02,4.63E-03,1.55E-02,-1.85E-02,-3.71E-02,-4.83E-03,2017/6/10
3.41E-02,5.33E-03,1.59E-02,-1.83E-02,-3.67E-02,-3.48E-03,2017/6/10
3.43E-02,4.27E-03,1.75E-02,-1.96E-02,-3.80E-02,-5.87E-03,2017/6/10
3.61E-02,4.75E-03,1.87E-02,-1.92E-02,-3.68E-02,-6.32E-03,2017/6/10
3.56E-02,4.39E-03,1.97E-02,-1.71E-02,-3.64E-02,-6.05E-03,2017/6/10
3.48E-02,5.14E-03,2.14E-02,-1.63E-02,-3.56E-02,-6.99E-03,2017/6/10
3.55E-02,6.12E-03,2.24E-02,-1.57E-02,-3.60E-02,-7.77E-03,2017/6/10
3.48E-02,5.71E-03,2.13E-02,-1.76E-02,-3.67E-02,-8.03E-03,2017/6/10
3.26E-02,5.17E-03,2.20E-02,-1.92E-02,-3.65E-02,-6.14E-03,2017/6/10
3.20E-02,5.81E-03,2.17E-02,-1.85E-02,-3.62E-02,-6.70E-03,2017/6/10
3.25E-02,5.87E-03,2.12E-02,-1.86E-02,-3.54E-02,-8.07E-03,2017/6/10
3.33E-02,5.24E-03,2.21E-02,-1.78E-02,-3.52E-02,-8.14E-03,2017/6/10
3.24E-02,3.81E-03,2.11E-02,-1.89E-02,-3.37E-02,-9.61E-03,2017/6/10
3.26E-02,3.36E-03,2.04E-02,-1.73E-02,-3.17E-02,-1.07E-02,2017/6/10
3.21E-02,4.38E-03,2.04E-02,-1.70E-02,-3.23E-02,-1.00E-02,2017/6/10
3.53E-02,4.46E-03,2.09E-02,-1.74E-02,-3.25E-02,-1.13E-02,2017/6/10
3.51E-02,3.97E-03,2.24E-02,-1.73E-02,-3.29E-02,-1.11E-02,2017/6/10
3.53E-02,1.99E-03,2.29E-02,-1.69E-02,-3.30E-02,-1.08E-02,2017/6/10
3.50E-02,2.12E-03,2.34E-02,-1.68E-02,-3.38E-02,-9.53E-03,2017/6/10
3.41E-02,1.67E-03,2.46E-02,-1.76E-02,-3.25E-02,-1.04E-02,2017/6/10
3.47E-02,7.25E-04,2.48E-02,-2.02E-02,-3.08E-02,-8.56E-03,2017/6/10
3.19E-02,2.03E-03,2.37E-02,-2.06E-02,-2.91E-02,-9.37E-03,2017/6/10
3.19E-02,2.21E-03,2.28E-02,-2.08E-02,-2.86E-02,-8.04E-03,2017/6/10
3.04E-02,2.95E-03,2.27E-02,-1.86E-02,-2.92E-02,-7.85E-03,2017/6/10
3.00E-02,3.32E-03,2.14E-02,-1.71E-02,-2.69E-02,-5.90E-03,2017/6/10
2.86E-02,4.56E-03,2.10E-02,-1.72E-02,-2.75E-02,-6.10E-03,2017/6/10
2.83E-02,5.24E-03,2.05E-02,-1.68E-02,-2.79E-02,-6.85E-03,2017/6/10
2.79E-02,5.65E-03,2.16E-02,-1.77E-02,-2.95E-02,-6.94E-03,2017/6/10
2.68E-02,5.56E-03,2.29E-02,-1.63E-02,-2.93E-02,-8.84E-03,2017/6/10
2.76E-02,6.17E-03,2.37E-02,-1.80E-02,-3.16E-02,-1.01E-02,2017/6/10
2.80E-02,7.31E-03,2.22E-02,-1.69E-02,-3.21E-02,-1.21E-02,2017/6/10
2.66E-02,7.09E-03,2.22E-02,-1.79E-02,-3.19E-02,-1.35E-02,2017/6/10
2.60E-02,9.25E-03,2.36E-02,-1.55E-02,-3.39E-02,-1.35E-02,2017/6/10
2.41E-02,8.14E-03,2.44E-02,-1.62E-02,-3.27E-02,-1.30E-02,2017/6/10
2.35E-02,9.43E-03,2.48E-02,-1.65E-02,-3.07E-02,-1.40E-02,2017/6/10
2.25E-02,9.15E-03,2.64E-02,-1.79E-02,-3.27E-02,-1.50E-02,2017/6/10
2.12E-02,9.17E-03,2.69E-02,-1.71E-02,-3.27E-02,-1.52E-02,2017/6/10
1.99E-02,6.70E-03,2.65E-02,-1.64E-02,-3.29E-02,-1.67E-02,2017/6/10
1.93E-02,7.75E-03,2.60E-02,-1.53E-02,-3.26E-02,-1.91E-02,2017/6/10
2.15E-02,7.63E-03,2.56E-02,-1.50E-02,-3.22E-02,-2.06E-02,2017/6/10
2.17E-02,6.95E-03,2.60E-02,-1.49E-02,-3.23E-02,-2.07E-02,2017/6/10
2.22E-02,8.73E-03,2.69E-02,-1.58E-02,-3.03E-02,-1.98E-02,2017/6/10
2.20E-02,1.07E-02,2.64E-02,-1.77E-02,-2.86E-02,-2.07E-02,2017/6/10
2.26E-02,1.03E-02,2.40E-02,-1.66E-02,-2.90E-02,-2.18E-02,2017/6/10
2.24E-02,1.14E-02,2.35E-02,-1.71E-02,-2.84E-02,-2.17E-02,2017/6/10
2.15E-02,1.22E-02,2.24E-02,-1.85E-02,-2.85E-02,-1.99E-02,2017/6/10
2.11E-02,1.30E-02,2.30E-02,-1.88E-02,-2.79E-02,-2.22E-02,2017/6/10
2.13E-02,1.40E-02,2.29E-02,-1.54E-02,-2.74E-02,-2.31E-02,2017/6/10
2.14E-02,1.53E-02,2.13E-02,-1.43E-02,-2.69E-02,-2.31E-02,2017/6/10
2.07E-02,1.61E-02,2.15E-02,-1.50E-02,-2.58E-02,-2.44E-02,2017/6/10
1.99E-02,1.70E-02,2.11E-02,-1.56E-02,-2.60E-02,-2.41E-02,2017/6/10
1.92E-02,1.68E-02,2.14E-02,-1.40E-02,-2.60E-02,-2.56E-02,2017/6/10
2.13E-02,1.69E-02,2.17E-02,-1.52E-02,-2.65E-02,-2.60E-02,2017/6/10
2.10E-02,1.89E-02,2.30E-02,-1.60E-02,-2.68E-02,-2.56E-02,2017/6/10
2.16E-02,1.84E-02,2.34E-02,-1.77E-02,-2.77E-02,-2.56E-02,2017/6/10
2.09E-02,1.80E-02,2.35E-02,-1.84E-02,-2.80E-02,-2.65E-02,2017/6/10
2.14E-02,1.78E-02,2.33E-02,-1.73E-02,-2.71E-02,-2.67E-02,2017/6/10
2.07E-02,1.94E-02,2.37E-02,-1.83E-02,-2.67E-02,-2.69E-02,2017/6/10
2.16E-02,1.90E-02,2.28E-02,-1.89E-02,-2.64E-02,-2.52E-02,2017/6/10
2.18E-02,1.92E-02,2.26E-02,-1.78E-02,-2.43E-02,-2.63E-02,2017/6/10
2.09E-02,1.89E-02,2.24E-02,-1.94E-02,-2.33E-02,-2.65E-02,2017/6/10
2.08E-02,2.01E-02,2.17E-02,-1.95E-02,-2.23E-02,-2.75E-02,2017/6/10
,,,,,,2017/6/10
,,,,,,2017/6/10
,,,,,,2017/6/10
,,,,,,2017/6/10
,,,,,,2017/6/10
,,,,,,2017/6/10
,,,,,,2017/6/10
,,,,,,2017/6/10
,,,,,,2017/6/10
,,,,,,2017/6/10
,,,,,,2017/6/10
,,,,,,2017/6/10
,,,,,,2017/6/10
,,,,,,2017/6/10
,,,,,,2017/6/10
,,,,,,2017/6/10
,,,,,,2017/6/10
,,,,,,2017/6/10
,,,,,,2017/6/10
,,,,,,2017/6/10
,,,,,,2017/6/10
,,,,,,2017/6/10
,,,,,,2017/6/10
,,,,,,2017/6/10
,,,,,,2017/6/10
,,,,,,2017/6/10
,,,,,,2017/6/10
,,,,,,2017/6/10
,,,,,,2017/6/10
,,,,,,2017/6/10
,,,,,,2017/6/10
,,,,,,2017/6/10
,,,,,,2017/6/10
,,,,,,2017/6/10
,,,,,,2017/6/10
,,,,,,2017/6/10
,,,,,,2017/6/10
,,,,,,2017/6/10
,,,,,,2017/6/10
,,,,,,2017/6/10
,,,,,,2017/6/10
,,,,,,2017/6/10
,,,,,,2017/6/10
,,,,,,2017/6/10
,,,,,,2017/6/10
,,,,,,2017/6/10
,,,,,,2017/6/10
,,,,,,2017/6/10
,,,,,,2017/6/10
,,,,,,2017/6/10
,,,,,,2017/6/10
,,,,,,2017/6/10
,,,,,,2017/6/10
,,,,,,2017/6/10
,,,,,,2017/6/10
,,,,,,2017/6/10
,,,,,,2017/6/10
,,,,,,2017/6/10
,,,,,,2017/6/10
,,,,,,2017/6/10
,,,,,,2017/6/10
,,,,,,2017/6/10
,,,,,,2017/6/10
,,,,,,2017/6/10
,,,,,,2017/6/10
,,,,,,2017/6/10
,,,,,,2017/6/10
,,,,,,2017/6/10
,,,,,,2017/6/10
,,,,,,2017/6/10
,,,,,,2017/6/10
,,,,,,2017/6/10
,,,,,,2017/6/10
,,,,,,2017/6/10
,,,,,,2017/6/10
,,,,,,2017/6/10
,,,,,,2017/6/10
,,,,,,2017/6/10
,,,,,,2017/6/10
,,,,,,2017/6/10
,,,,,,2017/6/10
,,,,,,2017/6/10
,,,,,,2017/6/10
,,,,,,2017/6/10
,,,,,,2017/6/10
,,,,,,2017/6/10
,,,,,,2017/6/10
,,,,,,2017/6/10
,,,,,,2017/6/10
,,,,,,2017/6/10
,,,,,,2017/6/10
,,,,,,2017/6/10
,,,,,,2017/6/10
,,,,,,2017/6/10
,,,,,,2017/6/10
,,,,,,2017/6/10
,,,,,,2017/6/10
,,,,,,2017/6/10
,,,,,,2017/6/10
,,,,,,2017/6/10
,,,,,,2017/6/10
,,,,,,2017/6/10
,,,,,,2017/6/10
,,,,,,2017/6/10
,,,,,,2017/6/10
,,,,,,2017/6/10
,,,,,,2017/6/10
,,,,,,2017/6/10
,,,,,,2017/6/10
,,,,,,2017/6/10
,,,,,,2017/6/10
,,,,,,2017/6/10
,,,,,,2017/6/10
,,,,,,2017/6/10
,,,,,,2017/6/10
,,,,,,2017/6/10
,,,,,,2017/6/10
,,,,,,2017/6/10
,,,,,,2017/6/10
,,,,,,2017/6/10
,,,,,,2017/6/10
,,,,,,2017/6/10
,,,,,,2017/6/10
,,,,,,2017/6/10
,,,,,,2017/6/10
,,,,,,2017/6/10
,,,,,,2017/6/10
,,,,,,2017/6/10
,,,,,,2017/6/10
,,,,,,2017/6/10
,,,,,,2017/6/10
,,,,,,2017/6/10
,,,,,,2017/6/10
,,,,,,2017/6/10
,,,,,,2017/6/10
,,,,,,2017/6/10
,,,,,,2017/6/10
,,,,,,2017/6/10
,,,,,,2017/6/10
,,,,,,2017/6/10
,,,,,,2017/6/10
,,,,,,2017/6/10
,,,,,,2017/6/10
,,,,,,2017/6/10
,,,,,,2017/6/10
,,,,,,2017/6/10
,,,,,,2017/6/10
,,,,,,2017/6/10
,,,,,,2017/6/10
,,,,,,2017/6/10
,,,,,,2017/6/11
,,,,,,2017/6/12
,,,,,,2017/6/13
,,,,,,2017/6/14
,,,,,,2017/6/15
,,,,,,2017/6/16
,,,,,,2017/6/17
,,,,,,2017/6/18
,,,,,,2017/6/19
,,,,,,2017/6/20
,,,,,,2017/6/21
,,,,,,2017/6/22
,,,,,,2017/6/23
,,,,,,2017/6/24
,,,,,,2017/6/25
,,,,,,2017/6/26
,,,,,,2017/6/27
,,,,,,2017/6/28
,,,,,,2017/6/29
,,,,,,2017/6/30
,,,,,,2017/7/1
,,,,,,2017/7/2
,,,,,,2017/7/3
,,,,,,2017/7/4
,,,,,,2017/7/5
,,,,,,2017/7/6
,,,,,,2017/7/7
,,,,,,2017/7/8
,,,,,,2017/7/9
,,,,,,2017/7/10
,,,,,,2017/7/11
,,,,,,2017/7/12
,,,,,,2017/7/13
,,,,,,2017/7/14
,,,,,,2017/7/15
,,,,,,2017/7/16
,,,,,,2017/7/17
,,,,,,2017/7/18
,,,,,,2017/7/19
,,,,,,2017/7/20
,,,,,,2017/7/21
,,,,,,2017/7/22
,,,,,,2017/7/23
,,,,,,2017/7/24
,,,,,,2017/7/25
,,,,,,2017/7/26
,,,,,,2017/7/27
,,,,,,2017/7/28
,,,,,,2017/7/29
,,,,,,2017/7/30
,,,,,,2017/7/31
,,,,,,2017/8/1
,,,,,,2017/8/2
,,,,,,2017/8/3
,,,,,,2017/8/4
,,,,,,2017/8/5
,,,,,,2017/8/6
,,,,,,2017/8/7
,,,,,,2017/8/8
,,,,,,2017/8/9
,,,,,,2017/8/10
,,,,,,2017/8/11
,,,,,,2017/8/12
,,,,,,2017/8/13
,,,,,,2017/8/14
,,,,,,2017/8/15
,,,,,,2017/8/16
,,,,,,2017/8/17
,,,,,,2017/8/18
,,,,,,2017/8/19
,,,,,,2017/8/20
,,,,,,2017/8/21
,,,,,,2017/8/22
,,,,,,2017/8/23
,,,,,,2017/8/24
,,,,,,2017/8/25
,,,,,,2017/8/26
,,,,,,2017/8/27
,,,,,,2017/8/28
,,,,,,2017/8/29
,,,,,,2017/8/30
,,,,,,2017/8/31
,,,,,,2017/9/1
,,,,,,2017/9/2
,,,,,,2017/9/3
,,,,,,2017/9/4
,,,,,,2017/9/5
,,,,,,2017/9/6
,,,,,,2017/9/7
,,,,,,2017/9/8
,,,,,,2017/9/9
,,,,,,2017/9/10
,,,,,,2017/9/11
,,,,,,2017/9/12
,,,,,,2017/9/13
,,,,,,2017/9/14
,,,,,,2017/9/15
,,,,,,2017/9/16
,,,,,,2017/9/17
,,,,,,2017/9/18
,,,,,,2017/9/19
,,,,,,2017/9/20
,,,,,,2017/9/21
,,,,,,2017/9/22
,,,,,,2017/9/23
,,,,,,2017/9/24
,,,,,,2017/9/25
,,,,,,2017/9/26
,,,,,,2017/9/27
,,,,,,2017/9/28
,,,,,,2017/9/29
,,,,,,2017/9/30
,,,,,,2017/10/1
,,,,,,2017/10/2
,,,,,,2017/10/3
,,,,,,2017/10/4
,,,,,,2017/10/5
,,,,,,2017/10/6
,,,,,,2017/10/7
,,,,,,2017/10/8
,,,,,,2017/10/9
,,,,,,2017/10/10
,,,,,,2017/10/11
,,,,,,2017/10/12
,,,,,,2017/10/13
,,,,,,2017/10/14
,,,,,,2017/10/15
,,,,,,2017/10/16
,,,,,,2017/10/17
,,,,,,2017/10/18
,,,,,,2017/10/19
,,,,,,2017/10/20
,,,,,,2017/10/21
,,,,,,2017/10/22
,,,,,,2017/10/23
,,,,,,2017/10/24
,,,,,,2017/10/25
,,,,,,2017/10/26
,,,,,,2017/10/27
,,,,,,2017/10/28
,,,,,,2017/10/29
,,,,,,2017/10/30
,,,,,,2017/10/31
,,,,,,2017/11/1
,,,,,,2017/11/2
,,,,,,2017/11/3
,,,,,,2017/11/4
,,,,,,2017/11/5
,,,,,,2017/11/6
,,,,,,2017/11/7
,,,,,,2017/11/8
,,,,,,2017/11/9
,,,,,,2017/11/10
,,,,,,2017/11/11
,,,,,,2017/11/12
,,,,,,2017/11/13
,,,,,,2018/9/30
,,,,,,2018/9/30
,,,,,,2018/9/30
,,,,,,2018/9/30
,,,,,,2018/9/30
,,,,,,2018/9/30
,,,,,,2018/9/30
,,,,,,2018/9/30
,,,,,,2018/9/30
,,,,,,2018/9/30
,,,,,,2018/9/30
,,,,,,2018/9/30
,,,,,,2018/9/30
,,,,,,2018/9/30
,,,,,,2018/9/30
,,,,,,2018/9/30
,,,,,,2018/9/30
,,,,,,2018/9/30
,,,,,,2018/9/30
,,,,,,2018/9/30
,,,,,,2018/9/30
,,,,,,2018/9/30
,,,,,,2018/9/30
,,,,,,2018/9/30
,,,,,,2018/9/30
,,,,,,2018/9/30
,,,,,,2018/9/30
,,,,,,2018/9/30
,,,,,,2018/9/30
,,,,,,2018/9/30
,,,,,,2018/9/30
,,,,,,2018/9/30
,,,,,,2018/9/30
,,,,,,2018/9/30
,,,,,,2018/9/30
,,,,,,2018/9/30
,,,,,,2018/9/30
,,,,,,2018/9/30
,,,,,,2018/9/30
,,,,,,2018/9/30
,,,,,,2018/9/30
,,,,,,2018/9/30
,,,,,,2018/9/30
,,,,,,2018/9/30
,,,,,,2018/9/30
,,,,,,2018/9/30
,,,,,,2018/9/30
,,,,,,2018/9/30
,,,,,,2018/9/30
,,,,,,2018/9/30
,,,,,,2018/9/30
,,,,,,2018/9/30
,,,,,,2018/9/30
,,,,,,2018/9/30
,,,,,,2018/9/30
,,,,,,2018/9/30
,,,,,,2018/9/30
,,,,,,2018/9/30
,,,,,,2018/9/30
,,,,,,2018/9/30
,,,,,,2018/9/30
,,,,,,2018/9/30
,,,,,,2018/9/30
,,,,,,2018/9/30
,,,,,,2018/9/30
,,,,,,2018/9/30
,,,,,,2018/9/30
,,,,,,2018/9/30
,,,,,,2018/9/30
,,,,,,2018/9/30
,,,,,,2018/9/30
,,,,,,2018/9/30
,,,,,,2018/9/30
,,,,,,2018/9/30
,,,,,,2018/9/30
,,,,,,2018/9/30
,,,,,,2018/9/30
,,,,,,2018/9/30
,,,,,,2018/9/30
,,,,,,2018/9/30
,,,,,,2018/9/30
,,,,,,2018/9/30
,,,,,,2018/9/30
,,,,,,2018/9/30
,,,,,,2018/9/30
,,,,,,2018/9/30
,,,,,,2018/9/30
,,,,,,2018/9/30
,,,,,,2018/9/30
,,,,,,2018/9/30
,,,,,,2018/9/30
,,,,,,2018/9/30
,,,,,,2018/9/30
,,,,,,2018/9/30
,,,,,,2018/9/30
,,,,,,2018/9/30
,,,,,,2018/9/30
,,,,,,2018/9/30
,,,,,,2018/9/30
,,,,,,2018/9/30
,,,,,,2018/9/30
,,,,,,2018/9/30
,,,,,,2018/9/30
,,,,,,2018/9/30
,,,,,,2018/9/30
,,,,,,2018/9/30
,,,,,,2018/9/30
,,,,,,2018/10/1
,,,,,,2018/10/1
,,,,,,2018/10/1
,,,,,,2018/10/1
,,,,,,2018/10/1
,,,,,,2018/10/1
,,,,,,2018/10/1
,,,,,,2018/10/1
,,,,,,2018/10/1
,,,,,,2018/10/1
,,,,,,2018/10/1
,,,,,,2018/10/1
,,,,,,2018/10/1
,,,,,,2018/10/1
,,,,,,2018/10/2
,,,,,,2018/10/2
,,,,,,2018/10/2
,,,,,,2018/10/2
,,,,,,2018/10/2
,,,,,,2018/10/2
,,,,,,2018/10/2
,,,,,,2018/10/2
,,,,,,2018/10/2
,,,,,,2018/10/2
,,,,,,2018/10/2
,,,,,,2018/10/2
,,,,,,2018/10/2
,,,,,,2018/10/2
,,,,,,2018/10/2
,,,,,,2018/10/2
,,,,,,2018/10/2
,,,,,,2018/10/2
,,,,,,2018/10/2
,,,,,,2018/10/2
,,,,,,2018/10/2
,,,,,,2018/10/2
,,,,,,2018/10/2
,,,,,,2018/10/2
,,,,,,2018/10/2
,,,,,,2018/10/2
,,,,,,2018/10/2
,,,,,,2018/10/2
,,,,,,2018/10/2
,,,,,,2018/10/2
,,,,,,2018/10/2
,,,,,,2018/10/2
,,,,,,2018/10/2
,,,,,,2018/10/2
,,,,,,2018/10/2
,,,,,,2018/10/2
,,,,,,2018/10/2
,,,,,,2018/10/2
,,,,,,2018/10/2
,,,,,,2018/10/2
,,,,,,2018/10/2
,,,,,,2018/10/2
,,,,,,2018/10/2
,,,,,,2018/10/2
,,,,,,2018/10/2
,,,,,,2018/10/2
,,,,,,2018/10/2
,,,,,,2018/10/2
,,,,,,2018/10/2
,,,,,,2018/10/2
,,,,,,2018/10/2
,,,,,,2018/10/2
,,,,,,2018/10/2
,,,,,,2018/10/2
,,,,,,2018/10/3
,,,,,,2018/10/3
,,,,,,2018/10/3
,,,,,,2018/10/3
,,,,,,2018/10/3
,,,,,,2018/10/3
,,,,,,2018/10/3
,,,,,,2018/10/3
,,,,,,2018/10/3
,,,,,,2018/10/3
,,,,,,2018/10/3
,,,,,,2018/10/3
,,,,,,2018/10/3
,,,,,,2018/10/3
,,,,,,2018/10/3
,,,,,,2018/10/3
,,,,,,2018/10/3
,,,,,,2018/10/3
,,,,,,2018/10/3
,,,,,,2018/10/3
,,,,,,2018/10/3
,,,,,,2018/10/3
,,,,,,2018/10/3
,,,,,,2018/10/3
,,,,,,2018/10/3
,,,,,,2018/10/3
,,,,,,2018/10/3
,,,,,,2018/10/3
,,,,,,2018/10/3
,,,,,,2018/10/3
,,,,,,2018/10/3
,,,,,,2018/10/3
,,,,,,2018/10/3
,,,,,,2018/10/3
,,,,,,2018/10/3
,,,,,,2018/10/3
,,,,,,2018/10/3
,,,,,,2018/10/3
,,,,,,2018/10/3
,,,,,,2018/10/3
,,,,,,2018/10/3
,,,,,,2018/10/3
,,,,,,2018/10/3
,,,,,,2018/10/3
,,,,,,2018/10/3
,,,,,,2018/10/3
,,,,,,2018/10/3
,,,,,,2018/10/3
,,,,,,2018/10/3
,,,,,,2018/10/3
,,,,,,2018/10/3
,,,,,,2018/10/3
,,,,,,2018/10/3
,,,,,,2018/10/3
,,,,,,2018/10/3
,,,,,,2018/10/3
,,,,,,2018/10/4
,,,,,,2018/10/4
,,,,,,2018/10/4
,,,,,,2018/10/4
,,,,,,2018/10/4
,,,,,,2018/10/4
,,,,,,2018/10/4
,,,,,,2018/10/4
,,,,,,2018/10/4
,,,,,,2018/10/4
,,,,,,2018/10/4
,,,,,,2018/10/4
,,,,,,2018/10/4
,,,,,,2018/10/4
,,,,,,2018/10/4
,,,,,,2018/10/4
,,,,,,2018/10/4
,,,,,,2018/10/4
,,,,,,2018/10/4
,,,,,,2018/10/4
,,,,,,2018/10/4
,,,,,,2018/10/4
,,,,,,2018/10/4
,,,,,,2018/10/4
,,,,,,2018/10/4
,,,,,,2018/10/4
,,,,,,2018/10/4
,,,,,,2018/10/4
,,,,,,2018/10/4
,,,,,,2018/10/4
,,,,,,2018/10/4
,,,,,,2018/10/4
,,,,,,2018/10/4
,,,,,,2018/10/4
,,,,,,2018/10/4
,,,,,,2018/10/4
,,,,,,2018/10/4
,,,,,,2018/10/4
,,,,,,2018/10/4
,,,,,,2018/10/4
,,,,,,2018/10/4
,,,,,,2018/10/4
,,,,,,2018/10/4
,,,,,,2018/10/4
,,,,,,2018/10/4
,,,,,,2018/10/4
,,,,,,2018/10/4
,,,,,,2018/10/4
,,,,,,2018/10/4
,,,,,,2018/10/4
,,,,,,2018/10/4
,,,,,,2018/10/4
,,,,,,2018/10/4
,,,,,,2018/10/4
,,,,,,2018/10/4
,,,,,,2018/10/4
,,,,,,2018/10/4
,,,,,,2018/10/4
,,,,,,2018/10/4
,,,,,,2018/10/4
,,,,,,2018/10/4
,,,,,,2018/10/4
,,,,,,2018/10/4
,,,,,,2018/10/4
,,,,,,2018/10/4
,,,,,,2018/10/4
,,,,,,2018/10/4
,,,,,,2018/10/4
,,,,,,2018/10/4
,,,,,,2018/10/4
,,,,,,2018/10/4
,,,,,,2018/10/4
,,,,,,2018/10/4
,,,,,,2018/10/4
,,,,,,2018/10/4
,,,,,,2018/10/4
,,,,,,2018/10/4
,,,,,,2018/10/4
,,,,,,2018/10/4
,,,,,,2018/10/4
,,,,,,2018/10/4
,,,,,,2018/10/4
,,,,,,2018/10/4
,,,,,,2018/10/4
,,,,,,2018/10/4
,,,,,,2018/10/4
,,,,,,2018/10/4
,,,,,,2018/10/4
,,,,,,2018/10/4
,,,,,,2018/10/4
,,,,,,2018/10/4
,,,,,,2018/10/4
,,,,,,2018/10/4
,,,,,,2018/10/4
,,,,,,2018/10/4
,,,,,,2018/10/4
,,,,,,2018/10/4
,,,,,,2018/10/4
,,,,,,2018/10/4
,,,,,,2018/10/4
,,,,,,2018/10/4
,,,,,,2018/10/4
,,,,,,2018/10/4
,,,,,,2018/10/4
,,,,,,2018/10/4
,,,,,,2018/10/4
,,,,,,2018/10/4
,,,,,,2018/10/4
,,,,,,2018/10/4
,,,,,,2018/10/4
,,,,,,2018/10/4
,,,,,,2018/10/4
,,,,,,2018/10/4
,,,,,,2018/10/4
,,,,,,2018/10/4
,,,,,,2018/10/4
,,,,,,2018/10/4
,,,,,,2018/10/4
,,,,,,2018/10/4
,,,,,,2018/10/4
,,,,,,2018/10/4
,,,,,,2018/10/4
,,,,,,2018/10/4
,,,,,,2018/10/4
,,,,,,2018/10/4
,,,,,,2018/10/4
,,,,,,2018/10/4
,,,,,,2018/10/4
,,,,,,2018/10/4
,,,,,,2018/10/4
,,,,,,2018/10/4
,,,,,,2018/10/4
,,,,,,2018/10/4
,,,,,,2018/10/4
,,,,,,2018/10/4
,,,,,,2018/10/4
,,,,,,2018/10/4
,,,,,,2018/10/4
,,,,,,2018/10/4
,,,,,,2018/10/4
,,,,,,2018/10/4
,,,,,,2018/10/4
,,,,,,2018/10/4
,,,,,,2018/10/4
,,,,,,2018/10/4
,,,,,,2018/10/4
,,,,,,2018/10/4
,,,,,,2018/10/4
,,,,,,2018/10/4
,,,,,,2018/10/4
,,,,,,2018/10/4
,,,,,,2018/10/4
,,,,,,2018/10/4
,,,,,,2018/10/4
,,,,,,2018/10/4
,,,,,,2018/10/4
,,,,,,2018/10/5
,,,,,,2018/10/6
,,,,,,2018/10/6
,,,,,,2018/10/6
,,,,,,2018/10/7
,,,,,,2018/10/7
,,,,,,2018/10/7
,,,,,,2018/10/7
,,,,,,2018/10/8
,,,,,,2018/10/8
,,,,,,2018/10/8
,,,,,,2018/10/8
,,,,,,2018/10/8
,,,,,,2018/10/8
,,,,,,2018/10/8
,,,,,,2018/10/15
,,,,,,2018/10/16
,,,,,,2018/10/17
,,,,,,2018/10/18
,,,,,,2018/10/19
,,,,,,2018/9/30
,,,,,,2018/9/30
,,,,,,2018/9/30
,,,,,,2018/9/30
,,,,,,2018/9/30
,,,,,,2018/9/30
,,,,,,2018/9/30
,,,,,,2018/9/30
,,,,,,2018/9/30
,,,,,,2018/9/30
,,,,,,2018/9/30
,,,,,,2018/9/30
,,,,,,2018/9/30
,,,,,,2018/9/30
,,,,,,2018/9/30
,,,,,,2018/9/30
,,,,,,2018/9/30
,,,,,,2018/9/30
,,,,,,2018/9/30
,,,,,,2018/9/30
,,,,,,2018/9/30
,,,,,,2018/9/30
,,,,,,2018/9/30
,,,,,,2018/9/30
,,,,,,2018/9/30
,,,,,,2018/9/30
,,,,,,2018/9/30
,,,,,,2018/9/30
,,,,,,2018/9/30
,,,,,,2018/9/30
,,,,,,2018/9/30
,,,,,,2018/9/30
,,,,,,2018/9/30
,,,,,,2018/9/30
,,,,,,2018/9/30
,,,,,,2018/9/30
,,,,,,2018/9/30
,,,,,,2018/9/30
,,,,,,2018/9/30
,,,,,,2018/9/30
,,,,,,2018/9/30
,,,,,,2018/9/30
,,,,,,2018/9/30
,,,,,,2018/9/30
,,,,,,2018/9/30
,,,,,,2018/9/30
,,,,,,2018/9/30
,,,,,,2018/9/30
,,,,,,2018/9/30
,,,,,,2018/9/30
,,,,,,2018/9/30
,,,,,,2018/9/30
,,,,,,2018/9/30
,,,,,,2018/9/30
,,,,,,2018/9/30
,,,,,,2018/9/30
,,,,,,2018/9/30
,,,,,,2018/9/30
,,,,,,2018/9/30
,,,,,,2018/9/30
,,,,,,2018/9/30
,,,,,,2018/9/30
,,,,,,2018/9/30
,,,,,,2018/9/30
,,,,,,2018/9/30
,,,,,,2018/9/30
,,,,,,2018/9/30
,,,,,,2018/9/30
