Rmj009/robot_ord/stockdata.csv
joint1,joint2,joint3,joint4,joint5,joint6,Date
0.808097594,5.169833237,10.34931867,20.12444845,30.29432295,-0.380149855,2017/11/20
0.964356204,5.962626849,10.8878968,20.82636157,30.83286532,-0.312187691,2017/11/20
0.043144697,5.72603868,10.9855926,20.63886637,30.95340745,-0.05937516,2017/11/20
0.230022522,5.355889585,10.26370389,20.05668172,30.72428713,-0.920456299,2017/11/20
0.923072184,5.145057332,10.80865461,20.4745166,30.48127511,-0.12344376,2017/11/20
0.341916979,5.658395979,10.56564651,20.08968493,30.91945068,-0.573656612,2017/11/20
0.002471201,5.635702676,10.29971708,20.46857647,30.77131581,-0.598963847,2017/11/20
0.412375515,5.814303481,10.76207141,20.55665152,30.09566709,-0.435276402,2017/11/20
0.151982327,5.35080595,10.70330295,20.56940229,30.27770019,-0.330060421,2017/11/20
0.612246059,5.803647391,10.63214247,20.30167485,30.92515144,-0.731348287,2017/11/20
0.843265272,5.586182625,10.28157699,20.59075771,30.96611685,-0.300795329,2017/11/20
0.072341139,5.607368094,10.36079979,20.54973934,30.56097182,-0.82094313,2017/11/20
0.850520175,5.069330185,10.87253219,20.24532564,30.49299189,-0.770174637,2017/11/20
0.849880146,5.590565224,10.79153433,20.63874505,30.03414482,-0.458020488,2017/11/20
0.906608875,5.891165049,10.08821307,20.85864768,30.05032516,-0.801891839,2017/11/20
0.773345498,5.910172872,10.32313903,20.72414907,30.58860982,-0.300394152,2017/11/20
0.839902655,5.547973281,10.39941284,20.63623494,30.80151794,-0.128851177,2017/11/20
0.890967548,5.223957618,10.17472288,20.45909996,30.0767294,-0.195795998,2017/11/20
0.965367956,5.797752357,10.57146363,20.12841401,30.48751789,-0.916234624,2017/11/20
0.877726996,5.683829779,10.13969172,20.2703745,30.6011696,-0.277613022,2017/11/20
0.576123953,5.718493769,10.90454844,20.77109542,30.11223342,-0.174582066,2017/11/20
0.898351911,5.741684047,10.55237079,20.98229819,30.0466867,-0.007440408,2017/11/20
0.180506007,5.960331278,10.55749509,20.91544039,30.11166667,-0.708795695,2017/11/20
0.113572993,5.199622665,10.064721,20.89469253,30.7943183,-0.833337988,2017/11/20
0.398767288,5.440882704,10.98071202,20.07479696,30.11552717,-0.625419013,2017/11/20
0.462383642,5.008546236,10.15637366,20.17559136,30.10463119,-0.245919829,2017/11/20
0.697610158,5.659446365,10.88455912,20.45484427,30.27374443,-0.599793161,2017/11/20
0.243481781,5.970916383,10.21360067,20.49366377,30.40153086,-0.934594963,2017/11/20
0.289190168,5.429451029,10.15710733,20.39780505,30.325506,-0.233375928,2017/11/20
0.909622584,5.267116034,10.37544979,20.2239668,30.75186754,-0.080643648,2017/11/20
0.963759897,5.119086745,10.79947479,20.7670045,30.64707872,-0.977717182,2017/11/20
0.744657482,5.330645039,10.72078879,20.97332987,30.42577045,-0.088685273,2017/11/20
0.186000092,5.357484244,10.36130919,20.70263354,30.2041261,-0.909702813,2017/11/20
0.565258767,5.110345419,10.04263509,20.66100969,30.67693004,-0.575683391,2017/11/20
0.960669734,5.509407208,10.48667405,20.5095776,30.26137664,-0.706710361,2017/11/20
0.864499676,5.761189818,10.51201455,20.91333011,30.26105201,-0.490287373,2017/11/20
0.255805024,5.423641954,10.46402282,20.38496342,30.8811249,-0.588374745,2017/11/20
0.136811028,5.965414712,10.97915131,20.70535039,30.16689233,-0.017755334,2017/11/20
0.400580368,5.572221498,10.17614535,20.11572445,30.1563527,-0.643149835,2017/11/20
0.068753446,5.813831983,10.60725522,20.80787719,30.97931857,-0.050258522,2017/11/20
0.54116884,5.698289813,10.4255565,20.72963071,30.07392446,-0.646866111,2017/11/20
0.578064215,5.252686926,10.91849156,20.5548958,30.79348963,-0.713297091,2017/11/20
0.063209628,5.416926403,10.14648246,20.64025896,30.08180111,-0.950449495,2017/11/20
0.099061118,5.398336021,10.20474219,20.63203444,30.00154566,-0.068241561,2017/11/20
0.87058087,5.089341599,10.93629505,20.8925233,30.0723372,-0.403969203,2017/11/20
0.577153359,5.519101043,10.1588855,20.96319799,30.62974326,-0.894979897,2017/11/20
0.969979669,5.628224068,10.78829323,20.08185078,30.49204841,-0.341047048,2017/11/20
0.174696448,5.935629705,10.00241006,20.82174372,30.38744354,-0.555963098,2017/11/20
0.246342455,5.802801185,10.42590645,20.79500936,30.88632003,-0.162629159,2017/11/20
0.218549352,5.380735561,10.44232735,20.37102759,30.01935054,-0.46856947,2017/11/20
0.770214651,5.562812959,10.17302044,20.09218695,30.52529236,-0.596387956,2017/11/20
0.956491432,5.152159472,10.45565954,20.83023395,30.30713923,-0.367278108,2017/11/20
0.903612693,5.586238624,10.38846402,20.31901129,30.06198727,-0.122469567,2017/11/20
0.028093303,5.705728482,10.26330433,20.08835071,30.46793171,-0.932577042,2017/11/20
0.381216291,5.050681076,10.35581124,20.50513307,30.70458093,-0.002929568,2017/11/20
0.452403287,5.818743737,10.63668957,20.40769545,30.81617224,-0.984733666,2017/11/20
0.034643659,5.053541825,10.68995767,20.25201077,30.35125681,-0.554743126,2017/11/20
0.777434935,5.666704347,10.06917747,20.04439733,30.30688176,-0.715340613,2017/11/20
0.631558725,5.130589455,10.73900371,20.23010404,30.71231858,-0.426350253,2017/11/20
0.401377539,5.728702484,10.2894433,20.16562123,30.36347878,-0.690441648,2017/11/20
0.564776256,5.54431333,10.62692284,20.23109875,30.15177413,-0.810831803,2017/11/20
0.290909223,5.221134771,10.94882373,20.61482707,30.47270423,-0.932081547,2017/11/20
0.868556482,5.239806371,10.28315027,20.9317566,30.09054225,-0.559634434,2017/11/20
0.751476267,5.67184224,10.43441553,20.76080183,30.75456859,-0.459338241,2017/11/20
0.698241561,5.140307716,10.71663231,20.09288001,30.74899153,-0.496133537,2017/11/20
0.55102674,5.500128369,10.15927038,20.8139672,30.94587467,-0.578339405,2017/11/20
0.736291158,5.354652145,10.49274373,20.55627101,30.21795443,-0.501466092,2017/11/20
0.830612558,5.372958754,10.38664105,20.59822403,30.32918053,-0.285745833,2017/11/20
0.617805559,5.269238762,10.21929994,20.15286987,30.22801139,-0.115601214,2017/11/20
0.661428504,5.787062442,10.9577925,20.90329252,30.195285,-0.109437786,2017/11/20
0.526155684,5.690747095,10.12476214,20.93930518,30.98837991,-0.662048544,2017/11/20
0.755247576,5.024276993,10.80192855,20.07458574,30.70917144,-0.762802975,2017/11/20
0.615529368,5.528577329,10.75583452,20.26690143,30.33659836,-0.694960658,2017/11/20
0.024773409,5.906043231,10.12000986,20.38370731,30.41801885,-0.836714803,2017/11/20
0.517424295,5.922799593,10.42455689,20.71242501,30.60585192,-0.21139004,2017/11/20
0.396532645,5.925991234,10.5338552,20.42531623,30.01551184,-0.47478694,2017/11/20
0.412607657,5.398841714,10.4292664,20.1252781,30.35768103,-0.056063991,2017/11/20
0.830878391,5.680664979,10.65046653,20.88432811,30.23650009,-0.361434938,2017/11/20
0.882658179,5.053393188,10.99601949,20.60401487,30.52383573,-0.150820569,2017/11/20
0.902913289,5.178858871,10.69897045,20.39563688,30.24472606,-0.556293893,2017/11/20
0.694765741,5.75826496,10.25757651,20.19933784,30.71881001,-0.922851081,2017/11/20
0.950781787,5.776461765,10.42632198,20.63681227,30.78828178,-0.873455307,2017/11/20
0.074294772,5.260015278,10.95163585,20.17613244,30.55451474,-0.926916659,2017/11/20
0.398029061,5.368532311,10.20984954,20.96136075,30.49496064,-0.715010044,2017/11/20
0.796431131,5.045251469,10.75501657,20.4903622,30.61428148,-0.584568309,2017/11/20
0.563211949,5.045630941,10.59358337,20.48945257,30.1085081,-0.883342446,2017/11/20
0.407186224,5.075939326,10.13483754,20.45482674,30.80345897,-0.396582378,2017/11/20
0.975517407,5.308540291,10.17809767,20.20272552,30.4889818,-0.60821617,2017/11/20
0.862899342,5.78983079,10.83094569,20.28751154,30.21344325,-0.956674372,2017/11/20
0.940765291,5.387723673,10.98026912,20.67876955,30.94494382,-0.093643935,2017/11/20
0.638924426,5.313469108,10.7953951,20.86853367,30.1738152,-0.607351462,2017/11/20
0.132228784,5.13334244,10.51866911,20.399136,30.53396045,-0.529902063,2017/11/20
0.146628535,5.226995008,10.01951937,20.84074723,30.01260137,-0.595195202,2017/11/20
0.406595217,5.132274103,10.94255837,20.01103094,30.05514731,-0.104874173,2017/11/20
0.983196116,5.048477091,10.78654924,20.26619031,30.33073299,-0.027147589,2017/11/20
0.042728979,5.209015508,10.99701603,20.20676769,30.83179339,-0.540749298,2017/11/20
0.459226176,5.964678069,10.71122848,20.67205947,30.77152479,-0.730152815,2017/11/20
0.670727683,5.513485649,10.40284907,20.85447857,30.81447872,-0.281265917,2017/11/20
0.274950385,5.347872235,10.94026571,20.88907311,30.12760194,-0.371805171,2017/11/20
0.433567281,5.782259768,10.98751151,20.48518643,30.37587915,-0.229943216,2017/11/20
0.743351583,5.39830327,10.17703935,20.82893615,30.98280108,-0.464799378,2017/11/20
0.549950693,5.990967296,10.58236138,20.42705069,30.62206233,-0.569644928,2017/11/20
0.618250213,5.738589561,10.49243754,20.89024841,30.83611647,-0.127275293,2017/11/20
0.702109335,5.331744117,10.67613361,20.58664572,30.69056623,-0.375258005,2017/11/20
0.43691887,5.157257738,10.78907165,20.97794517,30.83099991,-0.724500472,2017/11/20
0.926502029,5.753679186,10.41676505,20.06060776,30.0447506,-0.753154979,2017/11/20
0.040775583,5.513020443,10.17303936,20.91649643,30.18116064,-0.249453896,2017/11/20
0.44006608,5.090842246,10.4423001,20.78517965,30.16175193,-0.344178597,2017/11/20
0.44098032,5.567337422,10.93542935,20.24256001,30.83298997,-0.07314994,2017/11/20
0.384206587,5.378924584,10.01622355,20.06960573,30.41620484,-0.876838163,2017/11/20
0.280996089,5.558132642,10.28920628,20.21090895,30.29755438,-0.593317419,2017/11/20
0.209918419,5.649031781,10.11544963,20.55925535,30.51786825,-0.617190182,2017/11/20
0.971457867,5.444645833,10.64044838,20.06574957,30.36920723,-0.080401481,2017/11/20
0.916506431,5.034508265,10.61910162,20.88448671,30.72059487,-0.133478197,2017/11/20
0.768117967,5.716061118,10.13872663,20.13404108,30.53877667,-0.237608074,2017/11/20
0.890531618,5.234432434,10.60294471,20.03549644,30.38559444,-0.6876283,2017/11/20
0.202794451,5.372112712,10.7960371,20.91925464,30.20239465,-0.515949327,2017/11/20
0.88906659,5.715495328,10.08104895,20.77693242,30.86862224,-0.205735716,2017/11/20
0.977058053,5.731340949,10.42977306,20.74593869,30.03880508,-0.008155495,2017/11/20
0.812957093,5.871231107,10.77010265,20.34930965,30.25748405,-0.809869958,2017/11/20
0.342979057,5.00570469,10.51668086,20.28620984,30.68712995,-0.465433722,2017/11/20
0.140108234,5.072493282,10.45293695,20.40053668,30.16011456,-0.584736043,2017/11/20
0.011170292,5.543469236,10.80304868,20.28870222,30.25423171,-0.613060597,2017/11/20
0.538025554,5.280736701,10.22618483,20.16638708,30.76566545,-0.197930338,2017/11/20
0.829304937,5.731617301,10.95589748,20.85447861,30.77277097,-0.082417248,2017/11/20
0.093472351,5.101852436,10.77132312,20.87780409,30.38486186,-0.64332833,2017/11/20
0.698761655,5.18218254,10.85210976,20.40600929,30.07734264,-0.600731986,2017/11/20
0.785629367,5.370670422,10.92164884,20.69913674,30.54670047,-0.067089082,2017/11/20
0.725668906,5.778249635,10.29563339,20.67860039,30.41017885,-0.895653342,2017/11/20
0.17181493,5.295255303,10.73768606,20.41321037,30.34788964,-0.496948849,2017/11/20
0.457572538,5.401535252,10.09719032,20.94811459,30.6776436,-0.304843452,2017/11/20
0.396218141,5.158857023,10.49169071,20.81751115,30.35966896,-0.778569667,2017/11/20
0.928579441,5.565548034,10.78388267,20.96128432,30.1820474,-0.363489366,2017/11/20
0.133565005,5.640394626,10.0484481,20.91795688,30.281393,-0.338229857,2017/11/20
0.146401386,5.118092545,10.62927461,20.16302904,30.14822274,-0.521054402,2017/11/20
0.891870908,5.086877322,10.15939362,20.79042574,30.28977968,-0.627228455,2017/11/20
0.885242229,5.559955098,10.6606152,20.94145268,30.13190249,-0.259819593,2017/11/20
0.680058976,5.936076244,10.21088836,20.01273076,30.58074909,-0.031705945,2017/11/20
0.783658978,5.984663686,10.72811703,20.36542569,30.22134029,-0.163466731,2017/11/20
0.004918047,5.742819375,10.91944269,20.37565752,30.11391583,-0.122338141,2017/11/20
0.519192551,5.805393251,10.58200229,20.38977647,30.90470952,-0.009177535,2017/11/20
0.468632798,5.813990804,10.4086203,20.93313154,30.01139625,-0.692464289,2017/11/20
0.620719836,5.209561609,10.98449145,20.5907026,30.79941214,-0.539534642,2017/11/20
0.112031591,5.394438357,10.03812318,20.66931892,30.81713864,-0.897329079,2017/11/20
0.771236693,5.676457288,10.77194542,20.0403878,30.24592483,-0.833526787,2017/11/20
0.850242168,5.255492909,10.2960889,20.42812881,30.7442235,-0.469202741,2017/11/20
0.867243319,5.218238084,10.14974466,20.5127029,30.33097897,-0.048035074,2017/11/20
0.906862564,5.010280127,10.45362679,20.20526502,30.55902402,-0.815657006,2017/11/20
0.659598827,5.715951461,10.53242458,20.61892085,30.16514601,-0.718056809,2017/11/20
0.226510319,5.188272883,10.866423,20.8486823,30.42235474,-0.739360417,2017/11/20
0.561285059,5.814584561,10.75408082,20.95699471,30.07660885,-0.597203859,2017/11/20
0.028361276,5.569312214,10.25530596,20.56147827,30.38049225,-0.795635363,2017/11/20
0.193598293,5.557777213,10.5632008,20.74462134,30.81299539,-0.766914541,2017/11/20
0.919831813,5.410568457,10.29418826,20.78663942,30.5439054,-0.993473199,2017/11/20
0.146698475,5.553394728,10.15685594,20.7863313,30.97140618,-0.869580871,2017/11/20
0.812725812,5.992247354,10.79576434,20.1849346,30.58507662,-0.166137326,2017/11/20
0.175143077,5.867297779,10.22484966,20.84374403,30.77079472,-0.86103813,2017/11/20
0.212796117,5.396351322,10.67465617,20.51408716,30.42017752,-0.863282046,2017/11/20
0.905327343,5.728348051,10.8267731,20.39753976,30.50634579,-0.917546719,2017/11/20
0.355438904,5.177893816,10.89257416,20.89045908,30.69951117,-0.138356602,2017/11/20
0.129691736,5.575114086,10.44243178,20.06530784,30.00701391,-0.347149736,2017/11/20
0.207181975,5.144795938,10.32491274,20.31376968,30.96518997,-0.924341816,2017/11/20
0.9118666,5.56533308,10.20952052,20.27015729,30.80311743,-0.594339117,2017/11/20
0.010757907,5.234238317,10.81465107,20.16585159,30.75696801,-0.049185865,2017/11/20
0.977639235,5.802448278,10.27917847,20.09770542,30.23634519,-0.107822039,2017/11/20
0.139891185,5.383999881,10.8789525,20.0946938,30.5668075,-0.030647544,2017/11/20
0.95808588,5.293054478,10.29571778,20.41111637,30.13082518,-0.246021248,2017/11/20
0.702480395,5.968399882,10.35298828,20.43644392,30.94211677,-0.729571913,2017/11/20
0.898984738,5.789228973,10.00354643,20.47626751,30.26326828,-0.29374695,2017/11/20
0.264627561,5.082374558,10.66761558,20.20163472,30.91840511,-0.098296788,2017/11/20
0.847885729,5.031491208,10.73670569,20.42226711,30.94337792,-0.151251046,2017/11/20
0.346479175,5.800997079,10.05516672,20.07217754,30.83692651,-0.195323377,2017/11/20
0.224313405,5.775205165,10.09461367,20.37127929,30.54924953,-0.443859172,2017/11/20
0.25600073,5.459585234,10.03407447,20.05254859,30.38652301,-0.502574666,2017/11/20
0.728747173,5.668534648,10.63350437,20.49540083,30.84694215,-0.331676088,2017/11/20
0.762459766,5.616438247,10.5945942,20.00669181,30.47321792,-0.959678097,2017/11/20
0.256596623,5.674107439,10.2549962,20.38003929,30.12226493,-0.630219325,2017/11/20
0.901500237,5.489042521,10.88101796,20.82647113,30.60369508,-0.772832065,2017/11/20
0.04568898,5.010956173,10.75242636,20.05185806,30.77669755,-0.649601773,2017/11/20
0.085809501,5.84384333,10.02665974,20.27882171,30.35311536,-0.657527514,2017/11/20
0.777920651,5.471575295,10.07902731,20.29572261,30.86758146,-0.145534339,2017/11/20
0.780764748,5.829354702,10.43420309,20.41074448,30.68292604,-0.268827273,2017/11/20
0.739881579,5.753840919,10.31277071,20.90149075,30.94621667,-0.044902379,2017/11/20
0.506559449,5.041122794,10.79507849,20.3247531,30.88797273,-0.091936731,2017/11/20
0.587659251,5.065970937,10.57314408,20.02133055,30.56290273,-0.723954921,2017/11/20
0.870485206,5.85494928,10.78911935,20.07016273,30.99633895,-0.445953701,2017/11/20
0.381662549,5.68561502,10.16549395,20.80564225,30.57328908,-0.911132209,2017/11/20
0.061705689,5.559489113,10.7384042,20.46330698,30.28136362,-0.54782904,2017/11/20
0.851347886,5.055052954,10.08031568,20.41489376,30.66340407,-0.702914077,2017/11/20
0.932378599,5.054743417,10.11404784,20.29605128,30.84699356,-0.785080482,2017/11/20
0.277304507,5.71831282,10.55160259,20.04119879,30.58889128,-0.108257482,2017/11/20
0.305871113,5.283315485,10.39161206,20.35845887,30.41133768,-0.005112337,2017/11/20
0.018580677,5.944182085,10.52548161,20.38739379,30.73857607,-0.279966478,2017/11/20
0.001106816,5.977933227,10.57529641,20.67530253,30.11305644,-0.792686888,2017/11/20
0.894513017,5.389000868,10.61858174,20.86366068,30.2890427,-0.574528275,2017/11/20
0.246780815,5.360711546,10.56194376,20.80389265,30.69323244,-0.216009078,2017/11/20
0.839509539,5.544514686,10.61132918,20.63708903,30.42655301,-0.146456147,2017/11/20
0.799400536,5.466577511,10.76128494,20.909663,30.764337,-0.934164434,2017/11/20
0.550946755,5.018908659,10.90558218,20.64171703,30.08085908,-0.293290657,2017/11/20
0.533706694,5.188597214,10.74589015,20.71266554,30.83503356,-0.931848577,2017/11/20
0.586860762,5.793855012,10.94113284,20.59237862,30.01162194,-0.785698696,2017/11/20
0.009826528,5.203271702,10.95369521,20.03793232,30.4883167,-0.334236831,2017/11/20
0.728375967,5.00786751,10.83246226,20.39269133,30.87215215,-0.596963621,2017/11/20
0.113060261,5.516093619,10.07222532,20.72561179,30.03239993,-0.564334621,2017/11/20
0.325768428,5.319178566,10.84972794,20.48567901,30.16814083,-0.770505091,2017/11/20
0.561219004,5.818207028,10.33760144,20.0178368,30.98200435,-0.499960895,2017/11/20
0.080459296,5.079908238,10.48503877,20.55012249,30.85281461,-0.062527883,2017/11/20
0.695211733,5.065772629,10.63600469,20.26758525,30.74558087,-0.806523137,2017/11/20
0.409682641,5.506493646,10.00472977,20.71644556,30.41846054,-0.748476522,2017/11/20
0.357538774,5.538457347,10.99130219,20.59174367,30.1054317,-0.321532421,2017/11/20
0.680955581,5.76267435,10.98288687,20.46623814,30.04215981,-0.514016978,2017/11/20
0.228982121,5.477992948,10.40004195,20.44173259,30.7116859,-0.941450697,2017/11/20
0.989508027,5.064419236,10.60891257,20.63793125,30.78786209,-0.913465711,2017/11/20
0.167030935,5.368484076,10.8247827,20.93255034,30.75313065,-0.827707923,2017/11/20
0.178842231,5.890320952,10.70543733,20.9697071,30.54499773,-0.33848584,2017/11/20
0.669849868,5.284917001,10.66358248,20.07513234,30.77078396,-0.031996653,2017/11/20
0.164293762,5.859708268,10.99337214,20.15676562,30.05966338,-0.066628278,2017/11/20
0.14335109,5.828371064,10.57863768,20.31501998,30.65520602,-0.80173729,2017/11/20
0.792781121,5.971116479,10.62440093,20.48566928,30.04466179,-0.734892202,2017/11/20
0.354206155,5.147436356,10.94403602,20.19671385,30.27745178,-0.243354334,2017/11/20
0.993228881,5.614781161,10.6819511,20.82714223,30.18986884,-0.099581584,2017/11/20
0.034044932,5.647319129,10.30109959,20.20079454,30.98578819,-0.96311257,2017/11/20
0.516008892,5.214089002,10.10752835,20.69867705,30.99330727,-0.980340961,2017/11/20
0.231719533,5.967133014,10.11491611,20.00634944,30.38105946,-0.407359757,2017/11/20
0.924397426,5.104826607,10.64644165,20.60244808,30.7488067,-0.750457419,2017/11/20
0.792043708,5.703190482,10.79455009,20.65652458,30.19301718,-0.500767867,2017/11/20
0.728229154,5.898875785,10.25869092,20.88380392,30.40293592,-0.940243146,2017/11/20
0.274146182,5.446829019,10.07133196,20.25893372,30.57027405,-0.877803001,2017/11/20
0.444031486,5.991159904,10.86776968,20.65970029,30.72530416,-0.361077272,2017/11/20
0.852408954,5.211182192,10.85422706,20.05842994,30.98403539,-0.123521465,2017/11/20
0.407516578,5.407680795,10.04586724,20.34746145,30.63476685,-0.509044954,2017/11/20
0.791349336,5.798454486,10.73056659,20.76156991,30.2177106,-0.369464808,2017/11/20
0.903618513,5.283590984,10.40874903,20.34852569,30.86987874,-0.249739664,2017/11/20
0.556391654,5.584105724,10.33008969,20.94231214,30.71691672,-0.097477724,2017/11/20
0.904418791,5.29619264,10.12225646,20.54106585,30.05272871,-0.062017701,2017/11/20
0.130745253,5.458317269,10.30506462,20.70149807,30.4052223,-0.844825677,2017/11/20
0.662189,5.640817697,10.49464248,20.68776663,30.00183103,-0.91669008,2017/11/20
0.688851225,5.346738321,10.97573965,20.05366668,30.68512528,-0.612484288,2017/11/20
0.39614553,5.918956609,10.29279426,20.34624246,30.04370227,-0.156644226,2017/11/20
0.343070364,5.803616886,10.17692816,20.79685055,30.23872152,-0.072058273,2017/11/20
0.303064025,5.296226443,10.9519453,20.92202284,30.86063985,-0.4492812,2017/11/20
0.436766716,5.510935046,10.80013571,20.94329223,30.49099972,-0.15187304,2017/11/20
0.940089574,5.770296157,10.45320172,20.04120959,30.12523725,-0.31587582,2017/11/20
0.347969065,5.903476588,10.09987181,20.44033651,30.69944441,-0.66754597,2017/11/20
0.186742513,5.159649375,10.43482638,20.56022372,30.14356347,-0.94509712,2017/11/20
0.7773109,5.145103454,10.52873029,20.76416349,30.56447449,-0.200394463,2017/11/20
0.526342997,5.439958402,10.03901044,20.29121998,30.09833062,-0.504856149,2017/11/20
0.299242795,5.61124238,10.7688249,20.1526132,30.8057468,-0.885357332,2017/11/20
0.850314103,5.437439701,10.87307372,20.73924953,30.25726689,-0.845698477,2017/11/20
0.57479186,5.479071306,10.70318855,20.77062617,30.83917113,-0.0058309,2017/11/20
0.928039563,5.046220152,10.64696384,20.25993698,30.48106169,-0.33406668,2017/11/20
0.935536048,5.491543246,10.61751266,20.06457904,30.37130742,-0.291078628,2017/11/20
0.362907228,5.442225251,10.88407615,20.25589502,30.50365374,-0.683573016,2017/11/20
0.107255835,5.184766773,10.69059329,20.33607684,30.05315676,-0.569677979,2017/11/20
0.092303662,5.451360098,10.80124227,20.95188785,30.89388381,-0.434798844,2017/11/20
0.440117107,5.847748331,10.01379762,20.89338764,30.6900442,-0.301731713,2017/11/20
0.878377737,5.424971222,10.10975889,20.9779493,30.90228528,-0.785089236,2017/11/20
0.479953758,5.966048975,10.08634408,20.97223783,30.59028935,-0.282118898,2017/11/20
0.148196244,5.193020403,10.08797942,20.83891085,30.81763288,-0.911435753,2017/11/20
0.06105895,5.988118744,10.69858221,20.33087183,30.04780162,-0.094298966,2017/11/20
0.896784963,5.420930447,10.67003557,20.94620117,30.26255618,-0.764569325,2017/11/20
0.292980488,5.10871312,10.56430341,20.53590921,30.66257843,-0.589753189,2017/11/20
0.591162488,5.38972377,10.02785913,20.16874631,30.26869031,-0.147684911,2017/11/20
0.702137104,5.335061673,10.54189191,20.02641751,30.23122,-0.45561779,2017/11/20
0.070976531,5.313498475,10.40131674,20.95613814,30.7541012,-0.423763167,2017/11/20
0.547177255,5.362316793,10.67660351,20.5154357,30.44204453,-0.361129659,2017/11/20
0.191531139,5.465417758,10.21824326,20.08455469,30.25451243,-0.040562771,2017/11/20
0.070602215,5.085415213,10.37195414,20.4578695,30.04782027,-0.494715908,2017/11/20
0.882944288,5.263922715,10.92840882,20.26453442,30.32570982,-0.790883611,2017/11/20
0.418967748,5.456261631,10.54941649,20.48257254,30.03378144,-0.391660796,2017/11/20
0.420568176,5.397004004,10.6964188,20.07564776,30.01692081,-0.33597763,2017/11/20
0.793391755,5.050250693,10.85601473,20.43989643,30.87531793,-0.236987575,2017/11/20
0.145295426,5.452965814,10.49131335,20.54248466,30.19158339,-0.190000227,2017/11/20
0.830560661,5.061564242,10.00834667,20.86057933,30.14847856,-0.874351056,2017/11/20
0.170401917,5.600292356,10.95586401,20.52367801,30.38519798,-0.837825298,2017/11/20
0.767712462,5.179455887,10.58747657,20.54919004,30.53423142,-0.891617458,2017/11/20
0.921917192,5.881167587,10.28119991,20.77535489,30.97685999,-0.50454907,2017/11/20
0.652770814,5.341759953,10.2064703,20.04303444,30.33245047,-0.780232744,2017/11/20
0.48219246,5.165862685,10.93040516,20.76035361,30.64829935,-0.120287598,2017/11/20
0.88557051,5.635117454,10.17714353,20.78759484,30.53528308,-0.575870586,2017/11/20
0.195461297,5.571331076,10.12096688,20.81296938,30.99850963,-0.629684006,2017/11/20
0.987387086,5.589940675,10.24671906,20.64837594,30.40227113,-0.430684999,2017/11/20
0.740721461,5.401520292,10.4723004,20.04305723,30.26309558,-0.945306027,2017/11/20
0.536183642,5.106563459,10.11835602,20.56957706,30.06028496,-0.373160451,2017/11/20
0.399976849,5.410789695,10.00105116,20.2173022,30.58604889,-0.425308359,2017/11/20
0.849953886,5.56304895,10.82074593,20.85643134,30.35843621,-0.843329181,2017/11/20
0.114921626,5.388837284,10.92947912,20.3157942,30.91444118,-0.033599744,2017/11/20
0.333103662,5.104190294,10.04408249,20.27084073,30.47723392,-0.811352104,2017/11/20
0.511505031,5.493880016,10.26475247,20.68258509,30.3300916,-0.746806793,2017/11/20
0.240828309,5.735681923,10.88164168,20.02819378,30.96808533,-0.634347918,2017/11/20
0.342017714,5.322366605,10.04615237,20.79739104,30.9924183,-0.2834201,2017/11/20
0.370585728,5.866770778,10.51315421,20.31341835,30.72839298,-0.699079717,2017/11/20
0.029805591,5.010995379,10.13894644,20.72069349,30.06982527,-0.698468146,2017/11/20
0.522559576,5.520706693,10.17304206,20.40701943,30.23045866,-0.808590897,2017/11/20
0.589747552,5.242698839,10.95946179,20.49446469,30.62154136,-0.097908545,2017/11/20
0.234754536,5.012375312,10.86608482,20.54051813,30.80007673,-0.110940816,2017/11/20
0.845268476,5.546434043,10.86817058,20.30982679,30.45665325,-0.034703266,2017/11/20
0.215598446,5.569516463,10.251969,20.37219706,30.93431785,-0.335491534,2017/11/20
0.099656152,5.329997772,10.18436897,20.58755314,30.72529458,-0.512922076,2017/11/20
0.866263856,5.807818613,10.61925099,20.81953991,30.64970015,-0.214292043,2017/11/20
0.174405122,5.308350116,10.62910701,20.79148567,30.66178945,-0.113000386,2017/11/20
0.727697487,5.1234704,10.81864507,20.5059493,30.20839725,-0.678765369,2017/11/20
0.621302403,5.352848632,10.05488741,20.4297655,30.58976371,-0.00477818,2017/11/20
0.788022179,5.56013069,10.5137787,20.92050417,30.77454452,-0.63952748,2017/11/20
0.957561197,5.194789516,10.23202413,20.18531578,30.3521026,-0.192233485,2017/11/20
0.106181176,5.872416478,10.25399957,20.86376391,30.28136503,-0.040346856,2017/11/20
0.196843628,5.640439777,10.51861254,20.72230047,30.93301633,-0.565474164,2017/11/20
0.328967622,5.969952034,10.73884962,20.74068056,30.42001519,-0.998735095,2017/11/20
0.636963523,5.435990881,10.29311326,20.4615052,30.63275928,-0.222210346,2017/11/20
0.096297814,5.77995277,10.26124096,20.74129761,30.94872671,-0.495895583,2017/11/20
0.798181003,5.913667685,10.12885354,20.48471524,30.75099223,-0.931053907,2017/11/20
0.343513811,5.90361932,10.61353828,20.65513087,30.09574354,-0.459723502,2017/11/20
0.048446715,5.561048794,10.27569731,20.03298303,30.98861134,-0.170523003,2017/11/20
0.006067049,5.99956659,10.35921623,20.72032115,30.33104801,-0.2299177,2017/11/20
0.36741372,5.311714493,10.30473761,20.67410281,30.136895,-0.371146771,2017/11/20
0.098748864,5.962893018,10.7876477,20.69389143,30.18839585,-0.429315713,2017/11/20
0.116091967,5.979176111,10.56449568,20.37951379,30.96597288,-0.194328923,2017/11/20
0.409238421,5.808676207,10.78067224,20.03802551,30.43633085,-0.432351885,2017/11/20
0.932365396,5.109466819,10.06941934,20.23280706,30.8398693,-0.988545712,2017/11/20
0.28465737,5.741526375,10.95657926,20.06177973,30.69339755,-0.692201288,2017/11/20
0.115362127,5.378415313,10.9753973,20.33897102,30.02340315,-0.193097016,2017/11/20
0.367042052,5.228652744,10.22868579,20.45303873,30.94832868,-0.475636134,2017/11/20
0.812291146,5.41703192,10.91954589,20.27629514,30.12897674,-0.042127463,2017/11/20
0.670495565,5.46953357,10.97428712,20.16575577,30.26451368,-0.957218867,2017/11/20
0.544410958,5.416142927,10.67748134,20.86227872,30.5056042,-0.482936332,2017/11/20
0.709737469,5.07060062,10.39943567,20.99530754,30.15529212,-0.199070146,2017/11/20
0.741283072,5.156414005,10.4427967,20.8985873,30.27956634,-0.891983514,2017/11/20
0.735845352,5.220709655,10.99902112,20.14362232,30.7218138,-0.656704997,2017/11/20
0.554327541,5.964475677,10.68299915,20.5423478,30.5753597,-0.199348903,2017/11/20
0.692261029,5.596373173,10.45840183,20.15465306,30.23927985,-0.46559462,2017/11/20
0.642563704,5.571900845,10.0964492,20.10218776,30.90921811,-0.617292342,2017/11/20
0.21845758,5.925506641,10.13119394,20.78015269,30.50252656,-0.732475263,2017/11/20
0.655621018,5.827926118,10.60883007,20.51169913,30.18075511,-0.861877175,2017/11/20
0.086729431,5.101402643,10.39311538,20.59093051,30.81359026,-0.171902685,2017/11/20
0.595399921,5.460155184,10.66980731,20.98317971,30.26653288,-0.317692227,2017/11/20
0.972335179,5.974167631,10.44600982,20.40379296,30.56020812,-0.16373948,2017/11/20
0.395405469,5.024402026,10.70687015,20.36255076,30.27025178,-0.513333989,2017/11/20
0.500164586,5.442603883,10.81053185,20.8865789,30.03059545,-0.31919591,2017/11/20
0.870355144,5.453639784,10.42592834,20.30123196,30.94310696,-0.199605102,2017/11/20
0.052855504,5.891313794,10.29118634,20.01674773,30.55740721,-0.112803274,2017/11/20
0.492207826,5.376449869,10.93269533,20.75922778,30.53908934,-0.421755722,2017/11/20
0.805211313,5.681994592,10.03376312,20.76126584,30.66864205,-0.510612274,2017/11/20
0.827186709,5.139818398,10.62614177,20.73043417,30.06048821,-0.558677051,2017/11/20
0.369527796,5.250991192,10.03146629,20.39135628,30.06477331,-0.576382729,2017/11/20
0.190164542,5.619937325,10.65202006,20.57970691,30.80607515,-0.441595535,2017/11/20
0.662265066,5.124745097,10.28010651,20.11200964,30.34131252,-0.286665875,2017/11/20
0.127407756,5.099635077,10.29612707,20.88157777,30.72226131,-0.469683882,2017/11/20
0.424895865,5.188927554,10.11433267,20.70976621,30.0329649,-0.169348144,2017/11/20
0.135581232,5.919409422,10.68485116,20.69707345,30.47944679,-0.987539903,2017/11/20
0.140919596,5.714086754,10.45858326,20.42059084,30.6691473,-0.080608252,2017/11/20
0.900727111,5.258119563,10.43093891,20.69276967,30.80825714,-0.298166771,2017/11/20
0.415189494,5.685933476,10.73114242,20.40553617,30.78885275,-0.59090348,2017/11/20
0.519298017,5.307594482,10.14829307,20.86951199,30.13502202,-0.873902186,2017/11/20
0.394140153,5.053292144,10.75059242,20.2633437,30.59677791,-0.881364081,2017/11/20
0.182168505,5.778752881,10.01131348,20.12507787,30.0756295,-0.966959326,2017/11/20
0.51914751,5.934473863,10.50849249,20.07401566,30.6987019,-0.792350013,2017/11/20
0.285389996,5.538472525,10.13436692,20.17063265,30.30070082,-0.940489515,2017/11/20
0.585083202,5.016065272,10.94069889,20.97506143,30.2628752,-0.686925628,2017/11/20
0.95590826,5.393513438,10.09147777,20.23448582,30.04138335,-0.175015656,2017/11/20
0.97267987,5.518830598,10.63894045,20.08150283,30.5494057,-0.682512759,2017/11/20
0.015007773,5.439766693,10.3126252,20.51245858,30.27587843,-0.182564422,2017/11/20
0.96790814,5.898928744,10.04698164,20.3294207,30.75197972,-0.493068323,2017/11/20
0.061007639,5.687890639,10.48528129,20.77331426,30.08268329,-0.789397814,2017/11/20
0.481312167,5.572532157,10.2883791,20.99529526,30.13529392,-0.899971747,2017/11/20
0.731490271,5.419873197,10.2375576,20.00934346,30.178324,-0.1069624,2017/11/20
0.339880137,5.98690601,10.40252222,20.71400663,30.73070594,-0.372368468,2017/11/20
0.539171051,5.007186138,10.63498734,20.30031429,30.59612888,-0.286429327,2017/11/20
0.064430327,5.564290275,10.15670346,20.88244923,30.80832806,-0.392931158,2017/11/20
0.594181735,5.281752469,10.10882321,20.42970537,30.52889781,-0.883383389,2017/11/20
0.852567813,5.978231016,10.53583936,20.0072472,30.22977852,-0.286417176,2017/11/20
0.284856396,5.641914832,10.191881,20.50008581,30.8863998,-0.688462494,2017/11/20
0.483270144,5.11364835,10.08954352,20.40029113,30.34297323,-0.577032378,2017/11/20
0.401894851,5.108423324,10.10117551,20.56846068,30.92776932,-0.114328398,2017/11/20
0.236339663,5.795918307,10.94237515,20.28636634,30.74582611,-0.164976803,2017/11/20
0.687162329,5.385057038,10.67988071,20.145741,30.24914556,-0.776805663,2017/11/20
0.748855366,5.245188498,10.54185104,20.96662704,30.13456332,-0.394090622,2017/11/20
0.219308742,5.283929791,10.91888408,20.26835526,30.6427084,-0.669010366,2017/11/20
0.271682107,5.660232754,10.84209241,20.06471075,30.8739744,-0.749518431,2017/11/20
0.345053856,5.927778098,10.8764409,20.29696544,30.21420495,-0.6447236,2017/11/20
0.39505438,5.782004508,10.33893987,20.24669912,30.78477786,-0.149363288,2017/11/20
0.314470595,5.872644787,10.04582345,20.53887742,30.55789731,-0.059891686,2017/11/20
0.456994798,5.85320215,10.79353449,20.26176236,30.93088527,-0.444214145,2017/11/20
0.403628563,5.929114918,10.11307582,20.97366104,30.9520325,-0.083367612,2017/11/20
0.497535019,5.626381392,10.2260906,20.19804251,30.12535472,-0.355729774,2017/11/20
0.994031531,5.934139589,10.69972076,20.08716829,30.58006485,-0.363448809,2017/11/20
0.008286534,5.143025939,10.85095594,20.36677299,30.81282686,-0.40639607,2017/11/20
0.168772618,5.974349743,10.85846469,20.52463502,30.75977192,-0.758166964,2017/11/20
0.764691442,5.898015987,10.98092145,20.48136258,30.23337604,-0.737345449,2017/11/20
0.681708916,5.702987196,10.8433953,20.373136,30.28861102,-1.44185E-05,2017/11/20
0.349448483,5.922935371,10.32655884,20.46935016,30.51550897,-0.316263591,2017/11/20
0.880754171,5.895763561,10.71323233,20.18929308,30.3666532,-0.803644359,2017/11/20
0.525841637,5.968648431,10.26387852,20.57431248,30.06381583,-0.099772575,2017/11/20
0.051304136,5.477894497,10.21876794,20.06148647,30.29654932,-0.929671516,2017/11/20
0.401100782,5.033748693,10.88331071,20.50582218,30.6050785,-0.367289996,2017/11/20
0.661778647,5.302848008,10.10932769,20.27071786,30.66140627,-0.273731426,2017/11/20
0.658845726,5.89879315,10.83949927,20.82476779,30.49022957,-0.37588308,2017/11/20
0.143778657,5.841489257,10.86274012,20.77881102,30.21873491,-0.802831763,2017/11/20
0.760952179,5.818485741,10.59763002,20.07638312,30.18343813,-0.317774202,2017/11/20
0.292807941,5.203463501,10.89913094,20.55185933,30.08601144,-0.336412321,2017/11/20
0.892592203,5.773281061,10.26538158,20.67240943,30.25809041,-0.76704968,2017/11/20
0.598105889,5.381245691,10.130522,20.31545899,30.67222304,-0.136117764,2017/11/20
0.229087976,5.879988312,10.0919068,20.78824946,30.54686558,-0.561775048,2017/11/20
0.927396412,5.560518455,10.48671021,20.25532338,30.15119594,-0.150221051,2017/11/20
0.492745156,5.537240481,10.31345819,20.55383291,30.18308051,-0.251599367,2017/11/20
0.747321606,5.407654197,10.68834389,20.16491786,30.87079541,-0.246696872,2017/11/20
0.096876807,5.763439762,10.47596253,20.76774729,30.25744783,-0.586308247,2017/11/20
0.581743902,5.982606463,10.14005547,20.45145614,30.95753024,-0.186026075,2017/11/20
0.407280998,5.094935925,10.1830229,20.16011485,30.30849363,-0.664391939,2017/11/20
0.977445781,5.749498656,10.49534712,20.50067736,30.58436769,-0.118925259,2017/11/20
0.897504243,5.513385102,10.58499217,20.05048343,30.10550098,-0.614588801,2017/11/20
0.423704934,5.102307567,10.05336443,20.98616025,30.73268887,-0.04528206,2017/11/20
0.41418528,5.433526384,10.33566406,20.96449712,30.77186994,-0.63787199,2017/11/20
0.279179587,5.007255812,10.37707923,20.55278243,30.75751162,-0.380702305,2017/11/20
0.95403163,5.713793233,10.21345556,20.62800257,30.83453475,-0.90107693,2017/11/20
0.497078768,5.781526528,10.49503138,20.3121007,30.95698966,-0.059940108,2017/11/20
0.518667774,5.856518651,10.15070036,20.55438728,30.87215044,-0.550452758,2017/11/20
0.254339744,5.01500299,10.39085947,20.89377267,30.51573768,-0.707426869,2017/11/20
0.123620681,5.025230958,10.73235869,20.33353301,30.31453657,-0.182693425,2017/11/20
0.896774489,5.569670588,10.63806194,20.95646826,30.13368757,-0.314439079,2017/11/20
0.335562991,5.621640991,10.7544941,20.60471041,30.30750741,-0.460641119,2017/11/20
0.583068894,5.533810528,10.76600853,20.06270146,30.7656049,-0.309943146,2017/11/20
0.333089473,5.463934643,10.159549,20.82224268,30.36797587,-0.416091381,2017/11/20
0.063680599,5.513333438,10.515578,20.81978444,30.06172016,-0.35727926,2017/11/20
0.683058562,5.325623021,10.25491879,20.29476747,30.97745091,-0.993595314,2017/11/20
0.176701046,5.159888774,10.02613897,20.71112403,30.38619905,-0.955563296,2017/11/20
0.677499172,5.198787671,10.01039034,20.12462008,30.74746813,-0.608885274,2017/11/20
0.641781432,5.906418525,10.11904467,20.62179055,30.57026749,-0.183378703,2017/11/20
0.17610063,5.136827073,10.30831028,20.44741491,30.07919441,-0.28472623,2017/11/20
0.242321225,5.051566825,10.34282096,20.43932429,30.29942663,-0.772321201,2017/11/20
0.29283153,5.343227456,10.87038991,20.44573905,30.32326208,-0.849290307,2017/11/20
0.914859366,5.794973363,10.61687212,20.05475346,30.85598551,-0.388079652,2017/11/20
0.023591658,5.79030479,10.7373329,20.86198522,30.94313304,-0.023061544,2017/11/20
0.351285003,5.697114346,10.36874506,20.29325604,30.28636492,-0.911837219,2017/11/20
0.739477038,5.903647487,10.76091909,20.6090663,30.3916634,-0.637802415,2017/11/20
0.735452422,5.878579902,10.46523296,20.08885703,30.09882265,-0.939055689,2017/11/20
0.150436559,5.357080216,10.840151,20.86299853,30.58150638,-0.486489151,2017/11/20
0.071819551,5.900759487,10.72582792,20.0554893,30.43942707,-0.101927053,2017/11/20
0.394461624,5.344695847,10.700223,20.57471194,30.95595565,-0.799294583,2017/11/20
0.739262675,5.381512235,10.71617803,20.10234513,30.6196785,-0.729434145,2017/11/20
0.212018631,5.620831004,10.53720134,20.60823138,30.73566674,-0.661261785,2017/11/20
0.617906913,5.749830795,10.43436507,20.68036938,30.68516927,-0.090963267,2017/11/20
0.041738556,5.703221898,10.66311842,20.83925442,30.67642971,-0.913515675,2017/11/20
0.439128348,5.301409989,10.95909464,20.16945949,30.43852958,-0.879897993,2017/11/20
0.087787107,5.962127658,10.17911242,20.69925152,30.60093449,-0.978190764,2017/11/20
0.767658897,5.838049544,10.79876437,20.17479945,30.91425609,-0.105875958,2017/11/20
0.251174719,5.355342075,10.57037214,20.91040876,30.13853551,-0.97884935,2017/11/20
0.186952257,5.884894058,10.41101986,20.39383712,30.33306294,-0.891085078,2017/11/20
0.149986344,5.191567245,10.45410029,20.75539577,30.1247678,-0.880166385,2017/11/20
0.500198531,5.832124187,10.63910703,20.88202248,30.27657606,-0.629099495,2017/11/20
0.672591388,5.272731959,10.74358658,20.51645243,30.63303574,-0.440906141,2017/11/20
0.557790469,5.901843955,10.23057712,20.06295789,30.15853873,-0.291301161,2017/11/20
0.276446415,5.335564065,10.42716913,20.73349217,30.14185086,-0.426096213,2017/11/20
0.463815036,5.980417026,10.59810897,20.36771176,30.3794433,-0.707175295,2017/11/20
0.927919713,5.388157706,10.60227535,20.67713538,30.07657987,-0.80894265,2017/11/20
0.974391109,5.877013904,10.69658386,20.05645575,30.95776224,-0.914617158,2017/11/20
0.743215196,5.152062626,10.3773181,20.08336457,30.67003766,-0.246834888,2017/11/20
0.026134914,5.535921426,10.0083382,20.53336969,30.68044754,-0.179952993,2017/11/20
0.342587435,5.708845878,10.99989616,20.85031697,30.39534505,-0.617944466,2017/11/20
0.521255004,5.120662129,10.40240349,20.41012583,30.7590102,-0.243952538,2017/11/20
0.482924665,5.185820991,10.55475248,20.78412662,30.74046645,-0.975249739,2017/11/20
0.595402143,5.441504007,10.34905861,20.83902049,30.64319976,-0.823277673,2017/11/20
0.339498442,5.77061652,10.06499298,20.98577853,30.37801045,-0.375978757,2017/11/20
0.801102883,5.108694269,10.67076994,20.17419923,30.72388501,-0.977240643,2017/11/20
0.528262346,5.783624893,10.07596511,20.33129808,30.91492378,-0.684939652,2017/11/20
0.495197237,5.161415789,10.96340743,20.63012587,30.23939,-0.340625743,2017/11/20
0.865258178,5.213365328,10.05439997,20.19742897,30.21770503,-0.88383998,2017/11/20
0.458779532,5.375463139,10.23034489,20.36683261,30.22676094,-0.566916653,2017/11/20
0.672865529,5.515602197,10.33420273,20.18236532,30.28233722,-0.773879329,2017/11/20
0.765937245,5.361255575,10.31031251,20.05436856,30.07294114,-0.661413057,2017/11/20
0.593057095,5.564575244,10.40484534,20.20527058,30.74009751,-0.138524185,2017/11/20
0.907831374,5.400717808,10.61711839,20.15934382,30.19275584,-0.781567116,2017/11/20
0.825982266,5.982446973,10.80916307,20.9482891,30.0408736,-0.433724426,2017/11/20
0.510972677,5.031859491,10.04936395,20.83129915,30.71474164,-0.933342065,2017/11/20
0.535409241,5.679818654,10.78199851,20.13351811,30.34022347,-0.312028581,2017/11/20
0.238986691,5.023886681,10.63678052,20.78761928,30.11020237,-0.005665359,2017/11/20
0.821002361,5.211959735,10.17414703,20.38090425,30.39664144,-0.393497874,2017/11/20
0.895623316,5.475014306,10.43212158,20.22775355,30.79532626,-0.301792954,2017/11/20
0.505698331,5.260702974,10.06160519,20.33089045,30.36255537,-0.722081663,2017/11/20
0.571405426,5.139086238,10.16156389,20.5086409,30.21808041,-0.491921518,2017/11/20
0.783490459,5.746680204,10.4104733,20.50402285,30.63829533,-0.21803371,2017/11/20
0.105830514,5.145262348,10.90276823,20.88212734,30.73603982,-0.885972802,2017/11/20
0.936555117,5.319873172,10.7874252,20.56147018,30.58451791,-0.624979256,2017/11/20
0.204022745,5.197133932,10.51101364,20.77787075,30.59754183,-0.836730936,2017/11/20
0.000842758,5.808174022,10.25530922,20.30427474,30.56544836,-0.770084999,2017/11/20
0.447400439,5.145527503,10.60661682,20.66944092,30.04362503,-0.109533532,2017/11/20
0.226587501,5.324718412,10.42349324,20.14912202,30.84355932,-0.759721153,2017/11/20
0.513894171,5.057495831,10.92238462,20.48791186,30.82527552,-0.561993278,2017/11/20
0.916167905,5.29775359,10.1587859,20.19561954,30.19398389,-0.47127676,2017/11/20
0.631979167,5.317144279,10.74240353,20.73158365,30.0005052,-0.144988983,2017/11/20
0.846812847,5.439712175,10.14589678,20.48444475,30.85735932,-0.864287529,2017/11/20
0.80732828,5.509432689,10.74044631,20.04737281,30.90825758,-0.585845103,2017/11/20
0.749703228,5.768415197,10.71912126,20.70241133,30.12776881,-0.892277261,2017/11/20
0.57371803,5.718205038,10.36376084,20.43557005,30.2509484,-0.0177902,2017/11/20
0.391819112,5.214362205,10.83316489,20.85690649,30.88761124,-0.711563112,2017/11/20
0.691391151,5.902349009,10.10299973,20.16633763,30.89421735,-0.6446021,2017/11/20
0.287382792,5.162590374,10.71566368,20.92705755,30.65151409,-0.201215732,2017/11/20
0.446265778,5.196542586,10.10548355,20.23359417,30.36777969,-0.697761399,2017/11/20
0.990616363,5.635601572,10.88033318,20.14822351,30.13947789,-0.87238851,2017/11/20
0.735525103,5.393176879,10.62106044,20.64334715,30.83331914,-0.638467743,2017/11/20
0.407494576,5.581792429,10.20280243,20.16726781,30.30198731,-0.990258147,2017/11/20
0.071828677,5.968422569,10.21834726,20.92225477,30.21020442,-0.187182083,2017/11/20
0.096226344,5.778600104,10.63952267,20.21160515,30.29422318,-0.58207397,2017/11/20
0.677019055,5.240493708,10.10757777,20.79141147,30.29898233,-0.537005495,2017/11/20
0.436270785,5.944318749,10.19683201,20.71657551,30.62987268,-0.21573858,2017/11/20
0.900041268,5.230727488,10.57616296,20.16053195,30.99043981,-0.071199449,2017/11/20
0.758470308,5.314819203,10.16890414,20.30301722,30.79056546,-0.183701868,2017/11/20
0.339058665,5.604780432,10.13275039,20.99426179,30.39785515,-0.926799053,2017/11/20
0.447535846,5.662126527,10.98766536,20.83920305,30.3244498,-0.207060256,2017/11/20
0.366001752,5.017467502,10.1944591,20.51227108,30.83571746,-0.130169546,2017/11/20
0.099471726,5.704409522,10.86106278,20.43367954,30.81721075,-0.104993755,2017/11/20
0.372063665,5.99247819,10.09328195,20.23333028,30.49176017,-0.65873235,2017/11/20
0.755891732,5.898096692,10.36692953,20.46355179,30.56564748,-0.0910012,2017/11/20
0.790289523,5.758332232,10.27127461,20.65457286,30.12308262,-0.534543891,2017/11/20
0.209892534,5.360515077,10.45961596,20.56495179,30.96493947,-0.815117538,2017/11/20
0.03999388,5.907039724,10.40874231,20.86259864,30.81062467,-0.087343308,2017/11/20
0.001918937,5.636140392,10.81192889,20.96429813,30.77294354,-0.711226569,2017/11/20
0.886532593,5.652795528,10.60409641,20.90489092,30.19892059,-0.722745921,2017/11/20
0.077958468,5.752125871,10.31270859,20.83100662,30.74647462,-0.485331943,2017/11/20
0.545162678,5.081109798,10.07224449,20.83623618,30.69759978,-0.507518269,2017/11/20
0.667421497,5.711470071,10.40452836,20.76565747,30.35740438,-0.013124749,2017/11/20
0.759947028,5.603780742,10.07649346,20.11195077,30.65693037,-0.734760107,2017/11/20
0.414782871,5.810076215,10.01335231,20.512054,30.20176481,-0.132264415,2017/11/20
0.070106115,5.347988231,10.53144005,20.45361723,30.10757834,-0.137270342,2017/11/20
0.577423464,5.047020082,10.8897301,20.12174247,30.70052458,-0.20867555,2017/11/20
0.07386623,5.983959376,10.67581967,20.10689972,30.47557544,-0.819271528,2017/11/20
0.056437736,5.805386037,10.13818141,20.29345746,30.56051861,-0.221775577,2017/11/20
0.990145032,5.201665536,10.36214451,20.64130113,30.91274182,-0.314764303,2017/11/20
0.269222743,5.461384214,10.32628647,20.95567093,30.90891688,-0.876917667,2017/11/20
0.993676081,5.904108508,10.44753901,20.79817762,30.02166048,-0.998824528,2017/11/20
0.269795587,5.38607196,10.05383698,20.06467515,30.27474157,-0.186537471,2017/11/20
0.852999989,5.06552183,10.58245241,20.46708009,30.66412005,-0.071175347,2017/11/20
0.074365218,5.971700934,10.16810437,20.69801593,30.20900737,-0.935394368,2017/11/20
0.430284741,5.501584691,10.15325649,20.92698354,30.82670833,-0.886357563,2017/11/20
0.304451325,5.948091242,10.31514152,20.1401244,30.59080824,-0.259633983,2017/11/20
0.616565897,5.153280892,10.01762791,20.37355553,30.32867153,-0.861339918,2017/11/20
0.736303644,5.19131473,10.53871742,20.30032358,30.42894981,-0.890908287,2017/11/20
0.351381188,5.458859594,10.59415575,20.10876212,30.78385181,-0.294314322,2017/11/20
0.426644072,5.025793108,10.67998885,20.42012978,30.16107081,-0.221649278,2017/11/20
0.280390544,5.283059119,10.52916194,20.65854441,30.15104573,-0.300824443,2017/11/20
0.832397011,5.666424746,10.17839421,20.36343499,30.63345565,-0.408834703,2017/11/20
0.560302478,5.437700102,10.63339559,20.44299505,30.71773944,-0.55840026,2017/11/20
0.097298037,5.428464822,10.74271428,20.83757613,30.31275335,-0.157629601,2017/11/20
0.867197125,5.685602614,10.89018413,20.36809645,30.33325707,-0.908857175,2017/11/20
0.574757705,5.283317386,10.63330244,20.28749681,30.3171661,-0.96701292,2017/11/20
0.706388716,5.967877171,10.23173257,20.92414646,30.0939118,-0.297529763,2017/11/20
0.43400344,5.824646768,10.82714801,20.4801664,30.0833948,-0.953948148,2017/11/20
0.431242562,5.638322274,10.92878863,20.44947945,30.14003234,-0.01452677,2017/11/20
0.560522733,5.822381872,10.64780514,20.62477438,30.41855279,-0.851369731,2017/11/20
0.420866096,5.614176743,10.81088617,20.77585253,30.47591926,-0.885565189,2017/11/20
0.259636977,5.133461926,10.32343416,20.81839074,30.12627414,-0.890538393,2017/11/20
0.07836604,5.357623771,10.4824308,20.81548861,30.78927,-0.620657,2017/11/20
0.241070577,5.920761897,10.28769403,20.12878736,30.04174095,-0.156538584,2017/11/20
0.554283547,5.913626428,10.39100802,20.31448573,30.02189118,-0.707405296,2017/11/20
0.25929954,5.735595165,10.89189675,20.80957503,30.51741235,-0.190235782,2017/11/20
0.21071432,5.661193096,10.32592591,20.03690432,30.8496614,-0.749374117,2017/11/20
0.756315847,5.217090188,10.04368399,20.38772379,30.53615374,-0.329737034,2017/11/20
0.778148329,5.078189271,10.30584491,20.63993457,30.14348541,-0.040682165,2017/11/20
0.738627133,5.608152013,10.82419231,20.67602889,30.48954956,-0.936781115,2017/11/20
0.42255807,5.548410636,10.31392302,20.16000668,30.99616799,-0.780917994,2017/11/20
0.860636425,5.89838288,10.14180651,20.5483818,30.15169396,-0.503482748,2017/11/20
0.698854586,5.657328135,10.25208368,20.83279285,30.51413262,-0.604688661,2017/11/20
0.642102261,5.212307,10.22242526,20.97809667,30.27954875,-0.203570045,2017/11/20
0.186960776,5.601978463,10.43705752,20.94343726,30.23430476,-0.177554103,2017/11/20
0.002096967,5.569430686,10.39239149,20.70372073,30.9328878,-0.743463494,2017/11/20
0.672261115,5.436320056,10.80915962,20.8475248,30.90254324,-0.639311582,2017/11/20
0.744914345,5.638997637,10.255369,20.4925636,30.56904028,-0.431345817,2017/11/20
0.562355417,5.12101012,10.34502102,20.36968135,30.46288585,-0.681622543,2017/11/20
0.436671859,5.016003674,10.94278889,20.06188886,30.39432497,-0.715715643,2017/11/20
0.756039606,5.506404699,10.9728003,20.90795282,30.54863438,-0.400467456,2017/11/20
0.209622599,5.718780233,10.26535276,20.3656276,30.41355846,-0.69034912,2017/11/20
0.40379329,5.854160681,10.09034064,20.89853992,30.90268827,-0.73028963,2017/11/20
0.025422781,5.354644605,10.93626935,20.06501577,30.29186873,-0.150553511,2017/11/20
0.514385529,5.552047586,10.53464253,20.51217845,30.925725,-0.30768622,2017/11/20
0.903298031,5.450478969,10.3225505,20.0523767,30.20983531,-0.786545763,2017/11/20
0.817496373,5.055911826,10.41700023,20.67566565,30.25110676,-0.078839392,2017/11/20
0.449726593,5.056338105,10.61126811,20.989202,30.32890169,-0.574834114,2017/11/20
0.438952447,5.600551941,10.39223558,20.22523417,30.94882271,-0.964968255,2017/11/20
0.417490282,5.172773613,10.63791983,20.10162556,30.15225749,-0.996817666,2017/11/20
0.786213678,5.890453037,10.76931759,20.49378437,30.93128137,-0.588431053,2017/11/20
0.365716686,5.286460559,10.36069715,20.85641083,30.80780296,-0.050388423,2017/11/20
0.880946491,5.45868482,10.25877008,20.79170099,30.35266065,-0.101312219,2017/11/20
0.213148173,5.967774179,10.13794997,20.48700592,30.6061548,-0.964815204,2017/11/20
0.955599035,5.057936272,10.74402635,20.37743667,30.28534028,-0.745789129,2017/11/20
0.019792075,5.087560732,10.47365023,20.1682291,30.36563812,-0.811058032,2017/11/20
0.810336608,5.456647039,10.17335903,20.91940096,30.71482861,-0.825129038,2017/11/20
0.962853967,5.17922437,10.24315861,20.59840351,30.64123312,-0.81707063,2017/11/20
0.768422127,5.214603749,10.10471284,20.31438796,30.05635614,-0.534896735,2017/11/20
0.409530635,5.369692535,10.9606583,20.23883495,30.31921058,-0.216195411,2017/11/20
0.76430519,5.352181029,10.07341628,20.70877169,30.3132009,-0.789837906,2017/11/20
0.961045981,5.037961699,10.31090944,20.94252687,30.8429246,-0.134112368,2017/11/20
0.941293719,5.166323726,10.94135366,20.2541124,30.67424977,-0.260014337,2017/11/20
0.310995286,5.869898652,10.73868599,20.82315669,30.31723809,-0.757904607,2017/11/20
0.243107937,5.753060673,10.29077907,20.90776778,30.18666642,-0.725700397,2017/11/20
0.221901021,5.256880397,10.79182178,20.20695095,30.69895273,-0.487539031,2017/11/20
0.511111476,5.70456202,10.88129074,20.09965382,30.60117885,-0.920854805,2017/11/20
0.31731865,5.047189555,10.11828976,20.07102664,30.26726795,-0.412427348,2017/11/20
0.470203621,5.924110844,10.51910548,20.15748588,30.43795269,-0.888110495,2017/11/20
0.820101487,5.106487992,10.14363488,20.51830824,30.87432197,-0.92602036,2017/11/20
0.111492087,5.686137711,10.00452424,20.39129633,30.79186152,-0.824234583,2017/11/20
0.290293003,5.769653323,10.85573596,20.09535629,30.12061343,-0.39454012,2017/11/20
0.262204341,5.946002315,10.0044259,20.24380986,30.68570761,-0.378259538,2017/11/20
0.469289119,5.036855766,10.8083952,20.55797905,30.74969276,-0.741700277,2017/11/20
0.259695211,5.530889581,10.19919641,20.34432155,30.48124907,-0.568933651,2017/11/20
0.300093959,5.005590454,10.1130982,20.20858085,30.03687235,-0.198047056,2017/11/20
0.680264908,5.084527831,10.2897797,20.09860244,30.11400566,-0.880027377,2017/11/20
0.941121421,5.491331795,10.98556721,20.58294532,30.34329115,-0.018575945,2017/11/20
0.025878987,5.991602369,10.96230319,20.33010025,30.88087415,-0.453751032,2017/11/20
0.891049152,5.947796415,10.08577092,20.79848123,30.77496417,-0.248862189,2017/11/20
0.684606801,5.43842829,10.33753298,20.44974529,30.10949823,-0.934029639,2017/11/20
0.700635213,5.070418257,10.53933376,20.79697115,30.06532213,-0.907116885,2017/11/20
0.132725761,5.177063816,10.4308497,20.31054521,30.50331406,-0.040124264,2017/11/20
0.517334672,5.311847358,10.04523252,20.6016002,30.44850102,-0.057095644,2017/11/20
0.141177483,5.121455902,10.04321252,20.63313779,30.96500783,-0.186540957,2017/11/20
0.930671507,5.559869219,10.82624076,20.73460102,30.49484603,-0.238429891,2017/11/20
0.511929379,5.852460478,10.03757048,20.50406863,30.11831479,-0.487205984,2017/11/20
0.905937424,5.016895115,10.82665563,20.28622195,30.61924781,-0.992787351,2017/11/20
0.375577148,5.085300013,10.76363833,20.31932584,30.02935077,-0.654450254,2017/11/20
0.084966634,5.527883452,10.62426521,20.67705425,30.28394485,-0.950772054,2017/11/20
0.972159116,5.940534809,10.08011677,20.40492116,30.2716482,-0.500047128,2017/11/20
0.228259349,5.830104401,10.92375555,20.67373039,30.3121075,-0.610211454,2017/11/20
0.066122109,5.852481813,10.1322186,20.43602011,30.24754231,-0.496473918,2017/11/20
0.053350813,5.948169298,10.25859334,20.75116575,30.37502253,-0.623769074,2017/11/20
0.240704184,5.454877831,10.9400131,20.8554384,30.99919797,-0.584355523,2017/11/20
0.747648592,5.471330515,10.91829008,20.58383791,30.08992806,-0.546122555,2017/11/20
0.096812073,5.737114851,10.08194791,20.28097615,30.88442238,-0.429293973,2017/11/20
0.053238436,5.573386925,10.60928496,20.03106253,30.43218748,-0.250304798,2017/11/20
0.660439229,5.684452993,10.55477372,20.42632123,30.07335269,-0.357448673,2017/11/20
0.28564717,5.084978709,10.22811645,20.04909583,30.78541783,-0.505239563,2017/11/20
0.667088119,5.379821963,10.76274289,20.93597649,30.25630992,-0.766271468,2017/11/20
0.577647848,5.982164199,10.68558748,20.75982117,30.03472973,-0.447859275,2017/11/20
0.012533188,5.163911115,10.72966992,20.00674431,30.28729847,-0.816460377,2017/11/20
0.246059187,5.124082642,10.02893667,20.70588122,30.09390583,-0.739475516,2017/11/20
0.828122968,5.040661473,10.90981958,20.8729622,30.19615108,-0.533817399,2017/11/20
0.75821027,5.583201004,10.56390047,20.34148078,30.47695569,-0.843861468,2017/11/20
0.644332729,5.542596206,10.94859078,20.86604407,30.90224841,-0.030928202,2017/11/20
0.280590646,5.149317745,10.59721507,20.56525282,30.4539722,-0.954734184,2017/11/20
0.547734587,5.161233774,10.88318658,20.5985347,30.65007813,-0.575569579,2017/11/20
0.790274256,5.594980622,10.45063439,20.97548919,30.36513551,-0.934956037,2017/11/20
0.893417176,5.048685593,10.94996941,20.20387329,30.68995812,-0.430680412,2017/11/20
0.518238875,5.87416814,10.18183455,20.15078982,30.19907496,-0.690290531,2017/11/20
0.16805151,5.143443934,10.45781403,20.23366355,30.05541209,-0.190501145,2017/11/20
0.043145119,5.532949445,10.75428568,20.66500032,30.87074434,-0.046088896,2017/11/20
0.301990736,5.19046456,10.35978331,20.0198975,30.56940383,-0.368609681,2017/11/20
0.68983897,5.999464286,10.81453376,20.70069265,30.40406549,-0.538513793,2017/11/20
0.100781936,5.3227167,10.35095949,20.22046389,30.26823366,-0.911981413,2017/11/20
0.013504844,5.912735343,10.85462105,20.03936887,30.24128409,-0.762333467,2017/11/20
0.907886567,5.940474633,10.09803027,20.20679,30.35328334,-0.588832207,2017/11/20
0.845052175,5.919777707,10.56477676,20.55670563,30.93709404,-0.161939432,2017/11/20
0.122993273,5.849275455,10.4070118,20.31955227,30.35980963,-0.429511597,2017/11/20
0.082552198,5.761140413,10.07485714,20.70615516,30.74036231,-0.103758327,2017/11/20
0.014231972,5.987757592,10.10360087,20.08477112,30.9114793,-0.932977488,2017/11/20
0.091410704,5.842515793,10.95805875,20.90175062,30.95732261,-0.312955036,2017/11/20
0.48419999,5.964705224,10.98652858,20.08732215,30.95031319,-0.412612293,2017/11/20
0.462401547,5.811023953,10.40794836,20.10700947,30.79365615,-0.496510385,2017/11/20
0.38088875,5.926424463,10.97667272,20.2887268,30.18309902,-0.463327249,2017/11/20
0.340336182,5.702741195,10.045759,20.01453097,30.80940724,-0.452721431,2017/11/20
0.378736459,5.165398988,10.61111547,20.39505979,30.36529068,-0.496983189,2017/11/20
0.314180567,5.069106516,10.70610031,20.62193205,30.19290164,-0.341874465,2017/11/20
0.266780205,5.392688485,10.18366898,20.1281629,30.67520963,-0.270163855,2017/11/20
0.884154004,5.59520788,10.70680526,20.30409401,30.45470043,-0.969304505,2017/11/20
0.734636079,5.976544919,10.39150415,20.09472162,30.25370266,-0.156248017,2017/11/20
0.576072355,5.468098117,10.2097005,20.81239768,30.05828703,-0.242306069,2017/11/20
0.13343212,5.287876063,10.72728309,20.23893386,30.41773949,-0.072518223,2017/11/20
0.492304727,5.751727352,10.94236366,20.63292427,30.71669714,-0.450125601,2017/11/20
0.909497609,5.345412068,10.33567401,20.07581263,30.49767085,-0.123314529,2017/11/20
0.502161965,5.401090748,10.64095254,20.67371552,30.44588953,-0.42448353,2017/11/20
0.200794923,5.371337638,10.61032682,20.63482032,30.50900501,-0.139356901,2017/11/20
0.634413193,5.985932077,10.41272467,20.32215133,30.69806955,-0.260508809,2017/11/20
0.360959696,5.574625447,10.96358455,20.909632,30.11160752,-0.752883806,2017/11/20
0.41330559,5.65590694,10.87095131,20.82762259,30.44298667,-0.872812199,2017/11/20
0.01132681,5.4262078,10.80018185,20.38861076,30.36266613,-0.251540531,2017/11/20
0.609140172,5.045790236,10.92548714,20.79229274,30.71091143,-0.336300203,2017/11/20
0.246493203,5.445038467,10.18749036,20.96929832,30.58840005,-0.636651006,2017/11/20
0.154296388,5.618117694,10.17191126,20.17342915,30.54516411,-0.318278684,2017/11/20
0.244799632,5.354361225,10.5883299,20.46255862,30.27511454,-0.372298117,2017/11/20
0.323168681,5.06077295,10.77739968,20.41816961,30.11989484,-0.711871359,2017/11/20
0.417557529,5.925422951,10.47382688,20.92346574,30.58859304,-0.682499925,2017/11/20
0.06282759,5.337597154,10.48026514,20.87904422,30.10824593,-0.990137997,2017/11/20
0.068186407,5.152140181,10.95626867,20.5743133,30.52644524,-0.108042587,2017/11/20
0.835337966,5.53576958,10.61419092,20.4777642,30.523619,-0.603051775,2017/11/20
0.642603535,5.321320056,10.39469943,20.58810446,30.30266865,-0.460903231,2017/11/20
0.429461025,5.790817788,10.95437319,20.27623407,30.5158968,-0.270164329,2017/11/20
0.576854788,5.645179121,10.63350173,20.86184231,30.82095321,-0.560738751,2017/11/20
0.915218944,5.689453713,10.31423774,20.33642193,30.07834118,-0.731208341,2017/11/20
0.974139512,5.592786235,10.30231664,20.63831854,30.94555189,-0.337125772,2017/11/20
0.119720367,5.896003873,10.30514746,20.64437603,30.87760039,-0.703516145,2017/11/20
0.488495294,5.365123928,10.80398251,20.68561028,30.87912496,-0.657050115,2017/11/20
0.491618621,5.73415046,10.29249313,20.88730325,30.87181634,-0.012552633,2017/11/20
0.475912522,5.414416308,10.62996882,20.17028362,30.38054266,-0.133049578,2017/11/20
0.948976492,5.534683919,10.4668592,20.91358084,30.42960223,-0.28391374,2017/11/20
0.679869781,5.000765555,10.2552704,20.83839862,30.77158468,-0.750898916,2017/11/20
0.377289411,5.77848154,10.07780923,20.61548818,30.94880029,-0.005340381,2017/11/20
0.946043201,5.423324722,10.18861342,20.82907479,30.75681135,-0.753799702,2017/11/20
0.774686506,5.949886784,10.62923504,20.43651515,30.95895842,-0.830304326,2017/11/20
0.123163106,5.197234953,10.35628442,20.12532824,30.97793813,-0.877445323,2017/11/20
0.106806376,5.951326855,10.61712128,20.54973354,30.56777613,-0.287546943,2017/11/20
0.575968333,5.165723485,10.39434918,20.80297204,30.60845222,-0.047934152,2017/11/20
0.475288493,5.382988978,10.44876037,20.57234403,30.9672722,-0.349179954,2017/11/20
0.645245584,5.05897687,10.48637748,20.03897417,30.02780707,-0.302706816,2017/11/20
0.139909878,5.136922106,10.82202192,20.31112349,30.34569746,-0.550658721,2017/11/20
0.704302209,5.12746706,10.76781401,20.24827089,30.3978648,-0.838314042,2017/11/20
0.666780696,5.185779798,10.27714264,20.73377398,30.93199475,-0.704935129,2017/11/20
0.994546294,5.478479385,10.75575662,20.65712522,30.62355668,-0.292630151,2017/11/20
0.143808615,5.423311881,10.12016062,20.5367229,30.18213395,-0.218487066,2017/11/20
0.758359311,5.045880347,10.50731737,20.17658977,30.77131451,-0.731436723,2017/11/20
0.355642912,5.926441468,10.32498498,20.04663267,30.2127886,-0.163494096,2017/11/20
0.758104883,5.081100948,10.56088538,20.13898921,30.38036936,-0.079585595,2017/11/20
0.502893356,5.484364843,10.87355267,20.54213021,30.9596774,-0.824241083,2017/11/20
0.060408703,5.501329084,10.67338854,20.89195148,30.33283835,-0.491308387,2017/11/20
0.445666645,5.228655088,10.20899555,20.89492905,30.36158707,-0.067615764,2017/11/20
0.884137074,5.431101614,10.32868781,20.82113199,30.37417947,-0.21143339,2017/11/20
0.201765788,5.247675442,10.42568744,20.1805626,30.59611599,-0.698741514,2017/11/20
0.348060725,5.925828743,10.59075351,20.32715074,30.15169778,-0.054679237,2017/11/20
0.868347671,5.291840318,10.30464784,20.41804754,30.41580275,-0.639704393,2017/11/20
0.198959777,5.368118492,10.30011756,20.27566965,30.96102142,-0.290926747,2017/11/20
0.340995007,5.404630369,10.99865467,20.77129574,30.41439201,-0.949173547,2017/11/20
0.719881128,5.358254173,10.86736898,20.36672269,30.80091742,-0.1039051,2017/11/20
0.715168852,5.672721882,10.41622904,20.9221299,30.53664718,-0.340121016,2017/11/20
0.337790184,5.791319188,10.67876097,20.45760035,30.69172594,-0.374641591,2017/11/20
0.13455595,5.652000665,10.1789245,20.65222881,30.37945817,-0.171564824,2017/11/20
0.337422066,5.777589541,10.46995433,20.64431887,30.61684381,-0.115337403,2017/11/20
0.842805055,5.488576805,10.68438551,20.77367619,30.11767083,-0.302038087,2017/11/20
0.396514323,5.919975046,10.41353748,20.0393385,30.03613454,-0.688610159,2017/11/20
0.833086838,5.402845882,10.05380144,20.52242941,30.25831021,-0.94895467,2017/11/20
0.444130253,5.709287966,10.29049358,20.7807031,30.23773603,-0.458259246,2017/11/20
0.2917294,5.701160253,10.74734733,20.57183115,30.97736115,-0.811086839,2017/11/20
0.600370116,5.261585475,10.98691095,20.08430123,30.06450481,-0.793388011,2017/11/20
0.617218345,5.345132083,10.27567405,20.44487903,30.96375426,-0.881279773,2017/11/20
0.70018264,5.250137012,10.76171591,20.2790108,30.23394763,-0.103781718,2017/11/20
0.455900507,5.490471063,10.07698252,20.38740083,30.67123946,-0.678836704,2017/11/20
0.443652932,5.086901251,10.2816164,20.52800018,30.15694394,-0.914451682,2017/11/20
0.166024083,5.263813334,10.11637608,20.09803866,30.22355674,-0.203557259,2017/11/20
0.943846705,5.212079532,10.86406923,20.64421778,30.87553178,-0.005949356,2017/11/20
0.364038085,5.339099681,10.82714565,20.10410902,30.95684179,-0.493653041,2017/11/20
0.742824756,5.566562534,10.9698323,20.90484381,30.43935235,-0.878177513,2017/11/20
0.047942557,5.838037688,10.59020806,20.13225274,30.07088998,-0.021459263,2017/11/20
0.047561393,5.151964059,10.4463167,20.36096039,30.05793891,-0.52530486,2017/11/20
0.006404749,5.829681357,10.34037099,20.26200134,30.21296402,-0.030714014,2017/11/20
0.642607366,5.388899588,10.94602598,20.86436057,30.47504736,-0.080555169,2017/11/20
0.385701728,5.440123075,10.20736325,20.21344012,30.10372073,-0.72435392,2017/11/20
0.704541843,5.512653938,10.71231675,20.24015851,30.03160097,-0.570433654,2017/11/20
0.256037035,5.154246078,10.13247799,20.39740438,30.39493381,-0.086550375,2017/11/20
0.083213124,5.857945212,10.61338604,20.98527437,30.12841184,-0.643334584,2017/11/20
0.766075009,5.439319297,10.81440676,20.67774071,30.09407207,-0.390292466,2017/11/20
0.834463642,5.552133619,10.95258483,20.50069535,30.73405898,-0.67468402,2017/11/20
0.551411442,5.192942184,10.25511983,20.9194666,30.12498125,-0.647782492,2017/11/20
0.989036293,5.823301978,10.44098961,20.44736969,30.02328665,-0.273685618,2017/11/20
0.567455899,5.674998259,10.66603619,20.02922088,30.69032308,-0.344907913,2017/11/20
0.45443652,5.030199258,10.34437567,20.41530322,30.17006742,-0.63918411,2017/11/20
0.155260359,5.467493904,10.4384817,20.06808205,30.99001401,-0.302270014,2017/11/20
0.015782769,5.372604584,10.21139025,20.16589575,30.65461661,-0.162045453,2017/11/20
0.605918798,5.694959303,10.66150467,20.5994173,30.83104775,-0.270910704,2017/11/20
0.833675906,5.287515918,10.83200893,20.99846092,30.73249278,-0.772920863,2017/11/20
0.235315408,5.173326851,10.13288513,20.60015748,30.10152367,-0.082833907,2017/11/20
0.381192242,5.416194426,10.22696354,20.41436521,30.54655078,-0.536319024,2017/11/20
0.183481592,5.728547353,10.29602811,20.06749748,30.86881774,-0.407595994,2017/11/20
0.065995279,5.805235965,10.69256933,20.96976314,30.44905616,-0.381779108,2017/11/20
0.712437493,5.019716733,10.75862494,20.35678871,30.85609833,-0.668358404,2017/11/20
0.684497096,5.572609055,10.73483367,20.17897704,30.37541737,-0.242031258,2017/11/20
0.679704459,5.441473706,10.80535567,20.46806579,30.15944103,-0.984204157,2017/11/20
0.866395943,5.525288378,10.66925585,20.32821907,30.79295322,-0.950873847,2017/11/20
0.988547544,5.393225767,10.93092937,20.66648964,30.20689354,-0.574254279,2017/11/20
0.764975992,5.464734308,10.88126027,20.68270375,30.0121267,-0.215071904,2017/11/20
0.201345032,5.091351219,10.02855032,20.08220008,30.56535264,-0.599128806,2017/11/20
0.790404186,5.792651368,10.35856599,20.45179959,30.2789641,-0.5961418,2017/11/20
0.183450771,5.940253296,10.67396656,20.66459507,30.15251774,-0.979295689,2017/11/20
0.503433302,5.339523836,10.71826716,20.05132489,30.77523381,-0.149547786,2017/11/20
0.561124621,5.568587018,10.04771751,20.37896518,30.71581685,-0.382867998,2017/11/20
0.491916163,5.655398925,10.01627914,20.25098775,30.38600398,-0.289292356,2017/11/20
0.163706819,5.969023421,10.09529468,20.49202167,30.04185539,-0.59618058,2017/11/20
0.059560416,5.847688031,10.93829257,20.59469974,30.29191358,-0.408353063,2017/11/20
0.935985143,5.653380857,10.92425499,20.12394379,30.33143634,-0.063306013,2017/11/20
0.489551606,5.371513864,10.61206934,20.28657412,30.86164859,-0.726240789,2017/11/20
0.951488198,5.549109188,10.02805907,20.41608398,30.56617764,-0.287978997,2017/11/20
0.738669516,5.001436241,10.20423661,20.45380187,30.07656685,-0.059341639,2017/11/20
0.244209176,5.674107114,10.84331261,20.79535121,30.35017817,-0.173272322,2017/11/20
0.71488417,5.37722283,10.15872885,20.75318333,30.68877854,-0.970645878,2017/11/20
0.389474838,5.814339779,10.19216763,20.11157919,30.95948568,-0.194313399,2017/11/20
0.912499429,5.684632718,10.21190205,20.96392328,30.65396926,-0.454651953,2017/11/20
0.330793171,5.109561712,10.30427916,20.78189419,30.3873766,-0.175860866,2017/11/20
0.796365127,5.259285271,10.7358842,20.02503594,30.29705387,-0.551679988,2017/11/20
0.825003441,5.356727237,10.86545825,20.65178683,30.69194172,-0.096278973,2017/11/20
0.51564547,5.791227322,10.21831864,20.10463299,30.19207817,-0.052962572,2017/11/20
0.849465214,5.153991002,10.38361741,20.66912339,30.58852889,-0.494571577,2017/11/20
0.335816053,5.355166563,10.55199526,20.15202232,30.71078978,-0.545392766,2017/11/20
0.866220786,5.119491073,10.6761669,20.2604095,30.58062661,-0.951251649,2017/11/20
0.239322715,5.536452733,10.84269688,20.84727718,30.38880192,-0.363241674,2017/11/20
0.839080371,5.862435868,10.24479518,20.4744286,30.68160484,-0.877057036,2017/11/20
0.994850114,5.493899582,10.47874194,20.15388239,30.52969682,-0.515694802,2017/11/20
0.673056554,5.719297353,10.05970071,20.77773408,30.95456328,-0.143247429,2017/11/20
0.529735687,5.211445817,10.87555539,20.84877618,30.84435946,-0.717176579,2017/11/20
0.679404685,5.440208215,10.59452148,20.57820592,30.18942073,-0.410455619,2017/11/20
0.062331002,5.805541121,10.64069077,20.86156255,30.77500422,-0.082337922,2017/11/20
0.602539959,5.781482534,10.23640292,20.86615893,30.01291725,-0.274651448,2017/11/20
0.900944376,5.924911485,10.42670939,20.96877992,30.8048685,-0.412456775,2017/11/20
0.81729094,5.734894096,10.00717875,20.72934415,30.01473632,-0.33707515,2017/11/20
0.447030525,5.944580963,10.60087804,20.42231165,30.40492554,-0.668697066,2017/11/20
0.185599744,5.388869516,10.95999182,20.16763354,30.91176292,-0.570541441,2017/11/20
0.070633369,5.059176918,10.48789414,20.86364156,30.85409379,-0.18324152,2017/11/20
0.865044891,5.06927797,10.06541619,20.97279481,30.57407273,-0.667964536,2017/11/20
0.154145114,5.19627277,10.60232349,20.53084322,30.60562089,-0.787357442,2017/11/20
0.543765171,5.84489097,10.01276232,20.97563784,30.2362132,-0.360872461,2017/11/20
0.498566961,5.17153126,10.67051032,20.55563262,30.1831489,-0.186412093,2017/11/20
0.211832886,5.23434312,10.32121214,20.23623364,30.5611711,-0.050259369,2017/11/20
0.71616437,5.267215743,10.6129961,20.27917749,30.75171919,-0.266527909,2017/11/20
0.904074964,5.353964298,10.30793072,20.92906269,30.95750625,-0.923023598,2017/11/20
0.437167967,5.812820957,10.43218394,20.79262288,30.6334339,-0.172435266,2017/11/20
0.353010017,5.897753086,10.8031199,20.59338415,30.36251517,-0.001044875,2017/11/20
0.671618178,5.51995103,10.60777925,20.4587615,30.45926308,-0.451183421,2017/11/20
0.984724908,5.934165526,10.02769304,20.52003848,30.40637316,-0.51314835,2017/11/20
0.367072665,5.457361622,10.32607974,20.35929176,30.5531993,-0.681604315,2017/11/20
0.382298168,5.42791887,10.44113312,20.66034791,30.21439085,-0.066020458,2017/11/20
0.062767497,5.328859712,10.57034507,20.86791101,30.53566146,-0.977464254,2017/11/20
0.617539185,5.839347677,10.02169615,20.32903694,30.63874072,-0.077042044,2017/11/20
0.602559875,5.862867164,10.55032315,20.90173909,30.86033914,-0.273015443,2017/11/20
0.424792891,5.681467773,10.5938985,20.94861656,30.72803109,-0.854666106,2017/11/20
0.831198642,5.461212888,10.45030833,20.54489063,30.74034099,-0.183415437,2017/11/20
0.600224089,5.514503248,10.63571434,20.04996202,30.63605065,-0.851795289,2017/11/20
0.564044322,5.606499417,10.45353673,20.29514005,30.00005378,-0.420248979,2017/11/20
0.035906029,5.319737009,10.71184211,20.77592405,30.42873642,-0.819044502,2017/11/20
0.935640855,5.404564087,10.30799245,20.18568778,30.83848036,-0.717733175,2017/11/20
0.585208376,5.78695674,10.01279182,20.36085244,30.69377502,-0.258781506,2017/11/20
0.328743997,5.240168206,10.98759725,20.30856857,30.52160507,-0.885795356,2017/11/20
0.511483069,5.72126377,10.67628968,20.67134414,30.04703371,-0.402561836,2017/11/20
0.597533441,5.828827855,10.32223024,20.65414487,30.6515681,-0.916154141,2017/11/20
0.787405059,5.068974685,10.89991735,20.4031293,30.74517094,-0.838106592,2017/11/20
0.377874324,5.729867726,10.81187523,20.62496963,30.2505409,-0.194535143,2017/11/20
0.011881531,5.542367563,10.34500049,20.6768448,30.83342646,-0.824898213,2017/11/20
0.724116102,5.2887064,10.28449221,20.35335724,30.41351482,-0.572536218,2017/11/20
0.140848078,5.211325775,10.00570477,20.34382624,30.65298873,-0.078085429,2017/11/20
0.268970806,5.781025273,10.90905049,20.81399223,30.29003643,-0.910007434,2017/11/20
0.979512968,5.734830757,10.57291901,20.98998762,30.52396291,-0.147360344,2017/11/20
0.058685602,5.300276112,10.77920924,20.05918936,30.83328732,-0.925896524,2017/11/20
0.468844724,5.528514638,10.89707433,20.70182267,30.21597414,-0.023927543,2017/11/20
0.27885549,5.250010639,10.23589911,20.26086974,30.56738802,-0.62272731,2017/11/20
0.771001163,5.455635023,10.61150406,20.33982478,30.18210402,-0.545794639,2017/11/20
0.169995436,5.97267163,10.92801,20.37389003,30.97837472,-0.492666313,2017/11/20
0.104041674,5.45603756,10.56163422,20.65920427,30.86223976,-0.492793679,2017/11/20
0.956778803,5.547413486,10.68128592,20.31218106,30.93239963,-0.632671885,2017/11/20
0.003401805,5.15885731,10.28625553,20.89218314,30.65422978,-0.828210271,2017/11/20
0.068317854,5.791489291,10.72502777,20.64642612,30.54923077,-0.599437489,2017/11/20
0.544439095,5.841500482,10.13121399,20.34000935,30.27042396,-0.699387646,2017/11/20
0.340430431,5.631356018,10.20589976,20.7252925,30.17365778,-0.898046866,2017/11/20
0.897101538,5.809333484,10.92294215,20.46728774,30.91420535,-0.01138308,2017/11/20
0.641720283,5.653147291,10.66599339,20.00567239,30.86907707,-0.317310834,2017/11/20
0.811735652,5.76085791,10.47791336,20.47028824,30.73137927,-0.608740151,2017/11/20
0.197861543,5.960308722,10.77005776,20.50183276,30.09167464,-0.964320415,2017/11/20
0.098606874,5.79629779,10.12088534,20.39263956,30.38000252,-0.593846162,2017/11/20
0.583919185,5.256387877,10.71615547,20.15938815,30.51712448,-0.462414359,2017/11/20
0.399670969,5.165115661,10.81664474,20.31093129,30.29572607,-0.248823477,2017/11/20
0.547138959,5.445144064,10.68589202,20.37069329,30.21272041,-0.251851658,2017/11/20
0.821740566,5.119329957,10.22055673,20.47794058,30.48748338,-0.640557614,2017/11/20
0.095212976,5.565890945,10.47516232,20.77513165,30.15717262,-0.995581322,2017/11/20
0.044874242,5.580737223,10.43743957,20.70832537,30.92779618,-0.228763736,2017/11/20
0.100488357,5.257874508,10.16378311,20.18501694,30.55132099,-0.65344514,2017/11/20
0.664313789,5.502859506,10.48557164,20.35797045,30.09946298,-0.1563468,2017/11/20
0.651169935,5.606994352,10.23510799,20.24553025,30.41207273,-0.39181541,2017/11/20
0.258805436,5.225067571,10.23744387,20.55908264,30.28149827,-0.128854186,2017/11/20
0.614782996,5.194343601,10.94296961,20.39480074,30.86458678,-0.557061191,2017/11/20
0.649932128,5.347545424,10.78178482,20.88219179,30.62719208,-0.235841633,2017/11/20
0.755017572,5.841003554,10.94071917,20.86480687,30.07132492,-0.753038148,2017/11/20
0.358910475,5.609808791,10.43608736,20.56290026,30.05450083,-0.038422943,2017/11/20
0.721275425,5.912737599,10.6533406,20.73678402,30.18183823,-0.08808546,2017/11/20
0.65172784,5.423889399,10.48424081,20.27162278,30.59167171,-0.127306798,2017/11/20
0.450872767,5.685404151,10.47939328,20.42131018,30.60090219,-0.706765309,2017/11/20
0.838309512,5.002136413,10.8648291,20.3649577,30.67839694,-0.097853558,2017/11/20
0.396563653,5.960399708,10.81019056,20.29796552,30.93690652,-0.890538402,2017/11/20
0.004306643,5.630098233,10.97245129,20.64002085,30.3057991,-0.827912872,2017/11/20
0.029557654,5.407688125,10.98447192,20.0683496,30.13455611,-0.724630112,2017/11/20
0.237148071,5.63427348,10.85361206,20.3703322,30.58863627,-0.83762648,2017/11/20
0.738753132,5.840319582,10.88592695,20.42987675,30.89498171,-0.356679723,2017/11/20
0.710875659,5.436125826,10.61552642,20.62288202,30.65217946,-0.718785754,2017/11/20
0.715163105,5.6034812,10.22035254,20.38052348,30.43545208,-0.311147513,2017/11/20
0.462338039,5.281745212,10.81812404,20.75201974,30.01975354,-0.68935073,2017/11/20
0.351682388,5.503345387,10.8457939,20.87547159,30.26986867,-0.267692983,2017/11/20
0.969471368,5.010507676,10.29389429,20.29208356,30.70342631,-0.611838538,2017/11/20
0.021664262,5.458750989,10.51136758,20.62899818,30.08660889,-0.591954823,2017/11/20
0.863885161,5.878259166,10.10919727,20.97104218,30.97139834,-0.394254099,2017/11/20
0.140222173,5.236492764,10.52991318,20.77195635,30.69466122,-0.425506743,2017/11/20
0.703271487,5.706381107,10.71340716,20.87410277,30.32214748,-0.792056882,2017/11/20
0.278246572,5.65564558,10.73797054,20.70109111,30.47665618,-0.280732653,2017/11/20
0.984313248,5.289684969,10.68672998,20.56798369,30.6211707,-0.611303216,2017/11/20
0.396433946,5.519455227,10.35045573,20.10598502,30.8115055,-0.648990457,2017/11/20
0.21188799,5.330732183,10.27781607,20.68227896,30.87920852,-0.177789795,2017/11/20
0.30707422,5.314989447,10.49346346,20.01325876,30.8680036,-0.056578476,2017/11/20
0.61252241,5.726735557,10.12940616,20.98987535,30.10692162,-0.272816289,2017/11/20
0.783082796,5.716447024,10.51937214,20.33136178,30.01873981,-0.67720947,2017/11/20
0.200680876,5.671459383,10.02542577,20.52350115,30.76128486,-0.554023443,2017/11/20
0.500434605,5.29608494,10.28987498,20.40102436,30.5287378,-0.925896719,2017/11/20
0.58614383,5.492887915,10.76830196,20.97547453,30.67857698,-0.466390552,2017/11/20
0.176026367,5.957700964,10.1268769,20.26324181,30.43052029,-0.125711622,2017/11/20
0.6110464,5.865954184,10.9701091,20.70489275,30.8102587,-0.758272444,2017/11/20
0.034921325,5.526975997,10.27489411,20.08374156,30.8956188,-0.509056399,2017/11/20
0.304859974,5.251524446,10.99728647,20.17985246,30.20856134,-0.076631566,2017/11/20
0.27942914,5.130274388,10.64429565,20.59005186,30.21828401,-0.944393743,2017/11/20
0.860832236,5.678894459,10.88667654,20.16182858,30.32346222,-0.513239761,2017/11/20
0.413151694,5.691264224,10.4381696,20.31520119,30.14425063,-0.667354262,2017/11/20
0.859468759,5.623995382,10.30908446,20.83586872,30.68384078,-0.267980832,2017/11/20
0.195980656,5.120718636,10.31642763,20.98518341,30.07877815,-0.448356056,2017/11/20
0.410361153,5.832915245,10.29024284,20.89138238,30.36891164,-0.749095776,2017/11/20
0.45113054,5.265291108,10.9964247,20.12664454,30.11438136,-0.051448665,2017/11/20
0.154182191,5.50476152,10.91927072,20.99404986,30.7712217,-0.53006644,2017/11/20
0.283874594,5.974651634,10.9098595,20.62023677,30.38978494,-0.203450722,2017/11/20
0.815594069,5.869971791,10.30323994,20.9031895,30.82883272,-0.021651198,2017/11/20
0.526558299,5.804994574,10.82689095,20.26427648,30.05795679,-0.392807221,2017/11/20
0.052160901,5.634827243,10.19534289,20.14908116,30.31941678,-0.42220834,2017/11/20
0.511118984,5.407636089,10.3985519,20.69122693,30.12955099,-0.657254082,2017/11/20
0.272370176,5.57268911,10.276302,20.7314478,30.63168603,-0.634444006,2017/11/20
0.085533282,5.458410458,10.25501959,20.42595382,30.90589774,-0.472671101,2017/11/20
0.085292065,5.391233164,10.1240995,20.59344956,30.34633396,-0.925171135,2017/11/20
0.913592837,5.832846596,10.71457593,20.82734521,30.51529239,-0.794940293,2017/11/20
0.024569735,5.842442619,10.61141198,20.95372061,30.91834399,-0.813145346,2017/11/20
0.219838159,5.554043507,10.1653434,20.07291564,30.81231805,-0.627214553,2017/11/20
0.434249507,5.310602367,10.63637538,20.62198359,30.57970946,-0.571645898,2017/11/20
0.821805567,5.33743773,10.71285225,20.63886358,30.42904286,-0.537732219,2017/11/20
0.444147326,5.501105483,10.60438396,20.96288135,30.24424415,-0.659052763,2017/11/20
0.683343502,5.124676918,10.18690247,20.8790025,30.94798102,-0.403849631,2017/11/20
0.085395657,5.572272704,10.95150321,20.70469596,30.7239773,-0.137022437,2017/11/20
0.646867966,5.108919232,10.8377203,20.20867044,30.69129578,-0.905321829,2017/11/20
0.461140485,5.232035117,10.48378598,20.37348171,30.73460494,-0.847627785,2017/11/20
0.755107703,5.044401106,10.60504363,20.69944338,30.49169952,-0.947418383,2017/11/20
0.044372769,5.846260576,10.09838502,20.75597317,30.15426571,-0.169686934,2017/11/20
0.455529602,5.27920715,10.13127528,20.8166493,30.81441368,-0.40262711,2017/11/20
0.073874977,5.689578044,10.36353339,20.54103602,30.61185853,-0.684556157,2017/11/20
0.867648282,5.426652398,10.03921761,20.10823777,30.33664926,-0.682264337,2017/11/20
0.966072919,5.909798478,10.70388344,20.86368512,30.26253994,-0.272226526,2017/11/20
0.950367126,5.668538352,10.81402423,20.70705947,30.82883898,-0.670891515,2017/11/20
0.143467342,5.365551635,10.15068513,20.71497675,30.40801101,-0.131057043,2017/11/20
0.852593103,5.681864847,10.28912987,20.74538871,30.91620572,-0.4142798,2017/11/20
0.421503742,5.069397736,10.6482263,20.7101575,30.67634378,-0.321814286,2017/11/20
0.505770518,5.691956983,10.86808388,20.1719016,30.25240563,-0.555295769,2017/11/20
0.336424399,5.181637469,10.71639085,20.92019455,30.6601343,-0.486910207,2017/11/20
0.234746983,5.242252416,10.07206435,20.40309957,30.18692015,-0.450740766,2017/11/20
0.394781141,5.698726241,10.37074286,20.97696759,30.4791672,-0.952844132,2017/11/20
0.760546179,5.198650425,10.2450729,20.05063715,30.32723709,-0.438430995,2017/11/20
0.758131801,5.355059478,10.01348199,20.86539493,30.47695066,-0.065584249,2017/11/20
0.418893651,5.802047161,10.47280213,20.14857291,30.63106583,-0.565470327,2017/11/20
0.490392161,5.811894575,10.21901008,20.54584302,30.99507866,-0.623059232,2017/11/20
0.88145955,5.273165373,10.92727811,20.36841617,30.73898592,-0.074472322,2017/11/20
0.131390877,5.598939706,10.9417335,20.53015425,30.92748912,-0.60296324,2017/11/20
0.392138645,5.490837715,10.09431511,20.40864328,30.48936309,-0.615700592,2017/11/20
0.221363577,5.804764472,10.40424533,20.73341109,30.72412663,-0.911833661,2017/11/20
0.920508886,5.356160449,10.967991,20.0678139,30.19113925,-0.837138867,2017/11/20
0.132826799,5.019296207,10.19986254,20.14579244,30.60870388,-0.821458169,2017/11/20
0.804738203,5.85755229,10.54715301,20.56258828,30.60287911,-0.965731047,2017/11/20
0.091757987,5.004217139,10.44677418,20.07023128,30.93472598,-0.023404623,2017/11/20
0.286468886,5.261435195,10.04128311,20.83198928,30.3386456,-0.43164439,2017/11/20
0.034711142,5.978911419,10.43445597,20.17006313,30.19632713,-0.153541596,2017/11/20
0.808663178,5.159828433,10.25272824,20.35618419,30.35140174,-0.212914086,2017/11/20
0.679268463,5.721356084,10.65163789,20.09359752,30.06359841,-0.320691407,2017/11/20
0.161835756,5.038833486,10.14002109,20.12822255,30.66942428,-0.294541189,2017/11/20
0.847430558,5.374785171,10.16686424,20.31385955,30.40589418,-0.369157283,2017/11/20
0.191546118,5.963251713,10.59571873,20.38263251,30.87478752,-0.073179805,2017/11/20
0.672195248,5.275716068,10.49456616,20.11244884,30.00153905,-0.966514553,2017/11/20
0.038149672,5.724583434,10.34756026,20.65746678,30.28860691,-0.46011699,2017/11/20
0.929908701,5.45282826,10.71760892,20.75525885,30.44532186,-0.945779087,2017/11/20
0.586383419,5.0513287,10.91222279,20.78650196,30.81391353,-0.783177436,2017/11/20
0.86619499,5.066032136,10.88285,20.44424946,30.15528828,-0.585560591,2017/11/20
0.0196669,5.351201127,10.44888974,20.69654532,30.30197628,-0.525054968,2017/11/20
0.108500933,5.321875945,10.80170724,20.34872743,30.61440167,-0.448234722,2017/11/20
0.124634215,5.426180511,10.95624882,20.35624185,30.04874535,-0.583886792,2017/11/20
0.422308786,5.608774343,10.83853424,20.89953136,30.88682972,-0.364541778,2017/11/20
0.527914989,5.670117797,10.75978543,20.19248715,30.02353721,-0.743107085,2017/11/20
0.991592631,5.382670757,10.33985732,20.41262412,30.91382331,-0.813162826,2017/11/20
0.340391418,5.81990129,10.87184509,20.39154899,30.70356783,-0.621871227,2017/11/20
0.588367405,5.878128769,10.22475561,20.12967279,30.92562496,-0.592603676,2017/11/20
0.305702615,5.645237589,10.25552078,20.6780611,30.5864687,-0.443479207,2017/11/20
0.333021427,5.912007628,10.2634103,20.27310377,30.20607373,-0.015055197,2017/11/20
0.742397239,5.739598338,10.38775475,20.25838091,30.47792957,-0.577337126,2017/11/20
0.235126623,5.190209272,10.50242889,20.07076603,30.72097613,-0.555673705,2017/11/20
0.07582192,5.301515818,10.11552986,20.58176865,30.04630755,-0.678286613,2017/11/20
0.750292029,5.810458906,10.31401606,20.71180828,30.48416143,-0.327562683,2017/11/20
0.135932296,5.149306178,10.93087737,20.00513092,30.91377045,-0.578805808,2017/11/20
0.604451032,5.654887332,10.70196992,20.29578794,30.65131763,-0.090569355,2017/11/20
0.683167207,5.312984421,10.92446806,20.78246925,30.96381779,-0.836312863,2017/11/20
0.073444695,5.353297173,10.52685684,20.07975788,30.48342833,-0.875808249,2017/11/20
0.014414364,5.814454767,10.25462468,20.99746333,30.72007664,-0.398191085,2017/11/20
0.646540921,5.88974254,10.52317199,20.79931848,30.8366528,-0.144767452,2017/11/20
0.331305071,5.241673071,10.97522738,20.88028871,30.64140369,-0.517263368,2017/11/20
0.948886419,5.602286886,10.48053289,20.91408865,30.25190397,-0.262768286,2017/11/20
0.008277068,5.31461473,10.12372162,20.69692727,30.90251132,-0.656750399,2017/11/20
0.243175356,5.048294701,10.48408077,20.63405554,30.89687022,-0.589905421,2017/11/20
0.318202452,5.134302327,10.51779654,20.94544954,30.57086779,-0.666861057,2017/11/20
0.061439297,5.407730598,10.10333737,20.70682668,30.15807621,-0.147564718,2017/11/20
0.144745839,5.097404212,10.80157045,20.18715283,30.8382376,-0.571494126,2017/11/20
0.322525588,5.101712602,10.17308962,20.49574587,30.49066464,-0.590931312,2017/11/20
0.085725037,5.399122831,10.500924,20.41578387,30.33460501,-0.869798304,2017/11/20
0.396006778,5.836740006,10.40523192,20.62777548,30.64950107,-0.956811126,2017/11/20
0.720910505,5.63490136,10.59619002,20.78674645,30.90862395,-0.457371184,2017/11/20
0.18692922,5.963731931,10.35034085,20.90329821,30.07689182,-0.402421731,2017/11/20
0.949401175,5.717049493,10.52762568,20.45565406,30.00097196,-0.475310895,2017/11/20
0.861029985,5.680248762,10.81612205,20.25184272,30.73914459,-0.835191908,2017/11/20
0.625195722,5.2696425,10.7066377,20.66757367,30.55061899,-0.671869758,2017/11/20
0.806356059,5.676600232,10.77601679,20.59876103,30.13062814,-0.128001295,2017/11/20
0.031216665,5.326739812,10.81990876,20.77388357,30.26853034,-0.92619516,2017/11/20
0.708631904,5.8454372,10.38785211,20.82567763,30.59096847,-0.832498207,2017/11/20
0.549864218,5.361496465,10.80312939,20.36950555,30.52759179,-0.388310557,2017/11/20
0.361881552,5.089184323,10.19261287,20.15254569,30.14558155,-0.219607023,2017/11/20
0.050255749,5.142002834,10.3233492,20.07103877,30.97545001,-0.625519115,2017/11/20
0.227237305,5.895584835,10.41481989,20.46343105,30.50057255,-0.805803846,2017/11/20
0.522262513,5.103473509,10.68685133,20.18625577,30.3899126,-0.962656448,2017/11/20
0.844399621,5.291077591,10.04895807,20.50622716,30.6961472,-0.769526769,2017/11/20
0.887437406,5.442700778,10.9632452,20.78682527,30.54324969,-0.811411887,2017/11/20
0.75956423,5.323284214,10.2353518,20.96806682,30.49199658,-0.057956922,2017/11/20
0.649134153,5.421485959,10.16493817,20.97793833,30.86884264,-0.19085765,2017/11/20
0.763364145,5.213842704,10.58065928,20.87946319,30.84233977,-0.357704845,2017/11/20
0.078134335,5.056282938,10.20934475,20.44165951,30.68859337,-0.977484956,2017/11/20
0.814800322,5.001463934,10.7122917,20.26874321,30.4241854,-0.500114543,2017/11/20
0.024858758,5.075730332,10.04051108,20.16721259,30.95512017,-0.232439121,2017/11/20
0.192573651,5.465100874,10.2967047,20.83771482,30.21724062,-0.594212987,2017/11/20
0.595150581,5.838257158,10.61157066,20.87708667,30.66262342,-0.971880687,2017/11/20
0.124574146,5.374534746,10.75185919,20.15170245,30.31634809,-0.38693875,2017/11/20
0.411272457,5.088145364,10.84945133,20.14713519,30.7132095,-0.001357967,2017/11/20
0.737165708,5.167597389,10.56495397,20.62438533,30.83107077,-0.708517548,2017/11/20
0.115938435,5.047243979,10.06377331,20.70242723,30.59504964,-0.839677593,2017/11/20
0.616905642,5.791232658,10.02520209,20.540406,30.43568794,-0.853890278,2017/11/20
0.912779499,5.234522608,10.05870253,20.7465736,30.33369536,-0.514675144,2017/11/20
0.511347335,5.704284605,10.23582881,20.85662586,30.92292161,-0.628989807,2017/11/20
0.583859058,5.821745043,10.5643076,20.30677224,30.06072973,-0.512920727,2017/11/20
0.858951565,5.780732953,10.41408789,20.13746762,30.2717812,-0.079286569,2017/11/20
0.969005254,5.826640649,10.10394167,20.09084828,30.082841,-0.96567407,2017/11/20
0.133663873,5.531932527,10.64084319,20.24912948,30.1184305,-0.158931164,2017/11/20
0.512813707,5.335172863,10.81833197,20.78544113,30.35241944,-0.229515945,2017/11/20
0.125033856,5.19148316,10.52321817,20.56594808,30.19045138,-0.072039721,2017/11/20
0.042386259,5.482908075,10.10478013,20.57732751,30.47196628,-0.401713676,2017/11/20
0.188924256,5.202819302,10.5971679,20.6618984,30.93496624,-0.870614827,2017/11/20
0.853414245,5.585712072,10.06753148,20.4922843,30.71808269,-0.265562315,2017/11/20
0.014690304,5.564988231,10.80521876,20.58674532,30.35296633,-0.249135251,2017/11/20
0.545271528,5.48440812,10.73603861,20.99143774,30.25867248,-0.857554837,2017/11/20
0.908908468,5.100320882,10.04347476,20.92238677,30.49611818,-0.263157054,2017/11/20
0.420892159,5.778503169,10.48023698,20.03616026,30.4837888,-0.996429245,2017/11/20
0.097389519,5.483171641,10.71334429,20.49025162,30.11399132,-0.882446031,2017/11/20
0.800860268,5.880885393,10.97517162,20.75121623,30.08450873,-0.137100216,2017/11/20
0.965813404,5.555913974,10.58485168,20.10885389,30.70146955,-0.430750892,2017/11/20
0.292290035,5.396658258,10.83999072,20.06243519,30.94585299,-0.727098097,2017/11/20
0.834381791,5.2325533,10.55671533,20.12172246,30.65587694,-0.317885566,2017/11/20
0.329634044,5.439195812,10.97701607,20.23838069,30.76458038,-0.563773151,2017/11/20
0.166612551,5.201560451,10.11017623,20.79840781,30.07882649,-0.930752603,2017/11/20
0.988066197,5.994786217,10.16350425,20.49214477,30.95543942,-0.643317444,2017/11/20
0.76517052,5.597073974,10.22982732,20.99639295,30.77630417,-0.463755839,2017/11/20
0.890596354,5.662616168,10.39569628,20.41263575,30.84330307,-0.984964003,2017/11/20
0.071242313,5.219945094,10.75268273,20.81660469,30.34106628,-0.789149617,2017/11/20
0.265401614,5.464343801,10.71860796,20.77035612,30.72137877,-0.483572783,2017/11/20
0.307305646,5.7117847,10.03581299,20.55250086,30.63258631,-0.94200439,2017/11/20
0.99642322,5.664093023,10.56605836,20.83620296,30.99691727,-0.521224065,2017/11/20
0.191969865,5.153714769,10.92893694,20.44227927,30.83088591,-0.936875081,2017/11/20
0.367957888,5.28679903,10.64999863,20.9595955,30.55098401,-0.494535233,2017/11/20
0.934646665,5.703112095,10.72053674,20.83161074,30.76507653,-0.312775287,2017/11/20
0.531078534,5.603738435,10.07079489,20.90578459,30.06162445,-0.470187728,2017/11/20
0.668938777,5.526191943,10.27422353,20.7325141,30.29697238,-0.184100875,2017/11/20
0.839510758,5.909778289,10.29616438,20.15335451,30.65939178,-0.549505938,2017/11/20
0.75112596,5.033119823,10.10176196,20.91564592,30.64462199,-0.251188853,2017/11/20
0.547630454,5.061095658,10.41378688,20.22849378,30.00277778,-0.606643479,2017/11/20
0.02100146,5.518136434,10.64814394,20.96064741,30.19001205,-0.084550857,2017/11/20
0.182983059,5.828050099,10.7027915,20.21735909,30.19210225,-0.924169861,2017/11/20
0.672998771,5.732974213,10.12978935,20.21181623,30.13201347,-0.610357226,2017/11/20
0.297194674,5.354071325,10.66407174,20.08929689,30.09453117,-0.184767569,2017/11/20
0.676293524,5.917220946,10.58433505,20.90792882,30.58061305,-0.536390452,2017/11/20
0.007493791,5.199292057,10.94843359,20.36350692,30.59658888,-0.74456693,2017/11/20
0.777534973,5.12265446,10.46071956,20.21439078,30.99507347,-0.392184616,2017/11/20
0.973184266,5.900249929,10.7905509,20.86997221,30.7230488,-0.712648418,2017/11/20
0.940216051,5.366632808,10.48851497,20.21465062,30.78665624,-0.390453469,2017/11/20
0.522573323,5.845435672,10.3927722,20.43183552,30.6979883,-0.010983745,2017/11/20
0.734371603,5.098737066,10.88506346,20.67712076,30.7571386,-0.570152107,2017/11/20
0.009822306,5.657880359,10.754498,20.23440226,30.20975027,-0.883137468,2017/11/20
0.381089058,5.664208118,10.93157094,20.86134383,30.86299845,-0.706654264,2017/11/20
0.732193052,5.417704445,10.94271051,20.57173861,30.35765531,-0.014482354,2017/11/20
0.383071785,5.987292886,10.1510684,20.24062794,30.63258305,-0.235674673,2017/11/20
0.227196531,5.112254385,10.73504778,20.22818163,30.06840716,-0.758661485,2017/11/20
0.933355363,5.61489581,10.1743788,20.50565115,30.02566003,-0.700493294,2017/11/20
0.375776261,5.228492453,10.80685766,20.11600928,30.47496186,-0.386205893,2017/11/20
0.122015338,5.133209414,10.69531805,20.89880331,30.31198129,-0.164556491,2017/11/20
0.73860548,5.433955833,10.91991708,20.79600336,30.97640865,-0.999114678,2017/11/20
0.576329012,5.53427163,10.35348671,20.34010683,30.23981134,-0.485099334,2017/11/20
0.464087142,5.585049037,10.90564203,20.14514036,30.60711895,-0.719787196,2017/11/20
0.35905549,5.078733107,10.32019479,20.31030228,30.73208181,-0.898428161,2017/11/20
0.519111356,5.656747291,10.57470752,20.36804598,30.51366781,-0.15206296,2017/11/20
0.906530523,5.786519183,10.37546108,20.22786475,30.36977779,-0.665621883,2017/11/20
0.455458793,5.578806853,10.08229733,20.27175443,30.35577866,-0.793333037,2017/11/20
0.330528246,5.147314669,10.01306147,20.687315,30.72299165,-0.862742886,2017/11/20
0.200123896,5.446596645,10.72032622,20.27972824,30.89672757,-0.356732717,2017/11/20
0.039322751,5.676781787,10.98915466,20.50854568,30.41683278,-0.608061341,2017/11/20
0.930308535,5.804976681,10.93092164,20.25005977,30.38429114,-0.942058344,2017/11/20
0.698727032,5.384911723,10.50149859,20.20903485,30.88344385,-0.745461338,2017/11/20
0.34229206,5.950739613,10.27046656,20.60219801,30.88842801,-0.146221417,2017/11/20
0.177189336,5.565180254,10.24123682,20.11610446,30.39661159,-0.436359719,2017/11/20
0.73224507,5.775027392,10.38680368,20.58971349,30.10912135,-0.322576244,2017/11/20
0.58831188,5.410722524,10.36126957,20.84392582,30.57992147,-0.338575093,2017/11/20
0.113568732,5.943244945,10.38185691,20.99238655,30.20495688,-0.875473944,2017/11/20
0.857924568,5.310077963,10.58235425,20.87293135,30.2589935,-0.569426265,2017/11/20
0.355496158,5.240171505,10.18003632,20.34292394,30.65174061,-0.625883803,2017/11/20
0.4751335,5.499243719,10.55800633,20.81533073,30.81704407,-0.402387293,2017/11/20
0.357418451,5.849522834,10.18756418,20.94223629,30.29449428,-0.719971605,2017/11/20
0.568698577,5.994394046,10.52604506,20.2010843,30.07808163,-0.957848407,2017/11/20
0.799822914,5.201481506,10.2167282,20.8528128,30.78958227,-0.353767768,2017/11/20
0.176491161,5.269654008,10.14222592,20.52062931,30.9644693,-0.137510044,2017/11/20
0.855737895,5.508245575,10.69886012,20.49223863,30.42546203,-0.969092075,2017/11/20
0.139041479,5.626728033,10.04331322,20.96696949,30.76878863,-0.424756317,2017/11/20
0.609997618,5.543705104,10.44421822,20.27675195,30.37813343,-0.848139751,2017/11/20
0.293589282,5.309993913,10.35147092,20.80570884,30.01434434,-0.718250211,2017/11/20
0.169809324,5.863864761,10.03014568,20.96666432,30.77586408,-0.373753215,2017/11/20
0.814520701,5.313566258,10.8415339,20.40747061,30.64068323,-0.235125729,2017/11/20
0.444311146,5.515026236,10.05551013,20.22903983,30.92860401,-0.146367936,2017/11/20
0.370270155,5.314877461,10.49483051,20.4554347,30.25739543,-0.578621371,2017/11/20
0.407106349,5.795207375,10.72434546,20.19204035,30.54451999,-0.518644799,2017/11/20
0.780398989,5.635777031,10.9419511,20.40255881,30.54528282,-0.599252271,2017/11/20
0.333610706,5.890124048,10.04911203,20.7624964,30.27995434,-0.2393602,2017/11/20
0.257403676,5.347792283,10.60304385,20.63419247,30.10281084,-0.503530453,2017/11/20
0.038686985,5.699066299,10.82251279,20.52684253,30.84513032,-0.94153858,2017/11/20
0.325830437,5.221492688,10.61375694,20.29089603,30.17864259,-0.511909626,2017/11/20
0.932723857,5.179830184,10.64072603,20.10822961,30.85927522,-0.167977714,2017/11/20
0.480843638,5.545470252,10.90629727,20.19423474,30.58268113,-0.009067471,2017/11/20
0.634731415,5.689140797,10.2055283,20.85023561,30.01203439,-0.846821791,2017/11/20
0.758075727,5.659241456,10.73537406,20.16596143,30.43074308,-0.545047399,2017/11/20
0.437004105,5.949141298,10.56771712,20.35524652,30.49712942,-0.78353076,2017/11/20
0.368401149,5.520972847,10.81366983,20.45721503,30.33733023,-0.78777484,2017/11/20
0.332871721,5.670329468,10.09693848,20.3078386,30.34481169,-0.471664068,2017/11/20
0.030206531,5.73466211,10.47315743,20.92195164,30.3465961,-0.123249665,2017/11/20
0.98011412,5.676441096,10.29066072,20.41832524,30.8643897,-0.867425173,2017/11/20
0.145651049,5.038714902,10.81107535,20.43241581,30.94338535,-0.46850741,2017/11/20
0.765201312,5.95699912,10.18972296,20.28996369,30.35791723,-0.975414848,2017/11/20
0.94755483,5.280251264,10.42727843,20.2729672,30.25862812,-0.615350587,2017/11/20
0.555419691,5.626505012,10.47389537,20.05810939,30.84751255,-0.081151915,2017/11/20
0.485665142,5.861123471,10.12175912,20.20140065,30.09530487,-0.87189818,2017/11/20
0.315441637,5.953162699,10.45225061,20.132315,30.82262435,-0.473282642,2017/11/20
0.830401693,5.42036321,10.12153612,20.42151804,30.88858234,-0.428466705,2017/11/20
0.338183864,5.374445947,10.28577481,20.92255194,30.8977041,-0.31689716,2017/11/20
0.308225406,5.374633111,10.70025696,20.66575019,30.4817955,-0.886678379,2017/11/20
0.305763775,5.056468439,10.40463711,20.28257085,30.76163527,-0.668881302,2017/11/20
0.137159771,5.830693896,10.63043825,20.19993472,30.17300175,-0.761533108,2017/11/20
0.913473293,5.084615834,10.58140745,20.89213096,30.54254303,-0.349811839,2017/11/20
0.927818192,5.040179765,10.70345061,20.32833828,30.81978308,-0.936903508,2017/11/20
0.914078515,5.284542972,10.56732601,20.34994733,30.53581481,-0.160444061,2017/11/20
0.055111942,5.116967839,10.89154974,20.93527145,30.19928656,-0.314853572,2017/11/20
0.243874613,5.457572463,10.73245893,20.0788161,30.50702511,-0.9268163,2017/11/20
0.922295415,5.39524596,10.17398619,20.13546518,30.92166417,-0.654230589,2017/11/20
0.664324132,5.035559804,10.02841724,20.97777505,30.97087066,-0.267373599,2017/11/20
0.423474198,5.935344736,10.34807371,20.13834327,30.94665052,-0.749289326,2017/11/20
0.848470417,5.592722654,10.03140232,20.36284236,30.05578592,-0.267100288,2017/11/20
0.586911196,5.261849228,10.33906441,20.61660129,30.79428722,-0.59951892,2017/11/20
0.010858357,5.160608419,10.50824673,20.24816397,30.54638611,-0.867714354,2017/11/20
0.531352624,5.71913255,10.08802998,20.24997262,30.20712883,-0.797807135,2017/11/20
0.76757499,5.920197558,10.29431112,20.83580352,30.52682323,-0.942370966,2017/11/20
0.933862094,5.605895395,10.51450438,20.41045316,30.59718321,-0.238072465,2017/11/20
0.548699341,5.523520809,10.72759787,20.74983085,30.89624068,-0.929337164,2017/11/20
0.410097372,5.95027216,10.05202081,20.02510409,30.26539134,-0.401096246,2017/11/20
0.014445581,5.727154102,10.75531027,20.27976269,30.49056582,-0.291195343,2017/11/20
0.140417393,5.942904411,10.14302494,20.62830142,30.87093107,-0.840248718,2017/11/20
0.941908296,5.684252959,10.79057321,20.10810032,30.58854308,-0.378114932,2017/11/20
0.017369802,5.618076586,10.62674384,20.29262478,30.5634848,-0.658062099,2017/11/20
0.540523465,5.196258342,10.49460014,20.35810131,30.49849173,-0.837142555,2017/11/20
0.884392076,5.307620195,10.48295819,20.88472936,30.48174348,-0.366002199,2017/11/20
0.653105489,5.109365338,10.50963785,20.15343246,30.25420478,-0.92753491,2017/11/20
0.846300669,5.844800431,10.67858086,20.83643467,30.57925185,-0.307845346,2017/11/20
0.837580233,5.448419997,10.49162819,20.29310813,30.75784119,-0.019008193,2017/11/20
0.542941702,5.859685425,10.05822175,20.14405981,30.20592422,-0.641783604,2017/11/20
0.985521746,5.939605355,10.9901167,20.65286204,30.94725816,-0.588373716,2017/11/20
0.106774063,5.222344265,10.9886279,20.02357453,30.84808123,-0.523330637,2017/11/20
0.830470065,5.914838788,10.23309835,20.72956608,30.70690225,-0.454993026,2017/11/20
0.10955542,5.840464759,10.30795865,20.07576577,30.34431111,-0.245389784,2017/11/20
0.859048854,5.426135163,10.03273267,20.30049551,30.97656237,-0.847442456,2017/11/20
0.725856943,5.193547894,10.33474245,20.94554632,30.60371293,-0.801571441,2017/11/20
0.972766067,5.771956707,10.77100504,20.35379586,30.29760924,-0.074516692,2017/11/20
0.394239463,5.434373388,10.84233741,20.87277979,30.76101442,-0.502032438,2017/11/20
0.571047591,5.002545553,10.93477961,20.37822978,30.71763004,-0.254697348,2017/11/20
0.024620096,5.055990026,10.60110463,20.13718809,30.95379707,-0.517761752,2017/11/20
0.495076912,5.18664769,10.79578305,20.81089058,30.26584163,-0.416991572,2017/11/20
0.875454866,5.267214636,10.272849,20.6891197,30.80883494,-0.122768551,2017/11/20
0.830417251,5.204979256,10.61963716,20.70421097,30.91218036,-0.384789389,2017/11/20
0.051191797,5.567698094,10.33068216,20.44796486,30.25197812,-0.494888904,2017/11/20
0.740448457,5.967429532,10.84407875,20.78915179,30.45537638,-0.873147204,2017/11/20
0.797218502,5.311392315,10.06623541,20.3164481,30.00002883,-0.248570778,2017/11/20
0.981286111,5.542677004,10.3762347,20.74644835,30.45853481,-0.198965159,2017/11/20
0.823738102,5.659288344,10.4988853,20.32459121,30.91126098,-0.003628289,2017/11/20
0.199865204,5.429519079,10.28751136,20.49356419,30.88026122,-0.817286634,2017/11/20
0.786088403,5.787393995,10.01670128,20.10141728,30.77973777,-0.191266636,2017/11/20
0.555307311,5.04515761,10.96632394,20.86212243,30.07969685,-0.523263056,2017/11/20
0.977535077,5.403746779,10.86368282,20.72716867,30.07132188,-0.889696819,2017/11/20
0.755079734,5.671836884,10.59478458,20.03487589,30.31153264,-0.705997174,2017/11/20
0.795403395,5.327521443,10.71987149,20.25121304,30.67484275,-0.148870824,2017/11/20
0.925434232,5.190240531,10.94307857,20.15493615,30.85913686,-0.437811883,2017/11/20
0.322218586,5.684693097,10.19630551,20.30676672,30.22601709,-0.915990445,2017/11/20
0.546314225,5.06174937,10.36171947,20.94292109,30.48060135,-0.102358608,2017/11/20
0.80138773,5.992790599,10.45453862,20.27074711,30.98735865,-0.024059948,2017/11/20
